<?xml version="1.0" encoding="UTF-8"?>
<map version="1.10" tiledversion="1.12.2" orientation="orthogonal" renderorder="right-down" width="20" height="20" tilewidth="16" tileheight="16" infinite="0" nextlayerid="11" nextobjectid="1">
 <tileset firstgid="1" source="Ev içi/Interior_walls_floor.tsx"/>
 <tileset firstgid="181" source="Ev içi/House_interior.tsx"/>
 <tileset firstgid="334" source="Ev içi/Interior.tsx"/>
 <tileset firstgid="712" source="Ev içi/Walls_floor.tsx"/>
 <tileset firstgid="852" source="Ev içi/Candles.tsx"/>
 <tileset firstgid="900" source="Ev içi/Interior_objects.tsx"/>
 <tileset firstgid="1260" source="Ev içi/Fireplace.tsx"/>
 <layer id="2" name="zemin" width="20" height="20">
  <data encoding="csv">
0,0,0,0,0,0,0,0,0,0,0,0,0,0,0,0,0,0,0,0,
0,0,0,0,0,0,0,0,0,0,0,0,0,0,0,0,0,0,0,0,
0,0,0,0,0,0,0,0,0,0,0,0,0,0,0,0,0,0,0,0,
0,0,0,0,0,0,0,0,0,0,0,0,0,0,0,0,0,0,0,0,
0,0,0,0,0,0,0,0,0,0,0,0,0,0,0,0,0,0,0,0,
0,46,46,46,46,46,45,46,45,45,45,45,45,45,46,47,46,47,46,0,
0,46,46,46,46,47,45,46,45,46,45,45,46,45,46,47,47,47,46,0,
0,46,47,45,46,45,46,47,47,45,45,46,45,46,45,46,47,47,46,0,
0,46,47,45,46,45,46,47,46,45,45,46,45,46,45,46,47,47,46,0,
0,46,47,45,46,45,46,47,46,47,45,46,45,46,47,45,46,47,46,0,
0,46,47,45,46,45,46,47,46,47,45,46,45,46,45,45,46,47,46,0,
0,46,47,45,46,45,46,47,46,47,45,46,45,46,45,45,46,47,46,0,
0,46,47,45,46,45,46,47,46,47,45,46,45,46,45,45,46,47,46,0,
0,46,47,45,46,45,46,47,46,47,45,46,47,45,45,45,46,47,46,0,
0,46,47,45,46,45,46,47,46,47,45,46,47,45,45,46,47,45,46,0,
0,46,47,45,46,45,46,47,46,47,45,46,45,45,45,46,47,45,46,0,
0,46,47,45,46,45,46,47,46,47,45,46,45,46,45,46,47,45,46,0,
0,46,47,45,46,45,45,46,47,47,45,46,45,46,45,46,47,45,46,0,
0,46,47,45,46,47,45,45,46,45,45,46,45,46,45,46,47,45,46,0,
0,46,47,45,45,45,45,45,45,45,45,45,45,45,46,47,47,47,47,0
</data>
 </layer>
 <layer id="6" name="Eşya alt" width="20" height="20">
  <data encoding="csv">
0,0,0,0,0,0,0,0,0,0,0,0,0,0,0,0,0,0,0,0,
0,0,0,0,0,0,0,0,0,0,0,0,0,0,0,0,0,0,0,0,
0,0,0,0,0,0,0,0,0,0,0,0,0,0,0,0,0,0,0,0,
0,0,0,0,0,0,0,0,0,0,0,0,0,0,0,0,0,0,0,0,
0,0,0,0,0,0,0,0,0,0,0,0,0,0,0,0,0,0,0,0,
0,0,0,0,0,0,0,0,0,0,0,0,0,0,0,0,0,0,0,0,
0,0,0,0,0,0,0,0,0,0,0,0,0,0,0,0,0,0,0,0,
0,0,0,0,0,0,0,0,0,0,0,0,0,0,0,0,0,0,0,0,
0,0,0,0,0,0,0,0,0,0,0,0,0,1610613306,1610613320,1610613334,1610613348,1610613362,0,0,
0,0,0,0,0,0,0,0,0,0,0,0,0,1610613305,1610613319,1610613333,1610613347,1610613361,0,0,
0,0,0,0,0,0,0,0,0,0,0,0,0,1610613304,1610613318,1610613332,1610613346,1610613360,0,0,
0,0,0,560,561,562,563,564,0,0,0,0,0,1610613303,1610613317,1610613331,1610613345,1610613359,0,0,
0,0,573,574,575,576,577,578,579,0,0,0,0,1610613302,1610613316,1610613330,1610613344,1610613358,0,0,
0,0,587,588,589,590,591,592,593,0,0,0,0,0,1610613302,0,0,0,0,0,
0,0,601,602,603,604,605,606,607,0,0,0,0,0,0,0,0,0,0,0,
0,0,615,616,617,618,619,620,621,0,0,0,0,0,0,0,0,0,0,0,
0,0,0,630,631,632,633,634,0,0,0,0,0,0,0,0,0,0,0,0,
0,0,0,0,0,0,0,0,0,0,0,0,0,0,0,0,0,0,0,0,
0,0,0,0,0,0,0,0,0,0,0,0,0,0,0,0,0,0,0,0,
0,0,0,0,0,0,0,0,0,0,0,0,0,0,0,0,0,0,0,0
</data>
 </layer>
 <layer id="3" name="ekstra" width="20" height="20" locked="1">
  <data encoding="csv">
0,0,0,0,0,0,0,0,0,0,0,0,0,0,0,0,0,0,0,0,
0,0,0,0,0,0,0,0,0,0,0,0,0,0,0,0,0,0,0,0,
0,0,0,0,0,0,0,0,0,0,0,0,0,0,0,0,0,0,0,0,
0,0,0,0,0,0,0,0,0,0,0,0,0,0,0,0,0,0,0,0,
712,713,0,0,0,0,0,0,0,0,0,0,0,0,0,0,0,0,0,0,
740,730,731,730,730,730,730,730,730,730,730,730,730,730,730,730,730,730,731,0,
740,758,759,758,758,758,758,758,758,758,758,758,758,758,758,758,758,758,759,0,
740,786,787,786,786,786,786,786,786,786,786,786,786,786,786,786,786,786,787,0,
740,0,0,0,0,0,0,0,0,0,0,0,0,0,0,0,0,0,0,0,
740,0,0,0,0,0,0,0,0,0,0,0,0,0,0,0,0,0,0,0,
740,0,0,0,0,0,0,0,0,0,0,0,0,0,0,0,0,0,0,0,
740,0,0,0,0,0,0,0,0,0,0,0,0,0,0,0,0,0,0,0,
740,0,0,258,259,260,261,262,0,0,0,0,0,0,0,0,0,0,0,0,
740,0,0,275,276,277,278,279,0,0,0,0,0,0,0,0,0,0,0,0,
740,0,0,0,293,294,295,0,0,0,0,0,0,0,0,0,0,0,0,0,
740,0,0,0,0,0,0,0,0,0,0,0,0,0,0,0,0,0,0,0,
740,0,0,0,0,0,0,0,0,0,0,0,0,0,0,0,0,0,0,0,
740,0,0,0,0,0,0,0,0,0,0,0,0,0,0,0,0,0,0,0,
740,0,0,0,0,0,0,0,0,0,0,0,0,0,0,0,0,0,0,0,
0,0,0,0,0,0,0,0,0,0,0,0,0,0,0,0,0,0,0,0
</data>
 </layer>
 <layer id="5" name="ekstra" width="20" height="20">
  <data encoding="csv">
0,0,0,0,0,0,0,0,0,0,0,0,0,0,0,0,0,0,0,0,
0,0,0,0,0,0,0,0,0,0,0,0,0,0,0,0,0,0,0,0,
0,0,0,0,0,0,0,0,0,0,0,0,0,0,0,0,0,0,0,0,
0,0,0,0,0,0,0,0,0,0,0,0,0,0,0,0,0,0,0,0,
0,0,0,0,0,0,0,0,0,0,0,0,0,0,0,0,0,0,0,0,
0,0,190,191,1180,1181,1182,0,0,0,0,0,0,0,852,853,0,0,0,0,
0,0,207,208,1220,1221,1222,0,0,0,0,0,0,0,864,865,0,429,430,0,
0,0,224,225,0,0,0,0,0,0,0,0,0,352,353,356,357,443,444,0,
0,0,241,242,0,0,0,0,0,1260,0,0,0,366,367,370,371,457,458,0,
0,0,0,0,0,0,0,0,0,0,0,0,0,380,381,0,0,0,0,0,
0,0,0,0,0,0,0,0,0,0,0,0,0,0,0,0,0,0,0,0,
0,0,0,0,0,0,0,0,0,0,0,0,0,0,0,0,0,0,0,0,
0,0,0,0,0,0,0,0,0,0,0,0,0,0,0,0,0,0,0,0,
0,0,0,0,0,0,0,0,0,0,0,0,0,0,0,0,0,0,0,0,
0,0,0,0,0,0,0,0,0,0,0,0,0,0,0,0,0,0,0,0,
0,0,0,0,0,0,0,0,0,0,0,0,0,0,0,0,0,0,0,0,
0,0,0,0,0,0,0,0,0,0,0,0,0,0,0,0,0,0,0,0,
0,0,0,0,0,0,0,0,0,0,0,0,0,0,0,0,0,0,0,0,
0,0,0,0,0,0,0,0,0,0,0,0,0,0,0,0,0,0,0,0,
0,0,0,0,0,0,0,0,0,0,0,0,832,0,0,0,0,0,0,0
</data>
 </layer>
 <layer id="10" name="İç oda giriş" width="20" height="20">
  <data encoding="csv">
0,0,0,0,0,0,0,0,0,0,0,0,0,0,0,0,0,0,0,0,
0,0,0,0,0,0,0,0,0,0,0,0,0,0,0,0,0,0,0,0,
0,0,0,0,0,0,0,0,0,0,0,0,0,0,0,0,0,0,0,0,
0,0,0,0,0,0,0,0,0,0,0,0,0,0,0,0,0,0,0,0,
0,0,0,0,0,0,0,0,0,0,0,0,0,0,0,0,0,0,0,0,
0,0,0,0,0,0,0,0,0,0,0,0,0,0,0,0,0,0,0,0,
0,0,0,0,0,0,0,0,0,0,0,0,0,0,0,0,0,0,0,0,
0,0,0,0,0,0,0,0,0,0,0,0,0,0,0,0,0,0,0,0,
0,0,0,0,0,0,0,0,0,0,0,0,0,0,0,0,0,0,0,0,
0,0,0,0,0,0,0,0,0,0,0,0,0,0,0,0,0,0,0,0,
0,0,0,0,0,0,0,0,0,0,0,0,0,0,725,726,727,0,0,0,
0,0,0,0,0,0,0,0,0,0,0,0,0,0,753,754,755,0,0,0,
0,0,0,0,0,0,0,0,0,0,0,0,0,0,781,782,783,0,0,0,
0,0,0,0,0,0,0,0,0,0,0,0,0,0,0,0,0,0,0,0,
0,0,0,0,0,0,0,0,0,0,0,0,0,0,0,0,0,0,0,0,
0,0,0,0,0,0,0,0,0,0,0,0,0,0,0,0,0,0,0,0,
0,0,0,0,0,0,0,0,0,0,0,0,0,0,0,0,0,0,0,0,
0,0,0,0,0,0,0,0,0,0,0,0,0,0,0,0,0,0,0,0,
0,0,0,0,0,0,0,0,0,0,0,0,0,0,0,0,0,0,0,0,
0,0,0,0,0,0,0,0,0,0,0,0,0,0,0,0,0,0,0,0
</data>
 </layer>
 <layer id="4" name="Duvarlar -1" width="20" height="20">
  <data encoding="csv">
0,0,0,0,0,0,0,0,0,0,0,0,0,0,0,0,0,0,0,0,
0,0,0,0,0,0,0,0,0,0,0,0,0,0,0,0,0,0,0,0,
0,0,0,0,0,0,0,0,0,0,0,0,0,0,0,0,0,0,0,0,
0,0,0,0,0,0,0,0,0,0,0,0,0,0,0,0,0,0,0,0,
0,0,0,0,0,0,0,0,0,0,0,0,0,0,0,0,0,0,0,0,
0,0,0,0,0,0,0,0,0,0,0,0,0,0,0,0,0,0,0,0,
0,0,0,0,0,0,0,0,0,0,0,0,0,0,0,0,0,0,0,0,
0,0,0,0,0,0,0,0,0,0,0,0,0,0,0,0,0,0,0,0,
0,0,0,0,0,0,0,0,0,0,0,0,0,0,0,0,0,0,0,0,
0,0,0,0,0,0,0,0,0,0,0,0,0,0,0,0,0,0,0,0,
0,0,0,0,0,0,0,0,0,0,0,0,768,769,0,0,0,769,769,0,
0,0,0,0,0,0,0,0,0,0,0,0,796,797,0,0,0,797,797,0,
0,0,0,0,0,0,0,0,0,0,0,0,824,825,0,0,0,825,825,0,
0,0,0,0,0,0,0,0,0,0,0,0,0,0,0,0,0,0,0,0,
0,0,0,0,0,0,0,0,0,0,0,0,0,0,0,0,0,0,0,0,
0,0,0,0,0,0,0,0,0,0,0,0,0,0,0,0,0,0,0,0,
0,0,0,0,0,0,0,0,0,0,0,0,0,0,0,0,0,0,0,0,
0,0,0,0,0,0,0,0,0,0,0,0,0,0,0,0,0,0,0,0,
0,0,0,0,0,0,0,0,0,0,0,0,0,0,0,0,0,0,0,0,
0,0,0,0,0,0,0,0,0,0,0,0,0,0,0,834,0,0,0,0
</data>
 </layer>
 <layer id="1" name="Duvarlar" width="20" height="20">
  <data encoding="csv">
0,0,0,0,0,0,0,0,0,0,0,0,0,0,0,0,0,0,0,0,
0,0,0,0,0,0,0,0,0,0,0,0,0,0,0,0,0,0,0,0,
0,0,0,0,0,0,0,0,0,0,0,0,0,0,0,0,0,0,0,0,
0,0,0,0,0,0,0,0,0,0,0,0,0,0,0,0,0,0,0,0,
0,0,829,830,831,832,713,713,713,829,830,831,832,713,713,713,830,713,713,714,
0,0,0,0,0,0,0,0,0,0,0,0,740,0,0,0,0,0,0,742,
0,0,0,0,0,0,0,0,0,0,0,0,740,0,0,0,0,0,0,742,
0,0,0,0,0,0,0,0,0,0,0,0,740,0,0,0,0,0,0,742,
0,0,0,0,0,0,0,0,0,0,0,0,740,0,0,0,0,0,0,742,
0,0,0,0,0,0,0,0,0,0,0,0,740,0,0,0,0,0,0,742,
0,0,0,0,0,0,0,0,0,0,0,0,0,0,0,0,0,0,0,750,
0,0,0,0,0,0,0,0,0,0,0,0,0,0,0,0,0,0,0,742,
0,0,0,0,0,0,0,0,0,0,0,0,0,0,0,0,0,0,0,742,
0,0,0,0,0,0,0,0,0,0,0,0,0,0,0,0,0,0,0,742,
0,0,0,0,0,0,0,0,0,0,0,0,0,0,0,0,0,0,0,742,
0,0,0,0,0,0,0,0,0,0,0,0,0,0,0,0,0,0,0,742,
0,0,0,0,0,0,0,0,0,0,0,0,0,0,0,0,0,0,0,742,
0,0,0,0,0,0,0,0,0,0,0,0,0,0,0,0,0,0,0,742,
0,0,0,0,0,0,0,0,0,0,0,0,0,0,0,0,0,0,0,742,
777,831,829,831,831,829,831,829,831,831,831,831,0,0,0,0,831,831,832,742
</data>
 </layer>
 <layer id="9" name="Kapı" width="20" height="20">
  <data encoding="csv">
0,0,0,0,0,0,0,0,0,0,0,0,0,0,0,0,0,0,0,0,
0,0,0,0,0,0,0,0,0,0,0,0,0,0,0,0,0,0,0,0,
0,0,0,0,0,0,0,0,0,0,0,0,0,0,0,0,0,0,0,0,
0,0,0,0,0,0,0,0,0,0,0,0,0,0,0,0,0,0,0,0,
0,0,0,0,0,0,0,0,0,0,0,0,0,0,0,0,0,0,0,0,
0,0,0,0,0,0,0,0,0,0,0,0,0,0,0,0,0,0,0,0,
0,0,0,0,0,0,0,0,0,0,0,0,0,0,0,0,0,0,0,0,
0,0,0,0,0,0,0,0,0,0,0,0,0,0,0,0,0,0,0,0,
0,0,0,0,0,0,0,0,0,0,0,0,0,0,0,0,0,0,0,0,
0,0,0,0,0,0,0,0,0,0,0,0,0,0,0,0,0,0,0,0,
0,0,0,0,0,0,0,0,0,0,0,0,0,0,0,0,0,0,0,0,
0,0,0,0,0,0,0,0,0,0,0,0,0,0,0,0,0,0,0,0,
0,0,0,0,0,0,0,0,0,0,0,0,0,0,0,0,0,0,0,0,
0,0,0,0,0,0,0,0,0,0,0,0,0,0,0,0,0,0,0,0,
0,0,0,0,0,0,0,0,0,0,0,0,0,0,0,0,0,0,0,0,
0,0,0,0,0,0,0,0,0,0,0,0,0,0,0,0,0,0,0,0,
0,0,0,0,0,0,0,0,0,0,0,0,0,0,0,0,0,0,0,0,
0,0,0,0,0,0,0,0,0,0,0,0,0,0,0,0,0,0,0,0,
0,0,0,0,0,0,0,0,0,0,0,0,0,0,0,0,0,0,0,0,
0,0,0,0,0,0,0,0,0,0,0,0,0,833,833,0,0,0,0,0
</data>
 </layer>
</map>
