<?xml version="1.0" encoding="UTF-8"?>
<map version="1.10" tiledversion="1.12.2" orientation="orthogonal" renderorder="right-down" width="30" height="20" tilewidth="16" tileheight="16" infinite="1" nextlayerid="33" nextobjectid="1">
 <editorsettings>
  <export target="Harita.tmx" format="tmx"/>
 </editorsettings>
 <tileset firstgid="1" source="Ground_grass.tsx"/>
 <tileset firstgid="438" source="house_details.tsx"/>
 <tileset firstgid="608" source="exterior.tsx"/>
 <tileset firstgid="1577" source="Water_coasts.tsx"/>
 <tileset firstgid="3047" source="water.tsx"/>
 <tileset firstgid="4225" name="Smoke_animation" tilewidth="16" tileheight="16" tilecount="54" columns="18">
  <image source="Ev/Tiled_files/Smoke_animation.png" width="288" height="48"/>
  <tile id="0">
   <animation>
    <frame tileid="0" duration="150"/>
    <frame tileid="3" duration="150"/>
    <frame tileid="6" duration="150"/>
    <frame tileid="9" duration="150"/>
    <frame tileid="12" duration="150"/>
    <frame tileid="15" duration="150"/>
   </animation>
  </tile>
  <tile id="1">
   <animation>
    <frame tileid="1" duration="150"/>
    <frame tileid="4" duration="150"/>
    <frame tileid="7" duration="150"/>
    <frame tileid="10" duration="150"/>
    <frame tileid="13" duration="150"/>
    <frame tileid="16" duration="150"/>
   </animation>
  </tile>
  <tile id="2">
   <animation>
    <frame tileid="2" duration="150"/>
    <frame tileid="5" duration="150"/>
    <frame tileid="8" duration="150"/>
    <frame tileid="11" duration="150"/>
    <frame tileid="14" duration="150"/>
    <frame tileid="17" duration="150"/>
   </animation>
  </tile>
  <tile id="18">
   <animation>
    <frame tileid="18" duration="150"/>
    <frame tileid="21" duration="150"/>
    <frame tileid="24" duration="150"/>
    <frame tileid="27" duration="150"/>
    <frame tileid="30" duration="150"/>
    <frame tileid="33" duration="150"/>
   </animation>
  </tile>
  <tile id="19">
   <animation>
    <frame tileid="19" duration="150"/>
    <frame tileid="22" duration="150"/>
    <frame tileid="25" duration="150"/>
    <frame tileid="28" duration="150"/>
    <frame tileid="31" duration="150"/>
    <frame tileid="34" duration="150"/>
   </animation>
  </tile>
  <tile id="20">
   <animation>
    <frame tileid="20" duration="150"/>
    <frame tileid="23" duration="150"/>
    <frame tileid="26" duration="150"/>
    <frame tileid="29" duration="150"/>
    <frame tileid="32" duration="150"/>
    <frame tileid="35" duration="150"/>
   </animation>
  </tile>
  <tile id="36">
   <animation>
    <frame tileid="36" duration="150"/>
    <frame tileid="39" duration="150"/>
    <frame tileid="42" duration="150"/>
    <frame tileid="45" duration="150"/>
    <frame tileid="48" duration="150"/>
    <frame tileid="51" duration="150"/>
   </animation>
  </tile>
  <tile id="37">
   <animation>
    <frame tileid="37" duration="150"/>
    <frame tileid="40" duration="150"/>
    <frame tileid="43" duration="150"/>
    <frame tileid="46" duration="150"/>
    <frame tileid="49" duration="150"/>
    <frame tileid="52" duration="150"/>
   </animation>
  </tile>
  <tile id="38">
   <animation>
    <frame tileid="38" duration="150"/>
    <frame tileid="41" duration="150"/>
    <frame tileid="44" duration="150"/>
    <frame tileid="47" duration="150"/>
    <frame tileid="50" duration="150"/>
    <frame tileid="53" duration="150"/>
   </animation>
  </tile>
 </tileset>
 <tileset firstgid="4279" source="spots_lianas.tsx"/>
 <tileset firstgid="4993" source="Water_detilazation2.tsx"/>
 <tileset firstgid="7879" source="Objects.tsx"/>
 <tileset firstgid="8935" source="Water_lilis.tsx"/>
 <tileset firstgid="9236" source="../visuals/tileler/Water_detilazation2.tsx"/>
 <layer id="1" name="Zemin" width="30" height="20">
  <data encoding="csv">
   <chunk x="-80" y="-64" width="16" height="16">
0,0,0,0,0,0,0,0,0,0,0,0,0,0,0,0,
0,0,0,0,0,0,0,0,0,0,0,0,0,0,0,0,
0,0,0,0,0,0,0,0,0,0,0,0,0,0,0,0,
0,0,0,0,0,0,0,0,0,0,0,0,0,0,0,0,
0,0,0,0,0,0,0,0,0,0,0,0,0,0,0,0,
0,0,0,0,0,0,0,0,0,0,0,0,0,0,0,0,
0,0,0,0,0,0,0,0,0,0,0,0,0,0,0,0,
0,0,0,0,0,0,0,0,0,0,0,0,0,0,0,0,
0,0,0,0,0,0,0,0,0,0,0,0,0,0,0,0,
0,0,0,0,0,0,0,0,0,0,0,0,0,0,0,0,
0,0,0,0,0,0,0,0,0,0,0,0,0,0,0,0,
0,0,0,0,0,0,0,0,0,0,0,0,0,0,0,0,
0,0,0,0,0,0,0,0,0,0,2,2,2,2,2,2,
0,0,0,0,0,0,0,0,0,0,24,21,21,21,21,21,
0,0,0,0,0,0,0,0,0,0,43,21,21,21,21,21,
0,0,0,0,0,0,0,0,0,0,24,21,21,21,21,21
</chunk>
   <chunk x="-64" y="-64" width="16" height="16">
0,0,0,0,0,0,0,0,0,0,0,0,0,0,0,0,
0,0,0,0,0,0,0,0,0,0,0,0,0,0,0,0,
0,0,0,0,0,0,0,0,0,0,0,0,0,0,0,0,
0,0,0,0,0,0,0,0,0,0,0,0,0,0,0,0,
0,0,0,0,0,0,0,0,0,0,0,0,0,0,0,0,
0,0,0,0,0,0,0,0,0,0,0,0,0,0,0,0,
0,0,0,0,0,0,0,0,0,0,0,0,0,0,0,0,
0,0,0,0,0,0,0,0,0,0,0,0,0,0,0,0,
0,0,0,0,0,0,0,0,0,0,0,0,0,0,0,0,
0,0,0,0,0,0,0,0,0,0,0,0,0,0,0,0,
0,0,0,0,0,0,0,0,0,0,0,0,0,0,0,0,
0,0,0,0,0,0,0,0,0,0,0,0,0,0,0,0,
2,2,43,21,21,21,21,21,43,42,43,21,21,21,21,21,
21,21,21,21,21,21,21,21,21,21,21,21,21,21,21,21,
21,21,21,21,21,21,21,21,21,21,21,21,21,21,21,21,
21,21,21,21,21,21,21,21,21,21,21,21,21,21,21,21
</chunk>
   <chunk x="-48" y="-64" width="16" height="16">
0,0,0,0,0,0,0,0,0,0,0,0,0,0,0,0,
0,0,0,0,0,0,0,0,0,0,0,0,0,0,0,0,
0,0,0,0,0,0,0,0,0,0,0,0,0,0,0,0,
0,0,0,0,0,0,0,0,0,0,0,0,0,0,0,0,
0,0,0,0,0,0,0,0,0,0,0,0,0,0,0,0,
0,0,0,0,0,0,0,0,0,0,0,0,0,0,0,0,
0,0,0,0,0,0,0,0,0,0,0,0,0,0,0,0,
0,0,0,0,0,0,0,0,0,0,0,0,0,0,0,0,
0,0,0,0,0,0,0,0,0,0,0,0,0,0,0,0,
0,0,0,0,0,0,0,0,0,0,0,0,0,0,0,0,
0,0,0,0,0,0,0,0,0,0,0,0,0,0,0,0,
0,0,0,0,0,0,0,0,0,0,0,0,0,0,0,0,
21,21,21,21,21,21,21,21,43,42,2,43,42,43,42,43,
21,21,21,21,21,21,21,21,21,21,21,21,21,21,21,21,
21,21,21,21,21,21,21,21,21,21,21,21,21,21,21,21,
21,21,21,21,21,21,21,21,21,21,21,21,21,21,21,21
</chunk>
   <chunk x="-32" y="-64" width="16" height="16">
0,0,0,0,0,0,0,0,0,0,0,0,0,0,0,0,
0,0,0,0,0,0,0,0,0,0,0,0,0,0,0,0,
0,0,0,0,0,0,0,0,0,0,0,0,0,0,0,0,
0,0,0,0,0,0,0,0,0,0,0,0,0,0,0,0,
0,0,0,0,0,0,0,0,0,0,0,0,0,0,0,0,
0,0,0,0,0,0,0,0,0,0,0,0,0,0,0,0,
0,0,0,0,0,0,0,0,0,0,0,0,0,0,0,0,
0,0,0,0,0,0,0,0,0,0,0,0,0,0,0,0,
0,0,0,0,0,0,0,0,0,0,0,0,0,0,0,0,
0,0,0,0,0,0,0,0,0,0,0,0,0,0,0,0,
0,0,0,0,0,0,0,0,0,0,0,0,0,0,0,0,
0,0,0,0,0,0,0,0,0,0,0,0,0,0,0,0,
42,43,42,43,21,21,42,43,21,43,42,43,21,21,21,21,
21,21,21,21,21,21,21,21,21,21,21,21,21,21,21,21,
21,21,21,21,21,21,21,21,21,21,21,21,21,21,21,21,
21,21,21,21,21,21,21,21,21,21,21,21,21,21,21,21
</chunk>
   <chunk x="-16" y="-64" width="16" height="16">
0,0,0,0,0,0,0,0,0,0,0,0,0,0,0,0,
0,0,0,0,0,0,0,0,0,0,0,0,0,0,0,0,
0,0,0,0,0,0,0,0,0,0,0,0,0,0,0,0,
0,0,0,0,0,0,0,0,0,0,0,0,0,0,0,0,
0,0,0,0,0,0,0,0,0,0,0,0,0,0,0,0,
0,0,0,0,0,0,0,0,0,0,0,0,0,0,0,0,
0,0,0,0,0,0,0,0,0,0,0,0,0,0,0,0,
0,0,0,0,0,0,0,0,0,0,0,0,0,0,0,0,
0,0,0,0,0,0,0,0,0,0,0,0,0,0,0,0,
0,0,0,0,0,0,0,0,0,0,0,0,0,0,0,0,
0,0,0,0,0,0,0,0,0,0,0,0,0,0,0,0,
0,0,0,0,0,0,0,0,0,0,0,0,0,0,0,0,
21,21,21,21,21,43,42,43,21,21,21,21,21,21,21,21,
21,21,21,21,21,21,21,21,21,21,21,21,21,21,21,21,
21,21,21,21,21,21,21,21,21,21,21,21,21,21,21,21,
21,21,21,21,21,21,21,21,21,21,21,21,21,21,21,21
</chunk>
   <chunk x="0" y="-64" width="16" height="16">
0,0,0,0,0,0,0,0,0,0,0,0,0,0,0,0,
0,0,0,0,0,0,0,0,0,0,0,0,0,0,0,0,
0,0,0,0,0,0,0,0,0,0,0,0,0,0,0,0,
0,0,0,0,0,0,0,0,0,0,0,0,0,0,0,0,
0,0,0,0,0,0,0,0,0,0,0,0,0,0,0,0,
0,0,0,0,0,0,0,0,0,0,0,0,0,0,0,0,
0,0,0,0,0,0,0,0,0,0,0,0,0,0,0,0,
0,0,0,0,0,0,0,0,0,0,0,0,0,0,0,0,
0,0,0,0,0,0,0,0,0,0,0,0,0,0,0,0,
0,0,0,0,0,0,0,0,0,0,0,0,0,0,0,0,
0,0,0,0,0,0,0,0,0,0,0,0,0,0,0,0,
0,0,0,0,0,0,0,0,0,0,0,0,0,0,0,0,
21,21,43,42,43,21,21,21,21,42,43,42,43,42,43,42,
21,21,21,21,21,21,21,21,21,21,21,21,21,21,21,21,
21,21,21,21,21,21,21,21,21,21,21,21,21,21,21,21,
21,21,21,21,21,21,21,21,21,21,21,21,21,21,21,21
</chunk>
   <chunk x="16" y="-64" width="16" height="16">
0,0,0,0,0,0,0,0,0,0,0,0,0,0,0,0,
0,0,0,0,0,0,0,0,0,0,0,0,0,0,0,0,
0,0,0,0,0,0,0,0,0,0,0,0,0,0,0,0,
0,0,0,0,0,0,0,0,0,0,0,0,0,0,0,0,
0,0,0,0,0,0,0,0,0,0,0,0,0,0,0,0,
0,0,0,0,0,0,0,0,0,0,0,0,0,0,0,0,
0,0,0,0,0,0,0,0,0,0,0,0,0,0,0,0,
0,0,0,0,0,0,0,0,0,0,0,0,0,0,0,0,
0,0,0,0,0,0,0,0,0,0,0,0,0,0,0,0,
0,0,0,0,0,0,0,0,0,0,0,0,0,0,0,0,
0,0,0,0,0,0,0,0,0,0,0,0,0,0,0,0,
0,0,0,0,0,0,0,0,0,0,0,0,0,0,0,0,
2,43,43,42,43,42,43,21,42,43,21,42,2,43,21,42,
21,21,21,21,21,21,21,21,21,21,21,21,21,21,21,21,
21,21,21,21,21,21,21,21,21,21,21,21,21,21,21,21,
21,21,21,21,21,21,21,21,21,21,21,21,21,21,21,21
</chunk>
   <chunk x="32" y="-64" width="16" height="16">
0,0,0,0,0,0,0,0,0,0,0,0,0,0,0,0,
0,0,0,0,0,0,0,0,0,0,0,0,0,0,0,0,
0,0,0,0,0,0,0,0,0,0,0,0,0,0,0,0,
0,0,0,0,0,0,0,0,0,0,0,0,0,0,0,0,
0,0,0,0,0,0,0,0,0,0,0,0,0,0,0,0,
0,0,0,0,0,0,0,0,0,0,0,0,0,0,0,0,
0,0,0,0,0,0,0,0,0,0,0,0,0,0,0,0,
0,0,0,0,0,0,0,0,0,0,0,0,0,0,0,0,
0,0,0,0,0,0,0,0,0,0,0,0,0,0,0,0,
0,0,0,0,0,0,0,0,0,0,0,0,0,0,0,0,
0,0,0,0,0,0,0,0,0,0,0,0,0,0,0,0,
0,0,0,0,0,0,0,0,0,0,0,0,0,0,0,0,
2,43,21,42,43,42,43,21,21,21,21,43,42,43,21,21,
21,21,21,21,21,21,21,21,21,21,21,21,21,21,21,21,
21,21,21,21,21,21,21,21,21,21,21,21,21,21,21,21,
21,21,21,21,21,21,21,21,21,21,21,21,21,21,21,21
</chunk>
   <chunk x="48" y="-64" width="16" height="16">
0,0,0,0,0,0,0,0,0,0,0,0,0,0,0,0,
0,0,0,0,0,0,0,0,0,0,0,0,0,0,0,0,
0,0,0,0,0,0,0,0,0,0,0,0,0,0,0,0,
0,0,0,0,0,0,0,0,0,0,0,0,0,0,0,0,
0,0,0,0,0,0,0,0,0,0,0,0,0,0,0,0,
0,0,0,0,0,0,0,0,0,0,0,0,0,0,0,0,
0,0,0,0,0,0,0,0,0,0,0,0,0,0,0,0,
0,0,0,0,0,0,0,0,0,0,0,0,0,0,0,0,
0,0,0,0,0,0,0,0,0,0,0,0,0,0,0,0,
0,0,0,0,0,0,0,0,0,0,0,0,0,0,0,0,
0,0,0,0,0,0,0,0,0,0,0,0,0,0,0,0,
0,0,0,0,0,0,0,0,0,0,0,0,0,0,0,0,
21,42,2,2,2,2,2,2,2,2,2,2,43,43,42,43,
21,21,21,21,21,21,21,21,21,21,21,21,21,21,21,21,
21,21,21,21,21,21,21,21,21,21,21,21,21,21,21,21,
21,21,21,21,21,21,21,21,21,21,21,21,21,21,21,21
</chunk>
   <chunk x="64" y="-64" width="16" height="16">
0,0,0,0,0,0,0,0,0,0,0,0,0,0,0,0,
0,0,0,0,0,0,0,0,0,0,0,0,0,0,0,0,
0,0,0,0,0,0,0,0,0,0,0,0,0,0,0,0,
0,0,0,0,0,0,0,0,0,0,0,0,0,0,0,0,
0,0,0,0,0,0,0,0,0,0,0,0,0,0,0,0,
0,0,0,0,0,0,0,0,0,0,0,0,0,0,0,0,
0,0,0,0,0,0,0,0,0,0,0,0,0,0,0,0,
0,0,0,0,0,0,0,0,0,0,0,0,0,0,0,0,
0,0,0,0,0,0,0,0,0,0,0,0,0,0,0,0,
0,0,0,0,0,0,0,0,0,0,0,0,0,0,0,0,
0,0,0,0,0,0,0,0,0,0,0,0,0,0,0,0,
0,0,0,0,0,0,0,0,0,0,0,0,0,0,0,0,
42,43,42,2,2,3,0,0,0,0,0,0,0,0,0,0,
21,21,21,21,21,42,0,0,0,0,0,0,0,0,0,0,
21,21,21,21,21,21,0,0,0,0,0,0,0,0,0,0,
21,21,21,21,21,23,0,0,0,0,0,0,0,0,0,0
</chunk>
   <chunk x="-80" y="-48" width="16" height="16">
0,0,0,0,0,0,0,0,0,0,43,21,21,21,21,21,
0,0,0,0,0,0,0,0,0,0,24,21,21,21,21,21,
0,0,0,0,0,0,0,0,0,0,43,21,21,21,21,21,
0,0,0,0,0,0,0,0,0,0,24,21,21,21,21,21,
0,0,0,0,0,0,0,0,0,0,43,21,21,21,21,21,
0,0,0,0,0,0,0,0,0,0,24,21,21,21,21,21,
0,0,0,0,0,0,0,0,0,0,20,21,21,21,21,21,
0,0,0,0,0,0,0,0,0,0,20,21,21,21,21,21,
0,0,0,0,0,0,0,0,0,0,20,21,21,21,21,21,
0,0,0,0,0,0,0,0,0,0,43,21,21,21,21,21,
0,0,0,0,0,0,0,0,0,0,21,21,21,21,21,21,
0,0,0,0,0,0,0,0,0,0,24,21,21,21,21,21,
0,0,0,0,0,0,0,0,0,0,20,21,21,21,21,21,
0,0,0,0,0,0,0,0,0,0,43,21,21,21,21,21,
0,0,0,0,0,0,0,0,0,0,21,21,21,21,21,21,
0,0,0,0,0,0,0,0,0,0,24,21,21,21,21,21
</chunk>
   <chunk x="-64" y="-48" width="16" height="16">
21,21,21,21,21,21,21,21,21,21,21,21,21,21,21,21,
21,21,21,21,21,21,21,21,21,21,21,21,21,21,21,21,
21,21,21,21,21,21,21,21,21,21,21,21,21,21,21,21,
21,21,21,21,21,21,21,21,21,21,21,21,21,21,21,21,
21,21,21,21,21,21,21,21,21,21,21,21,21,21,21,21,
21,21,21,21,21,21,21,21,21,21,21,21,21,21,21,21,
21,21,21,21,21,21,21,21,21,21,21,21,21,21,21,21,
21,21,21,21,21,21,21,21,21,21,21,21,21,21,21,21,
21,21,21,21,21,21,21,21,21,21,21,21,21,21,21,21,
21,21,21,21,21,21,21,21,21,21,21,21,21,21,21,21,
21,21,21,21,21,21,21,21,21,21,21,21,21,21,21,21,
21,21,21,21,21,21,21,21,21,21,21,21,21,21,21,21,
21,21,21,21,21,21,21,21,21,21,21,21,21,21,21,21,
21,21,21,21,21,21,21,21,21,21,21,21,21,21,21,21,
21,21,21,21,21,21,21,21,21,21,21,21,21,21,21,21,
21,21,21,21,21,21,21,21,21,21,21,21,21,21,21,21
</chunk>
   <chunk x="-48" y="-48" width="16" height="16">
21,21,21,21,21,21,21,21,21,21,21,21,21,21,21,21,
21,21,21,21,21,21,21,21,21,21,21,21,21,21,21,21,
21,21,21,21,21,21,21,21,21,21,21,21,21,21,21,21,
21,21,21,21,21,21,21,21,21,21,21,21,21,21,21,21,
21,21,21,21,21,21,21,21,21,21,21,21,21,21,21,21,
21,21,21,21,21,21,21,21,21,21,21,21,21,21,21,21,
21,21,21,21,21,21,21,21,21,21,21,21,21,21,21,21,
21,21,21,21,21,21,21,21,21,21,21,21,21,21,21,21,
21,21,21,21,21,21,21,21,21,21,21,21,21,21,21,21,
21,21,21,21,21,21,21,21,21,21,21,21,21,21,21,21,
21,21,21,21,21,21,21,21,21,21,21,21,21,21,21,21,
21,21,21,21,21,21,21,21,21,21,21,21,21,21,21,21,
21,21,21,21,21,21,21,21,21,21,21,21,21,21,21,21,
21,21,21,21,21,21,21,21,21,21,21,21,21,21,21,21,
21,21,21,21,21,21,21,21,21,21,21,21,21,21,21,21,
21,21,21,21,21,21,21,21,21,21,21,21,21,21,21,21
</chunk>
   <chunk x="-32" y="-48" width="16" height="16">
21,21,21,21,21,21,21,21,21,21,21,21,21,21,21,21,
21,21,21,21,21,21,21,21,21,21,21,21,21,21,21,21,
21,21,21,21,21,21,21,21,21,21,21,21,21,21,21,21,
21,21,21,21,21,21,21,21,21,21,21,21,21,21,21,21,
21,21,21,21,21,21,21,21,21,21,21,21,21,21,21,21,
21,21,21,21,21,21,21,21,21,21,21,21,21,21,21,21,
21,21,21,21,21,21,21,21,21,21,21,21,21,21,21,21,
21,21,21,21,21,21,21,21,21,21,21,21,21,21,21,21,
21,21,21,21,21,21,21,21,21,21,21,21,21,21,21,21,
21,21,21,21,21,21,21,21,21,21,21,21,21,21,21,21,
21,21,21,21,21,21,21,21,21,21,21,21,21,21,21,21,
21,21,21,21,21,21,21,21,21,21,21,21,21,21,21,21,
21,21,21,21,21,21,21,21,21,21,21,21,21,21,21,21,
21,21,21,21,21,21,21,21,21,21,21,21,21,21,21,21,
21,21,21,21,21,21,21,21,21,21,21,21,21,21,21,21,
21,21,21,21,21,21,21,21,21,21,21,21,21,21,21,21
</chunk>
   <chunk x="-16" y="-48" width="16" height="16">
21,21,21,21,21,21,21,21,21,21,21,21,21,21,21,21,
21,21,21,21,21,21,21,21,21,21,21,21,21,21,21,21,
21,21,21,21,21,21,21,21,21,21,21,21,21,21,21,21,
21,21,21,21,21,21,21,21,21,21,21,21,21,21,21,21,
21,21,21,21,21,21,21,21,21,21,21,21,21,21,21,21,
21,21,21,21,21,21,21,21,21,21,21,21,21,21,21,21,
21,21,21,21,21,21,21,21,21,21,21,21,21,21,21,21,
21,21,21,21,21,21,21,21,21,21,21,21,21,21,21,21,
21,21,21,21,21,21,21,21,21,21,21,21,21,21,21,21,
21,21,21,21,21,21,21,21,21,21,21,21,21,21,21,21,
21,21,21,21,21,21,21,21,21,21,21,21,21,21,21,21,
21,21,21,21,21,21,21,21,21,21,21,21,21,21,21,21,
21,21,21,21,21,21,21,21,21,21,21,21,21,21,21,21,
21,21,21,21,21,21,21,21,21,21,21,21,21,21,21,21,
21,21,21,21,21,21,21,21,21,21,21,21,21,21,21,21,
21,21,21,21,21,21,21,21,21,21,21,21,21,21,21,21
</chunk>
   <chunk x="0" y="-48" width="16" height="16">
21,21,21,21,21,21,21,21,21,21,21,21,21,21,21,21,
21,21,21,21,21,21,21,21,21,21,21,21,21,21,21,21,
21,21,21,21,21,21,21,21,21,21,21,21,21,21,21,21,
21,21,21,21,21,21,21,21,21,21,21,21,21,21,21,21,
21,21,21,21,21,21,21,21,21,21,21,21,21,21,21,21,
21,21,21,21,21,21,21,21,21,21,21,21,21,21,21,21,
21,21,21,21,21,21,21,21,21,21,21,21,21,21,21,21,
21,21,21,21,21,21,21,21,21,21,21,21,21,21,21,21,
21,21,21,21,21,21,21,21,21,21,21,21,21,21,21,21,
21,21,21,21,21,21,21,21,21,21,21,21,21,21,21,21,
21,21,21,21,21,21,21,21,21,21,21,21,21,21,21,21,
21,21,21,21,21,21,21,21,21,21,21,21,21,21,21,21,
21,21,21,21,21,21,21,21,21,21,21,21,21,21,21,21,
21,21,21,21,21,21,21,21,21,21,21,21,21,21,21,21,
21,21,21,21,21,21,21,21,21,21,21,21,21,21,21,21,
21,21,21,21,21,21,21,21,21,21,21,21,21,21,21,21
</chunk>
   <chunk x="16" y="-48" width="16" height="16">
21,21,21,21,21,21,21,21,21,21,21,21,21,21,21,21,
21,21,21,21,21,21,21,21,21,21,21,21,21,21,21,21,
21,21,21,21,21,21,21,21,21,21,21,21,21,21,21,21,
21,21,21,21,21,21,21,21,21,21,21,21,21,21,21,21,
21,21,21,21,21,21,21,21,21,21,21,21,21,21,21,21,
21,21,21,21,21,21,21,21,21,21,21,21,21,21,21,21,
21,21,21,21,21,21,21,21,21,21,21,21,21,21,21,21,
21,21,21,21,21,21,21,21,21,21,21,21,21,21,21,21,
21,21,21,21,21,21,21,21,21,21,21,21,21,21,21,21,
21,21,21,21,21,21,21,21,21,21,21,21,21,21,21,21,
21,21,21,21,21,21,21,21,21,21,21,21,21,21,21,21,
21,21,21,21,21,21,21,21,21,21,21,21,21,21,21,21,
21,21,21,21,21,21,21,21,21,21,21,21,21,21,21,21,
21,21,21,21,21,21,21,21,21,21,21,21,21,21,21,21,
21,21,21,21,21,21,21,21,21,21,21,21,21,21,21,21,
21,21,21,21,21,21,21,21,21,21,21,21,21,21,21,21
</chunk>
   <chunk x="32" y="-48" width="16" height="16">
21,21,21,21,21,21,21,21,21,21,21,21,21,21,21,21,
21,21,21,21,21,21,21,21,21,21,21,21,21,21,21,21,
21,21,21,21,21,21,21,21,21,21,21,21,21,21,21,21,
21,21,21,21,21,21,21,21,21,21,21,21,21,21,21,21,
21,21,21,21,21,21,21,21,21,21,21,21,21,21,21,21,
21,21,21,21,21,21,21,21,21,21,21,21,21,21,21,21,
21,21,21,21,21,21,21,21,21,21,21,21,21,21,21,21,
21,21,21,21,21,21,21,21,21,21,21,21,21,21,21,21,
21,21,21,21,21,21,21,21,21,21,21,21,21,21,21,21,
21,21,21,21,21,21,21,21,21,21,21,21,21,21,21,21,
21,21,21,21,21,21,21,21,21,21,21,21,21,21,21,21,
21,21,21,21,21,21,21,21,21,21,21,21,21,21,21,21,
21,21,21,21,21,21,21,21,21,21,21,21,21,21,21,21,
21,21,21,21,21,21,21,21,21,21,21,21,21,21,21,21,
21,21,21,21,21,21,21,21,21,21,21,21,21,21,21,21,
21,21,21,21,21,21,21,21,21,21,21,21,21,21,21,21
</chunk>
   <chunk x="48" y="-48" width="16" height="16">
21,21,21,21,21,21,21,21,21,21,21,21,21,21,21,21,
21,21,21,21,21,21,21,21,21,21,21,21,21,21,21,21,
21,21,21,21,21,21,21,21,21,21,21,21,21,21,21,21,
21,21,21,21,21,21,21,21,21,21,21,21,21,21,21,21,
21,21,21,21,21,21,21,21,21,21,21,21,21,21,21,21,
21,21,21,21,21,21,21,21,21,21,21,21,21,21,21,21,
21,21,21,21,21,21,21,21,21,21,21,21,21,21,21,21,
21,21,21,21,21,21,21,21,21,21,21,21,21,21,21,21,
21,21,21,21,21,21,21,21,21,21,21,21,21,21,21,21,
21,21,21,21,21,21,21,21,21,21,21,21,21,21,21,21,
21,21,21,21,21,21,21,21,21,21,21,21,21,21,21,21,
21,21,21,21,21,21,21,21,21,21,21,21,21,21,21,21,
21,21,21,21,21,21,21,21,21,21,21,21,21,21,21,21,
21,21,21,21,21,21,21,21,21,21,21,21,21,21,21,21,
21,21,21,21,21,21,21,21,21,21,21,21,21,21,21,21,
21,21,21,21,21,21,21,21,21,21,21,21,21,21,21,21
</chunk>
   <chunk x="64" y="-48" width="16" height="16">
21,21,21,21,21,22,0,0,0,0,0,0,0,0,0,0,
21,21,21,21,21,22,0,0,0,0,0,0,0,0,0,0,
21,21,21,21,21,42,0,0,0,0,0,0,0,0,0,0,
21,21,21,21,21,23,0,0,0,0,0,0,0,0,0,0,
21,21,21,21,21,22,0,0,0,0,0,0,0,0,0,0,
21,21,21,21,21,22,0,0,0,0,0,0,0,0,0,0,
21,21,21,21,21,42,0,0,0,0,0,0,0,0,0,0,
21,21,21,21,21,23,0,0,0,0,0,0,0,0,0,0,
21,21,21,21,21,42,0,0,0,0,0,0,0,0,0,0,
21,21,21,21,21,23,0,0,0,0,0,0,0,0,0,0,
21,21,21,21,21,22,0,0,0,0,0,0,0,0,0,0,
21,21,21,21,21,42,0,0,0,0,0,0,0,0,0,0,
21,21,21,21,21,23,0,0,0,0,0,0,0,0,0,0,
21,21,21,21,21,42,0,0,0,0,0,0,0,0,0,0,
21,21,21,21,21,23,0,0,0,0,0,0,0,0,0,0,
21,21,21,21,21,22,0,0,0,0,0,0,0,0,0,0
</chunk>
   <chunk x="-96" y="-32" width="16" height="16">
0,0,0,0,0,0,0,0,0,0,0,0,0,0,0,0,
0,0,0,0,0,0,0,0,0,0,0,0,0,0,0,0,
0,0,0,0,0,0,0,0,0,0,0,0,0,0,0,0,
0,0,0,0,0,0,0,0,0,0,0,0,0,0,0,0,
0,0,0,0,0,0,0,0,0,0,0,0,0,0,0,0,
0,0,0,0,0,0,0,0,0,0,0,0,0,0,0,0,
0,0,0,0,0,0,0,0,0,0,0,0,0,0,0,0,
0,0,0,0,0,0,0,0,0,0,0,0,0,0,0,0,
0,0,0,0,0,0,0,0,0,0,0,0,0,0,0,0,
0,0,0,0,0,0,0,0,0,0,0,0,0,0,0,0,
0,0,0,0,0,0,0,0,0,0,0,0,0,0,0,0,
0,0,0,0,0,0,0,0,0,0,0,0,0,0,0,0,
0,0,0,0,0,0,0,0,0,0,0,0,0,0,0,0,
0,0,0,0,0,0,0,0,0,0,0,0,0,0,0,0,
0,0,0,0,0,0,0,1,2,2,2,2,2,2,2,3,
0,0,0,0,0,0,0,0,0,0,0,0,0,0,0,0
</chunk>
   <chunk x="-80" y="-32" width="16" height="16">
0,0,0,0,0,0,0,0,0,0,43,21,21,21,21,21,
0,0,0,0,0,0,0,0,0,0,21,21,21,21,21,21,
0,0,0,0,0,0,0,0,0,0,24,21,21,21,21,21,
0,0,0,0,0,0,0,0,0,0,20,21,21,21,21,21,
0,0,0,0,0,0,0,0,0,0,20,21,21,21,21,21,
0,0,0,0,0,0,0,0,0,0,43,21,21,21,21,21,
0,0,0,0,0,0,0,0,0,0,21,21,21,21,21,21,
0,0,0,0,0,0,0,0,0,0,21,21,21,21,21,21,
0,0,0,0,0,0,0,0,0,0,21,21,21,21,21,21,
0,0,0,0,0,0,0,0,0,0,24,21,21,21,21,21,
0,0,0,0,0,0,0,0,0,0,43,21,21,21,21,21,
0,0,0,0,0,0,0,0,0,0,24,21,21,21,21,21,
0,0,0,0,0,0,0,0,0,0,20,21,21,21,21,21,
0,0,0,0,0,0,0,0,0,0,43,21,21,21,21,21,
0,0,0,0,0,0,0,0,0,0,24,21,21,21,21,21,
0,0,0,0,0,0,0,0,0,0,0,2,21,21,21,21
</chunk>
   <chunk x="-64" y="-32" width="16" height="16">
21,21,21,21,21,21,21,21,21,21,21,21,21,21,21,21,
21,21,21,21,21,21,21,21,21,21,21,21,21,21,21,21,
21,21,21,21,21,21,21,21,21,21,21,21,21,21,21,21,
21,21,21,21,21,21,21,21,21,21,21,21,21,21,21,21,
21,21,21,21,21,21,21,21,21,21,21,21,21,21,21,21,
21,21,21,21,21,21,21,21,21,21,21,21,21,21,21,21,
21,21,21,21,21,21,21,21,21,21,21,21,21,21,21,21,
21,21,21,21,21,21,21,21,21,21,21,21,21,21,21,21,
21,21,21,21,21,21,21,21,21,21,21,21,21,21,21,21,
21,21,21,21,21,21,21,21,21,21,21,21,21,21,21,21,
21,21,21,21,21,21,21,21,21,21,21,21,21,21,21,21,
21,21,21,21,21,21,21,21,21,21,21,21,21,21,21,21,
21,21,21,21,21,21,21,21,21,21,21,21,21,21,21,21,
21,21,21,21,21,21,21,21,21,21,21,21,21,21,21,21,
21,21,21,21,21,21,21,21,21,21,21,21,21,21,21,21,
21,21,21,21,21,21,21,21,21,21,21,21,21,21,21,21
</chunk>
   <chunk x="-48" y="-32" width="16" height="16">
21,21,21,21,21,21,21,21,21,21,21,21,21,21,21,21,
21,21,21,21,21,21,21,21,21,21,21,21,21,21,21,21,
21,21,21,21,21,21,21,21,21,21,21,21,21,21,21,21,
21,21,21,21,21,21,21,21,21,21,21,21,21,21,21,21,
21,21,21,21,21,21,21,21,21,21,21,21,21,21,21,21,
21,21,21,21,21,21,21,21,21,21,21,21,21,21,21,21,
21,21,21,21,21,21,21,21,21,21,21,21,21,21,21,21,
21,21,21,21,21,21,21,21,21,21,21,21,21,21,21,21,
21,21,21,21,21,21,21,21,21,21,21,21,21,21,21,21,
21,21,21,21,21,21,21,21,21,21,21,21,21,21,21,21,
21,21,21,21,21,21,21,21,21,21,21,21,21,21,21,21,
21,21,21,21,21,21,21,21,21,21,21,21,21,21,21,21,
21,21,21,21,21,21,21,21,21,21,21,21,21,21,21,21,
21,21,21,21,21,21,21,21,21,21,21,21,21,21,21,21,
21,21,21,21,21,21,21,21,21,21,21,21,21,21,21,21,
21,21,21,21,21,21,21,21,21,21,21,21,21,21,21,21
</chunk>
   <chunk x="-32" y="-32" width="16" height="16">
21,21,21,21,21,21,21,21,21,21,21,21,21,21,21,21,
21,21,21,21,21,21,21,21,21,21,21,21,21,21,21,21,
21,21,21,21,21,21,21,21,21,21,21,21,21,21,21,21,
21,21,21,21,21,21,21,21,21,21,21,21,21,21,21,21,
21,21,21,21,21,21,21,21,21,21,21,21,21,21,21,21,
21,21,21,21,21,21,21,21,21,21,21,21,21,21,21,21,
21,21,21,21,21,21,21,21,21,21,21,21,21,21,21,21,
21,21,21,21,21,21,21,21,21,21,21,21,21,21,21,21,
21,21,21,21,21,21,21,21,21,21,21,21,21,21,21,21,
21,21,21,21,21,21,21,21,21,21,21,21,21,21,21,21,
21,21,21,21,21,21,21,21,21,21,21,21,21,21,21,21,
21,21,21,21,21,21,21,21,21,21,21,21,21,21,21,21,
21,21,21,21,21,21,21,21,21,21,21,21,21,21,21,21,
21,21,21,21,21,21,21,21,21,21,21,21,21,21,21,21,
21,21,21,21,21,21,21,21,21,21,21,21,21,21,21,21,
21,21,21,21,21,21,21,21,21,21,21,21,21,21,21,21
</chunk>
   <chunk x="-16" y="-32" width="16" height="16">
21,21,21,21,21,21,21,21,21,21,21,21,21,21,21,21,
21,21,21,21,21,21,21,21,21,21,21,21,21,21,21,21,
21,21,21,21,21,21,21,21,21,21,21,21,21,21,21,21,
21,21,21,21,21,21,21,21,21,21,21,21,21,21,21,21,
21,21,21,21,21,21,21,21,21,21,21,21,21,21,21,21,
21,21,21,21,21,21,21,21,21,21,21,21,21,21,21,21,
21,21,21,21,21,21,21,21,21,21,21,21,21,21,21,21,
21,21,21,21,21,21,21,21,21,21,21,21,21,21,21,21,
21,21,21,21,21,21,21,21,21,21,21,21,21,21,21,21,
21,21,21,21,21,21,21,21,21,21,21,21,21,21,21,21,
21,21,21,21,21,21,21,21,21,21,21,21,21,21,21,21,
21,21,21,21,21,21,21,21,21,21,21,21,21,21,21,21,
21,21,21,21,21,21,21,21,21,21,21,21,21,21,21,21,
21,21,21,21,21,21,21,21,21,21,21,21,21,21,21,21,
21,21,21,21,21,21,21,21,21,21,21,21,21,21,21,21,
21,21,21,21,21,21,21,21,21,21,21,21,21,21,21,21
</chunk>
   <chunk x="0" y="-32" width="16" height="16">
21,21,21,21,21,21,21,21,21,21,21,21,21,21,21,21,
21,21,21,21,21,21,21,21,21,21,21,21,21,21,21,21,
21,21,21,21,21,21,21,21,21,21,21,21,21,21,21,21,
21,21,21,21,21,21,21,21,21,21,21,21,21,21,21,21,
21,21,21,21,21,21,21,21,21,21,21,21,21,21,21,21,
21,21,21,21,21,21,21,21,21,21,21,21,21,21,21,21,
21,21,21,21,21,21,21,21,21,21,21,21,21,21,21,21,
21,21,21,21,21,21,21,21,21,21,21,21,21,21,21,21,
21,21,21,21,21,21,21,21,21,21,21,21,21,21,21,21,
21,21,21,21,21,21,21,21,21,21,21,21,21,21,21,21,
21,21,21,21,21,21,21,21,21,21,21,21,21,21,21,21,
21,21,21,21,21,21,21,21,21,21,21,21,21,21,21,21,
21,21,21,21,21,21,21,21,21,21,21,21,21,21,21,21,
21,21,21,21,21,21,21,21,21,21,21,21,21,21,21,21,
21,21,21,21,21,21,21,21,21,21,21,21,21,21,21,21,
21,21,21,21,21,21,21,21,21,21,21,21,21,21,21,21
</chunk>
   <chunk x="16" y="-32" width="16" height="16">
21,21,21,21,21,21,21,21,21,21,21,21,21,21,21,21,
21,21,21,21,21,21,21,21,21,21,21,21,21,21,21,21,
21,21,21,21,21,21,21,21,21,21,21,21,21,21,21,21,
21,21,21,21,21,21,21,21,21,21,21,21,21,21,21,21,
21,21,21,21,21,21,21,21,21,21,21,21,21,21,21,21,
21,21,21,21,21,21,21,21,21,21,21,21,21,21,21,21,
21,21,21,21,21,21,21,21,21,21,21,21,21,21,21,21,
21,21,21,21,21,21,21,21,21,21,21,21,21,21,21,21,
21,21,21,21,21,21,21,21,21,21,21,21,21,21,21,21,
21,21,21,21,21,21,21,21,21,21,21,21,21,21,21,21,
21,21,21,21,21,21,21,21,21,21,21,21,21,21,21,21,
21,21,21,21,21,21,21,21,21,21,21,21,21,21,21,21,
21,21,21,21,21,21,21,21,21,21,21,21,21,21,21,21,
21,21,21,21,21,21,21,21,21,21,21,21,21,21,21,21,
21,21,21,21,21,21,21,21,21,21,21,21,21,21,21,21,
21,21,21,21,21,21,21,21,21,21,21,21,21,21,21,21
</chunk>
   <chunk x="32" y="-32" width="16" height="16">
21,21,21,21,21,21,21,21,21,21,21,21,21,21,21,21,
21,21,21,21,21,21,21,21,21,21,21,21,21,21,21,21,
21,21,21,21,21,21,21,21,21,21,21,21,21,21,21,21,
21,21,21,21,21,21,21,21,21,21,21,21,21,21,21,21,
21,21,21,21,21,21,21,21,21,21,21,21,21,21,21,21,
21,21,21,21,21,21,21,21,21,21,21,21,21,21,21,21,
21,21,21,21,21,21,21,21,21,21,21,21,21,21,21,21,
21,21,21,21,21,21,21,21,21,21,21,21,21,21,21,21,
21,21,21,21,21,21,21,21,21,21,21,21,21,21,21,21,
21,21,21,21,21,21,21,21,21,21,21,21,21,21,21,21,
21,21,21,21,21,21,21,21,21,21,21,21,21,21,21,21,
21,21,21,21,21,21,21,21,21,21,21,21,21,21,21,21,
21,21,21,21,21,21,21,21,21,21,21,21,21,21,21,21,
21,21,21,21,21,21,21,21,21,21,21,21,21,21,21,21,
21,21,21,21,21,21,21,21,21,21,21,21,21,21,21,21,
21,21,21,21,21,21,21,21,21,21,21,21,21,21,21,21
</chunk>
   <chunk x="48" y="-32" width="16" height="16">
21,21,21,21,21,21,21,21,21,21,21,21,21,21,21,21,
21,21,21,21,21,21,21,21,21,21,21,21,21,21,21,21,
21,21,21,21,21,21,21,21,21,21,21,21,21,21,21,21,
21,21,21,21,21,21,21,21,21,21,21,21,21,21,21,21,
21,21,21,21,21,21,21,21,21,21,21,21,21,21,21,21,
21,21,21,21,21,21,21,21,21,21,21,21,21,21,21,21,
21,21,21,21,21,21,21,21,21,21,21,21,21,21,21,21,
21,21,21,21,21,21,21,21,21,21,21,21,21,21,21,21,
21,21,21,21,21,21,21,21,21,21,21,21,21,21,21,21,
21,21,21,21,21,21,21,21,21,21,21,21,21,21,21,21,
21,21,21,21,21,21,21,21,21,21,21,21,21,21,21,21,
21,21,21,21,21,21,21,21,21,21,21,21,21,21,21,21,
21,21,21,21,21,21,21,21,21,21,21,21,21,21,21,21,
21,21,21,21,21,21,21,21,21,21,21,21,21,21,21,21,
21,21,21,21,21,21,21,21,21,21,21,21,21,21,21,21,
21,21,21,21,21,21,21,21,21,21,21,21,21,21,21,21
</chunk>
   <chunk x="64" y="-32" width="16" height="16">
21,21,21,21,21,42,0,0,0,0,0,0,0,0,0,0,
21,21,21,21,21,23,0,0,0,0,0,0,0,0,0,0,
21,21,21,21,21,22,0,0,0,0,0,0,0,0,0,0,
21,21,21,21,21,22,0,0,0,0,0,0,0,0,0,0,
21,21,21,21,21,22,0,0,0,0,0,0,0,0,0,0,
21,21,21,21,21,42,0,0,0,0,0,0,0,0,0,0,
21,21,21,21,21,21,0,0,0,0,0,0,0,0,0,0,
21,21,21,21,21,21,0,0,0,0,0,0,0,0,0,0,
21,21,21,21,21,21,0,0,0,0,0,0,0,0,0,0,
21,21,21,21,21,23,0,0,0,0,0,0,0,0,0,0,
21,21,21,21,21,42,0,0,0,0,0,0,0,0,0,0,
21,21,21,21,21,23,0,0,0,0,0,0,0,0,0,0,
21,21,0,0,0,0,0,0,0,0,0,0,0,0,0,0,
21,0,0,0,0,0,0,0,0,0,0,0,0,0,0,0,
21,0,0,0,0,23,0,0,0,0,0,0,0,0,0,0,
21,0,0,0,0,3242,0,0,0,0,0,0,0,0,0,0
</chunk>
   <chunk x="-96" y="-16" width="16" height="16">
0,0,0,0,0,0,0,1758,1758,1758,1758,1758,1758,1758,1758,1758,
0,0,0,0,0,0,0,1758,1758,1758,1758,1758,1758,1758,1758,1758,
0,0,0,0,0,0,0,1758,1758,1758,1758,1758,1758,1758,1758,1758,
0,0,0,0,0,0,0,1758,1758,1758,21,1758,1758,1758,1758,1758,
0,0,0,0,0,0,0,1758,1758,1758,1758,1758,1758,1758,1758,1758,
0,0,0,0,0,0,0,1758,1758,1758,1758,1758,1758,1758,1758,1758,
0,0,0,0,0,0,0,1758,1758,1758,1758,1758,1758,1758,1758,1758,
0,0,0,0,0,0,0,1758,1758,1758,1758,1758,1758,1758,1758,1758,
0,0,0,0,0,0,0,1758,1758,1758,1758,1758,1758,1758,1758,1758,
0,0,0,0,0,0,0,1758,1758,1758,1758,1758,1758,1758,1758,1758,
0,0,0,0,0,0,0,1758,1758,1758,1758,1758,1758,1758,1758,1758,
0,0,0,0,0,0,0,1758,1758,1758,1758,1758,1758,1758,1758,1758,
0,0,0,0,0,0,0,1758,1758,1758,1758,1758,1758,1758,1758,1758,
0,0,0,0,0,0,0,1758,1758,1758,1758,1758,1758,1758,1758,1758,
0,0,0,0,0,0,0,1758,1758,1758,1758,1758,1758,1758,1758,1758,
0,0,0,0,0,0,0,1758,1758,1758,1758,1758,1758,1758,1758,1758
</chunk>
   <chunk x="-80" y="-16" width="16" height="16">
1758,1758,1758,21,21,1758,1758,1758,1758,1758,21,21,21,21,21,21,
1758,1758,1758,1758,1758,1758,1758,1758,1758,1758,21,21,21,21,21,21,
1758,1758,1758,1758,1758,1758,1758,1758,1758,1758,21,21,21,21,21,21,
1758,1758,1758,1758,1758,1758,1758,1758,1758,1758,21,21,21,21,21,21,
1758,1758,1758,1758,1758,1758,1758,1758,1758,1758,21,21,21,21,21,21,
1758,1758,1758,1758,1758,1758,1758,1758,1758,1758,1758,21,21,21,21,21,
1758,1758,1758,1758,1758,1758,1758,1758,1758,1758,1758,21,21,21,21,21,
1758,1758,1758,1758,1758,1758,1758,1758,1758,1758,1758,21,21,21,21,21,
1758,1758,1758,1758,1758,1758,1758,1758,1758,1758,1758,21,21,21,21,21,
1758,1758,1758,1758,1758,1758,1758,1758,1758,1758,1758,21,21,21,21,21,
1758,1758,1758,1758,1758,1758,1758,1758,1758,1758,1758,21,21,21,21,21,
1758,1758,1758,1758,1758,1758,1758,1758,1758,1758,1758,21,21,21,21,21,
1758,1758,1758,1758,1758,1758,1758,1758,1758,1758,1758,21,21,21,21,21,
1758,1758,1758,1758,1758,1758,1758,1758,1758,1758,1758,21,21,21,21,21,
1758,1758,1758,1758,1758,1758,1758,1758,1758,1758,1758,21,21,21,21,21,
1758,1758,1758,1758,1758,1758,1758,1758,1758,1758,1758,21,21,21,21,21
</chunk>
   <chunk x="-64" y="-16" width="16" height="16">
21,21,21,21,21,21,21,21,21,21,21,21,21,21,21,21,
21,21,21,21,21,21,21,21,21,21,21,21,21,21,21,21,
21,21,21,21,21,21,21,21,21,21,21,21,21,21,21,21,
21,21,21,21,21,21,21,21,21,21,21,21,21,21,21,21,
21,21,21,21,21,21,21,21,21,21,21,21,21,21,21,21,
21,21,21,21,21,21,21,21,21,21,21,21,21,21,21,21,
21,21,21,21,21,21,21,21,21,21,21,21,21,21,21,21,
21,21,21,21,21,21,21,21,21,21,21,21,21,21,21,21,
21,21,21,21,21,21,21,21,21,21,21,21,21,21,21,21,
21,21,21,21,21,21,21,21,21,21,21,21,21,21,21,21,
21,21,21,21,21,21,21,21,21,21,21,21,21,21,21,21,
21,21,21,21,21,21,21,21,21,21,21,21,21,21,21,21,
21,21,21,21,21,21,21,21,21,21,21,21,21,21,21,21,
21,21,21,21,21,21,21,21,21,21,21,21,21,21,21,21,
21,21,21,21,21,21,21,21,21,21,21,21,21,21,21,21,
21,21,21,21,21,21,21,21,21,21,21,21,21,21,21,21
</chunk>
   <chunk x="-48" y="-16" width="16" height="16">
21,21,21,21,21,21,21,21,21,21,21,21,21,21,21,21,
21,21,21,21,21,21,21,21,21,21,21,21,21,21,21,21,
21,21,21,21,21,21,21,21,21,21,21,21,21,21,21,21,
21,21,21,21,21,21,21,21,21,21,21,21,21,21,21,21,
21,21,21,21,21,21,21,21,21,21,21,21,21,21,21,21,
21,21,21,21,21,21,21,21,21,21,21,21,21,21,21,21,
21,21,21,21,21,21,21,21,21,21,21,21,21,21,21,21,
21,21,21,21,21,21,21,21,21,21,21,21,21,21,21,21,
21,21,21,21,21,21,21,21,21,21,21,21,21,21,21,21,
21,21,21,21,21,21,21,21,21,21,21,21,21,21,21,21,
21,21,21,21,21,21,21,21,21,21,21,21,21,21,21,21,
21,21,21,21,21,21,21,21,21,21,21,21,21,21,21,21,
21,21,21,21,21,21,21,21,21,21,21,21,21,21,21,21,
21,21,21,21,21,21,21,21,21,21,21,21,21,21,21,21,
21,21,21,21,21,21,21,21,21,21,21,21,21,21,21,21,
21,21,21,21,21,21,21,21,21,21,21,21,21,21,21,21
</chunk>
   <chunk x="-32" y="-16" width="16" height="16">
21,21,21,21,21,21,21,21,21,21,21,21,21,21,21,21,
21,21,21,21,21,21,21,21,21,21,21,21,21,21,21,21,
21,21,21,21,21,21,21,21,21,21,21,21,21,21,21,21,
21,21,21,21,21,21,21,21,21,21,21,21,21,21,21,21,
21,21,21,21,21,21,21,21,21,21,21,21,21,21,21,21,
21,21,21,21,21,21,21,21,21,21,21,21,21,21,21,21,
21,21,21,21,21,21,21,21,21,21,21,21,21,21,21,21,
21,21,21,21,21,21,21,21,21,21,21,21,21,21,21,21,
21,21,21,21,21,21,21,21,21,21,21,21,21,21,21,21,
21,21,21,21,21,21,21,21,21,21,21,21,21,21,21,21,
21,21,21,21,21,21,21,21,21,21,21,21,21,21,21,21,
21,21,21,21,21,21,21,21,21,21,21,21,21,21,21,21,
21,21,21,21,21,21,21,21,21,21,21,21,21,21,21,21,
21,21,21,21,21,21,21,21,21,21,21,21,21,21,21,21,
21,21,21,21,21,21,21,21,21,21,21,21,21,21,21,21,
21,21,21,21,21,21,21,21,21,21,21,21,21,21,21,21
</chunk>
   <chunk x="-16" y="-16" width="16" height="16">
21,21,21,21,21,21,21,21,21,21,21,21,21,21,21,21,
21,21,21,21,21,21,21,21,21,21,21,21,21,21,21,21,
21,21,21,21,21,21,21,21,21,21,21,21,21,21,21,21,
21,21,21,21,21,21,21,21,21,21,21,21,21,21,21,21,
21,21,21,21,21,21,21,21,21,21,21,21,21,21,21,21,
21,21,21,21,21,21,21,21,21,21,21,21,21,21,21,21,
21,21,21,21,21,21,21,21,21,21,21,21,21,21,21,21,
21,21,21,21,21,21,21,21,21,21,21,21,21,21,21,21,
21,21,21,21,21,21,21,21,21,21,21,21,21,21,21,21,
21,21,21,21,21,21,21,21,21,21,21,21,21,21,21,21,
21,21,21,21,21,21,21,21,21,21,21,21,21,21,21,21,
21,21,21,21,21,21,21,21,21,21,21,21,21,21,21,21,
21,21,21,21,21,21,21,21,21,21,21,21,21,21,21,21,
21,21,21,21,21,21,21,21,21,21,21,21,21,21,21,21,
21,21,21,21,21,21,21,21,21,21,21,21,21,21,21,21,
21,21,21,21,21,21,21,21,21,21,21,21,21,21,21,21
</chunk>
   <chunk x="0" y="-16" width="16" height="16">
21,21,21,21,21,21,21,21,21,21,21,21,21,21,21,21,
21,21,21,21,21,21,21,21,21,21,21,21,21,21,21,21,
21,21,21,21,21,21,21,21,21,21,21,21,21,21,21,21,
21,21,21,21,21,21,21,21,21,21,21,21,21,21,21,21,
21,21,21,21,21,21,21,21,21,21,21,21,21,21,21,21,
21,21,21,21,21,21,21,21,21,21,21,21,21,21,21,21,
21,21,21,21,21,21,21,21,21,21,21,21,21,21,21,21,
21,21,21,21,21,21,21,21,21,21,21,21,21,21,21,21,
21,21,21,21,21,21,21,21,21,21,21,21,21,21,21,21,
21,21,21,21,21,21,21,21,21,21,21,21,21,21,21,21,
21,21,21,21,21,21,21,21,21,21,21,21,21,21,21,21,
21,21,21,21,21,21,21,21,21,21,21,21,21,21,21,21,
21,21,21,21,21,21,21,21,21,21,21,21,21,21,21,21,
21,21,21,21,21,21,21,21,21,21,21,21,21,21,21,21,
21,21,21,21,21,21,21,21,21,21,21,21,21,21,21,21,
21,21,21,21,21,21,21,21,21,21,21,21,21,21,21,21
</chunk>
   <chunk x="16" y="-16" width="16" height="16">
21,21,21,21,21,21,21,21,21,21,21,21,21,21,21,21,
21,21,21,21,21,21,21,21,21,21,21,21,21,21,21,21,
21,21,21,21,21,21,21,21,21,21,21,21,21,21,21,21,
21,21,21,21,21,21,21,21,21,21,21,21,21,21,21,21,
21,21,21,21,21,21,21,21,21,21,21,21,21,21,21,21,
21,21,21,21,21,21,21,21,21,21,21,21,21,21,21,21,
21,21,21,21,21,21,21,21,21,21,21,21,21,21,21,21,
21,21,21,21,21,21,21,21,21,21,21,21,21,21,21,21,
21,21,21,21,21,21,21,21,21,21,21,21,21,21,21,21,
21,21,21,21,21,21,21,21,21,21,21,21,21,21,21,21,
21,21,21,21,21,21,21,21,21,21,0,0,21,21,21,21,
21,21,21,21,21,21,21,21,21,0,0,0,0,21,21,21,
21,21,21,21,21,21,21,21,21,0,0,0,0,0,21,21,
21,21,21,21,21,21,21,21,0,0,0,0,0,0,21,21,
21,21,21,21,21,21,21,0,0,0,0,0,0,0,0,0,
21,21,21,21,21,21,0,0,0,0,0,0,0,0,0,0
</chunk>
   <chunk x="32" y="-16" width="16" height="16">
21,21,21,21,21,21,21,21,21,21,21,21,21,21,21,21,
21,21,21,21,21,21,21,21,21,21,21,21,21,21,21,21,
21,21,21,21,21,21,21,21,21,21,21,21,21,21,21,21,
21,21,21,21,21,21,21,21,21,21,21,21,21,21,21,21,
21,21,21,21,21,21,21,21,21,21,21,21,21,21,21,21,
21,21,21,21,21,21,21,21,21,21,21,21,21,21,21,21,
21,21,21,21,21,21,21,21,21,21,21,21,21,21,21,21,
21,21,21,21,21,21,21,21,21,21,21,21,21,21,21,21,
21,21,21,21,21,21,21,21,21,21,21,21,21,21,21,21,
21,21,21,21,21,21,21,21,21,21,21,21,21,21,21,21,
21,21,21,21,21,21,21,21,21,21,21,21,21,21,21,21,
21,21,21,21,21,21,21,21,21,21,21,21,21,21,21,21,
21,21,21,21,21,21,21,21,21,21,21,21,21,21,21,21,
21,21,21,21,21,21,21,21,21,21,21,21,21,21,21,21,
21,21,21,21,21,21,21,21,21,21,21,21,21,21,21,21,
21,21,21,21,21,21,21,21,21,21,21,21,21,21,21,21
</chunk>
   <chunk x="48" y="-16" width="16" height="16">
21,21,21,21,21,21,21,21,21,21,21,21,21,21,21,21,
21,21,21,21,21,21,21,21,21,21,21,21,21,21,21,0,
21,21,21,21,21,21,21,21,21,21,21,21,21,21,21,0,
21,21,21,21,21,21,21,21,21,21,21,21,21,21,21,0,
21,21,21,21,21,21,21,21,21,21,21,21,21,21,21,21,
21,21,21,21,21,21,21,21,21,21,21,21,21,21,21,0,
21,21,21,21,21,21,21,21,21,21,21,21,21,21,0,0,
21,21,21,21,21,21,21,21,21,21,21,21,21,0,0,0,
21,21,21,21,21,21,21,21,21,21,21,0,0,0,0,0,
21,21,21,21,21,21,21,21,21,21,21,0,0,0,0,0,
21,21,21,21,21,21,21,21,21,21,0,0,0,0,0,0,
21,21,21,21,21,21,21,21,0,0,0,0,0,0,0,0,
21,21,21,21,21,21,21,0,0,0,0,0,0,0,0,0,
21,21,21,21,21,21,21,0,0,0,0,0,0,0,0,0,
21,21,21,21,21,21,21,0,0,0,0,0,21,21,21,21,
21,21,21,21,21,21,21,0,0,0,0,0,21,21,21,21
</chunk>
   <chunk x="64" y="-16" width="16" height="16">
21,0,0,0,0,3242,0,0,0,0,0,0,0,0,0,0,
0,0,0,0,21,23,0,0,0,0,0,0,0,0,0,0,
0,0,0,0,21,22,0,0,0,0,0,0,0,0,0,0,
0,0,0,0,21,42,0,0,0,0,0,0,0,0,0,0,
0,0,0,0,21,23,0,0,0,0,0,0,0,0,0,0,
0,0,0,0,21,22,0,0,0,0,0,0,0,0,0,0,
0,0,0,0,21,42,0,0,0,0,0,0,0,0,0,0,
0,0,0,0,21,23,0,0,0,0,0,0,0,0,0,0,
0,0,0,21,21,42,0,0,0,0,0,0,0,0,0,0,
0,0,0,21,21,21,0,0,0,0,0,0,0,0,0,0,
0,0,21,21,21,21,0,0,0,0,0,0,0,0,0,0,
0,21,21,21,21,21,0,0,0,0,0,0,0,0,0,0,
21,21,21,21,21,21,0,0,0,0,0,0,0,0,0,0,
21,21,21,21,21,23,0,0,0,0,0,0,0,0,0,0,
21,21,21,21,21,22,0,0,0,0,0,0,0,0,0,0,
21,21,21,21,21,22,0,0,0,0,0,0,0,0,0,0
</chunk>
   <chunk x="-96" y="0" width="16" height="16">
0,0,0,0,0,0,0,1758,1758,1758,1758,1758,1758,1758,1758,1758,
0,0,0,0,0,0,0,1758,1758,1758,1758,1758,1758,1758,1758,1758,
0,0,0,0,0,0,0,1758,1758,1758,1758,1758,1758,1758,1758,1758,
0,0,0,0,0,0,0,1758,1758,1758,1758,1758,1758,1758,1758,1758,
0,0,0,0,0,0,0,1758,1758,1758,1758,1758,1758,1758,1758,1758,
0,0,0,0,0,0,0,1758,1758,1758,1758,1758,1758,1758,1758,1758,
0,0,0,0,0,0,0,1758,1758,1758,1758,1758,1758,1758,1758,1758,
0,0,0,0,0,0,0,1758,1758,1758,1758,1758,1758,1758,1758,1758,
0,0,0,0,0,0,0,1758,1758,1758,1758,1758,1758,1758,1758,1758,
0,0,0,0,0,0,0,1758,1758,1758,1758,1758,1758,1758,1758,1758,
0,0,0,0,0,0,0,1758,1758,1758,1758,1758,1758,1758,1758,1758,
0,0,0,0,0,0,0,1758,1758,1758,1758,1758,1758,1758,1758,1758,
0,0,0,0,0,0,0,1758,1758,1758,1758,1758,1758,1758,1758,1758,
0,0,0,0,0,0,0,1758,1758,1758,1758,1758,1758,1758,1758,1758,
0,0,0,0,0,0,0,1758,1758,1758,1758,1758,1758,1758,1758,1758,
0,0,0,0,0,0,0,1758,1758,1758,1758,1758,1758,1758,1758,1758
</chunk>
   <chunk x="-80" y="0" width="16" height="16">
1758,1758,1758,1758,1758,1758,1758,1758,1758,1758,1758,21,21,21,21,21,
1758,1758,1758,1758,1758,1758,1758,1758,1758,1758,1758,21,21,21,21,21,
1758,1758,1758,1758,1758,1758,1758,1758,1758,1758,1758,21,21,21,21,21,
1758,1758,1758,1758,1758,1758,1758,1758,1758,1758,1758,21,21,21,21,21,
1758,1758,1758,1758,1758,1758,1758,1758,1758,1758,1758,21,21,21,21,21,
1758,1758,1758,1758,1758,1758,1758,1758,1758,1758,1758,21,21,21,21,21,
1758,1758,1758,1758,1758,1758,1758,1758,1758,1758,1758,21,21,21,21,21,
1758,1758,1758,1758,1758,1758,1758,1758,1758,1758,1758,21,21,21,21,21,
1758,1758,1758,1758,1758,1758,1758,1758,1758,1758,1758,21,21,21,21,21,
1758,1758,1758,1758,1758,1758,1758,1758,1758,1758,1758,21,21,21,21,21,
1758,1758,1758,1758,1758,1758,1758,1758,1758,1758,1758,21,21,21,21,21,
1758,1758,1758,1758,1758,1758,1758,1758,1758,1758,1758,21,21,21,21,21,
1758,1758,1758,1758,1758,1758,1758,1758,1758,1758,1758,21,21,21,21,21,
1758,1758,1758,1758,1758,1758,1758,1758,1758,1758,1758,21,21,21,21,21,
1758,1758,1758,1758,1758,1758,1758,1758,1758,1758,1758,21,21,21,21,21,
1758,1758,1758,1758,1758,1758,1758,1758,1758,1758,1758,21,21,21,21,21
</chunk>
   <chunk x="-64" y="0" width="16" height="16">
21,21,21,21,21,21,21,21,21,21,21,21,21,21,21,21,
21,21,21,21,21,21,21,21,21,21,21,21,21,21,21,21,
21,21,21,21,21,21,21,21,21,21,21,21,21,21,21,21,
21,21,21,21,21,21,21,21,21,21,21,21,21,21,21,21,
21,21,21,21,21,21,21,21,21,21,21,21,21,21,21,21,
21,21,21,21,21,21,21,21,21,21,21,21,21,21,21,21,
21,21,21,21,21,21,21,21,21,21,21,21,21,21,21,21,
21,21,21,21,21,21,21,21,21,21,21,21,21,21,21,21,
21,21,21,21,21,21,21,21,21,21,21,21,21,21,21,21,
21,21,21,21,21,21,21,21,21,21,21,21,21,21,21,21,
21,21,21,21,21,21,21,21,21,21,21,21,21,21,21,21,
21,21,21,21,21,21,21,21,21,21,21,21,21,21,21,21,
21,21,21,21,21,21,21,21,21,21,21,21,21,21,21,21,
21,21,21,21,21,21,21,21,21,21,21,21,21,21,21,21,
21,21,21,21,21,21,21,21,21,21,21,21,21,21,21,21,
21,21,21,21,21,21,21,21,21,21,21,21,21,21,21,21
</chunk>
   <chunk x="-48" y="0" width="16" height="16">
21,21,21,21,21,21,21,21,21,21,21,21,21,21,21,21,
21,21,21,21,21,21,21,21,21,21,21,21,21,21,21,21,
21,21,21,21,21,21,21,21,21,21,21,21,21,21,21,21,
21,21,21,21,21,21,21,21,21,21,21,21,21,21,21,21,
21,21,21,21,21,21,21,21,21,21,21,21,21,21,21,21,
21,21,21,21,21,21,21,21,21,21,21,21,21,21,21,21,
21,21,21,21,21,21,21,21,21,21,21,21,21,21,21,21,
21,21,21,21,21,21,21,21,21,21,21,21,21,21,21,21,
21,21,21,21,21,21,21,21,21,21,21,21,21,21,21,21,
21,21,21,21,21,21,21,21,21,21,21,21,21,21,21,21,
21,21,21,21,21,21,21,21,21,21,21,21,21,21,21,21,
21,21,21,21,21,21,21,21,21,21,21,21,21,21,21,21,
21,21,21,21,21,21,21,21,21,21,21,21,21,21,21,21,
21,21,21,21,21,21,21,21,21,21,21,21,21,21,21,21,
21,21,21,21,21,21,21,21,21,21,21,21,21,21,21,21,
21,21,21,21,21,21,21,21,21,21,21,21,21,21,21,21
</chunk>
   <chunk x="-32" y="0" width="16" height="16">
21,21,21,21,21,21,21,21,21,21,21,21,21,21,21,21,
21,21,21,21,21,21,21,21,21,21,21,21,21,21,21,21,
21,21,21,21,21,21,21,21,21,21,21,21,21,21,21,21,
21,21,21,21,21,21,21,21,21,21,21,21,21,21,21,21,
21,21,21,21,21,21,21,21,21,21,21,21,21,21,21,21,
21,21,21,21,21,21,21,21,21,21,21,21,21,21,21,21,
21,21,21,21,21,21,21,21,21,21,21,21,21,21,21,21,
21,21,21,21,21,21,21,21,21,21,21,21,21,21,21,21,
21,21,21,21,21,21,21,21,21,21,21,21,21,21,21,21,
21,21,21,21,21,21,21,21,21,21,21,21,21,21,21,21,
21,21,21,21,21,21,21,21,21,21,21,21,21,21,21,21,
21,21,21,21,21,21,21,21,21,21,21,21,21,21,21,21,
21,21,21,21,21,21,21,21,21,21,21,21,21,21,21,21,
21,21,21,21,21,21,21,21,21,21,21,21,21,21,21,21,
21,21,21,21,21,21,21,21,21,21,21,21,21,21,21,21,
21,21,21,21,21,21,21,21,21,21,21,21,21,21,21,21
</chunk>
   <chunk x="-16" y="0" width="16" height="16">
21,21,21,21,21,21,21,21,21,21,21,21,21,21,21,21,
21,21,21,21,21,21,21,21,21,21,21,21,21,21,21,21,
21,21,21,21,21,21,21,21,21,21,21,21,21,21,21,21,
21,21,21,21,21,21,21,21,21,21,21,21,21,21,21,21,
21,21,21,21,21,21,21,21,21,21,21,21,21,21,21,21,
21,21,21,21,21,21,21,21,21,21,21,21,21,21,21,21,
21,21,21,21,21,21,21,21,21,21,21,21,21,21,21,21,
21,21,21,21,21,21,21,21,21,21,21,21,21,21,21,21,
21,21,21,21,21,21,21,21,21,21,21,21,21,21,21,21,
21,21,21,21,21,21,21,21,21,21,21,21,21,21,21,21,
21,21,21,21,21,21,21,21,21,21,21,21,21,21,21,21,
21,21,21,21,21,21,21,21,21,21,21,21,21,21,21,21,
21,21,21,21,21,21,21,21,21,21,21,21,21,21,21,21,
21,21,21,21,21,21,21,21,21,21,21,21,21,21,21,21,
21,21,21,21,21,21,21,21,21,21,21,21,21,21,21,21,
21,21,21,21,21,21,21,21,21,21,21,21,21,21,21,21
</chunk>
   <chunk x="0" y="0" width="16" height="16">
21,21,21,21,21,21,21,21,21,21,21,21,21,21,21,21,
21,21,21,21,21,21,21,21,21,21,21,21,21,21,21,21,
21,21,21,21,21,21,21,21,21,21,21,21,21,21,21,21,
21,21,21,21,21,21,21,21,21,21,21,21,21,21,21,21,
21,21,21,21,21,21,21,21,21,21,21,21,21,21,21,21,
21,21,21,21,21,21,21,21,21,21,21,21,21,21,21,21,
21,21,21,21,21,21,21,21,21,21,21,21,21,21,21,21,
21,21,21,21,21,21,21,21,21,21,21,21,21,21,21,21,
21,21,21,21,21,21,21,21,21,21,21,21,21,21,21,21,
21,21,21,21,21,21,21,21,21,21,21,21,21,21,21,21,
21,21,21,21,21,21,21,21,21,21,21,21,21,21,21,21,
21,21,21,21,21,21,21,21,21,21,21,21,21,21,21,21,
21,21,21,21,21,21,21,21,21,21,21,21,21,21,21,21,
21,21,21,21,21,21,21,21,21,21,21,21,21,21,21,21,
21,21,21,21,21,21,21,21,21,21,21,21,21,21,21,21,
21,21,21,21,21,21,21,21,21,21,21,21,21,21,21,21
</chunk>
   <chunk x="16" y="0" width="16" height="16">
21,21,21,21,21,21,0,0,0,0,0,21,0,0,0,0,
21,21,21,21,21,21,0,0,0,0,0,21,0,0,0,0,
21,21,21,21,21,0,0,0,0,0,0,21,0,0,0,0,
21,21,21,21,0,0,0,0,0,21,21,21,21,21,0,0,
21,21,21,21,0,0,0,0,0,21,21,21,21,21,21,0,
21,21,21,0,0,0,0,0,21,21,21,21,21,21,21,0,
21,21,21,0,0,0,0,0,21,21,21,21,21,21,21,21,
21,21,21,0,0,0,0,0,21,21,21,21,21,21,21,21,
21,21,21,0,0,0,0,21,21,21,21,21,21,21,21,21,
21,21,21,0,0,0,0,21,21,21,21,21,21,21,21,21,
21,21,21,0,0,0,0,21,21,21,21,21,21,21,21,21,
21,21,21,0,0,0,0,21,21,21,21,21,21,21,21,21,
21,21,21,0,0,0,0,21,21,21,21,21,21,21,21,21,
21,21,0,0,0,0,0,21,21,21,21,21,21,21,21,21,
21,21,0,0,0,0,0,21,21,21,21,21,21,21,21,21,
21,0,0,0,0,0,21,21,21,21,21,21,21,21,21,21
</chunk>
   <chunk x="32" y="0" width="16" height="16">
0,21,21,21,21,21,21,21,21,21,21,21,21,21,21,21,
0,0,21,21,21,21,21,21,21,21,21,21,21,21,21,21,
0,0,0,21,21,21,21,21,21,21,21,21,21,21,21,21,
0,0,0,0,21,21,21,21,21,21,21,21,21,21,21,21,
0,0,0,0,0,21,21,21,21,21,21,21,21,21,21,21,
0,0,0,0,0,0,0,21,21,21,21,21,21,21,21,21,
0,0,0,0,0,0,0,0,0,21,21,21,21,21,21,21,
21,0,0,0,0,0,0,0,0,0,21,21,21,21,21,21,
21,21,0,0,0,0,0,0,0,0,21,21,21,21,21,0,
21,21,21,0,0,0,0,0,0,0,0,0,0,0,0,0,
21,21,21,21,0,0,0,0,0,0,0,0,0,0,0,0,
21,21,21,21,21,21,21,0,0,0,0,0,0,0,0,0,
21,21,21,21,21,21,21,21,0,0,0,0,0,0,0,0,
21,21,21,21,21,21,21,21,21,21,21,0,0,0,0,0,
21,21,21,21,21,21,21,21,21,21,21,21,21,21,21,21,
21,21,21,21,21,21,21,21,21,21,21,21,21,21,21,21
</chunk>
   <chunk x="48" y="0" width="16" height="16">
21,21,21,21,21,21,21,0,0,0,0,0,21,21,21,21,
21,21,21,21,21,21,21,0,0,0,0,21,21,21,21,21,
21,21,21,21,21,21,0,0,0,0,0,21,21,21,21,21,
21,21,21,21,21,21,0,0,0,0,0,21,21,21,21,21,
21,21,21,21,0,0,0,0,0,0,21,21,21,21,21,21,
21,21,21,0,0,0,0,0,0,21,21,21,21,21,21,21,
21,21,21,0,0,0,0,0,0,21,21,21,21,21,21,21,
21,0,0,0,0,0,0,0,21,21,21,21,21,21,21,21,
0,0,0,0,0,0,0,21,21,21,21,21,21,21,21,21,
0,0,0,0,0,0,21,21,21,21,21,21,21,21,21,21,
0,0,0,0,0,21,21,21,21,21,21,21,21,21,21,21,
0,0,0,21,21,21,21,21,21,21,21,21,21,21,21,21,
0,0,21,21,21,21,21,21,21,21,21,21,21,21,21,21,
0,21,21,21,21,21,21,21,21,21,21,21,21,21,21,21,
21,21,21,21,21,21,21,21,21,21,21,21,21,21,21,21,
21,21,21,21,21,21,21,21,21,21,21,21,21,21,21,21
</chunk>
   <chunk x="64" y="0" width="16" height="16">
21,21,21,21,21,42,0,0,0,0,0,0,0,0,0,0,
21,21,21,21,21,23,0,0,0,0,0,0,0,0,0,0,
21,21,21,21,21,42,0,0,0,0,0,0,0,0,0,0,
21,21,21,21,21,23,0,0,0,0,0,0,0,0,0,0,
21,21,21,21,21,22,0,0,0,0,0,0,0,0,0,0,
21,21,21,21,21,22,0,0,0,0,0,0,0,0,0,0,
21,21,21,21,21,42,0,0,0,0,0,0,0,0,0,0,
21,21,21,21,21,21,0,0,0,0,0,0,0,0,0,0,
21,21,21,21,21,23,0,0,0,0,0,0,0,0,0,0,
21,21,21,21,21,22,0,0,0,0,0,0,0,0,0,0,
21,21,21,21,21,42,0,0,0,0,0,0,0,0,0,0,
21,21,21,21,21,23,0,0,0,0,0,0,0,0,0,0,
21,21,21,21,21,22,0,0,0,0,0,0,0,0,0,0,
21,21,21,21,21,42,0,0,0,0,0,0,0,0,0,0,
21,21,21,21,21,23,0,0,0,0,0,0,0,0,0,0,
21,21,21,21,21,22,0,0,0,0,0,0,0,0,0,0
</chunk>
   <chunk x="-96" y="16" width="16" height="16">
0,0,0,0,0,0,0,1758,1758,1758,1758,1758,1758,1758,1758,1758,
0,0,0,0,0,0,0,1758,1758,1758,1758,1758,1758,1758,1758,1758,
0,0,0,0,0,0,0,1758,1758,1758,1758,1758,1758,1758,1758,1758,
0,0,0,0,0,0,0,1758,1758,1758,1758,1758,1758,1758,1758,1758,
0,0,0,0,0,0,0,1758,1758,1758,1758,1758,1758,1758,1758,1758,
0,0,0,0,0,0,0,1758,1758,1758,1758,1758,1758,1758,1758,1758,
0,0,0,0,0,0,0,1758,1758,1758,1758,1758,1758,1758,1758,1758,
0,0,0,0,0,0,0,1758,1758,1758,1758,1758,1758,1758,1758,1758,
0,0,0,0,0,0,0,1758,1758,1758,1758,1758,1758,1758,1758,1758,
0,0,0,0,0,0,0,1758,1758,1758,1758,1758,1758,1758,1758,1758,
0,0,0,0,0,0,0,1758,1758,1758,1758,1758,1758,1758,1758,1758,
0,0,0,0,0,0,0,1758,1758,1758,1758,1758,1758,1758,1758,1758,
0,0,0,0,0,0,0,1758,1758,1758,1758,1758,1758,1758,1758,1758,
0,0,0,0,0,0,0,1758,1758,1758,1758,1758,1758,1758,1758,1758,
0,0,0,0,0,0,0,1758,1758,1758,1758,1758,1758,1758,1758,1758,
0,0,0,0,0,0,0,1758,1758,1758,1758,1758,1758,1758,1758,1758
</chunk>
   <chunk x="-80" y="16" width="16" height="16">
1758,1758,1758,1758,1758,1758,1758,1758,1758,1758,1758,21,21,21,21,21,
1758,1758,1758,1758,1758,1758,1758,1758,1758,1758,1758,21,21,21,21,21,
1758,1758,1758,1758,1758,1758,1758,1758,1758,1758,1758,21,21,21,21,21,
1758,1758,1758,1758,1758,1758,1758,1758,1758,1758,1758,21,21,21,21,21,
1758,1758,1758,1758,1758,1758,1758,1758,1758,1758,1758,21,21,21,21,21,
1758,1758,1758,1758,1758,1758,1758,1758,1758,1758,1758,21,21,21,21,21,
1758,1758,1758,1758,1758,1758,1758,1758,1758,1758,1758,21,21,21,21,21,
1758,1758,1758,1758,1758,1758,1758,1758,1758,1758,1758,21,21,21,21,21,
1758,1758,1758,1758,1758,1758,1758,1758,1758,1758,1758,21,21,21,21,21,
1758,1758,1758,1758,1758,1758,1758,1758,1758,1758,1758,21,21,21,21,21,
1758,1758,1758,1758,1758,1758,1758,1758,1758,1758,1758,21,21,21,21,21,
1758,1758,1758,1758,1758,1758,1758,1758,1758,1758,1758,21,21,21,21,21,
1758,1758,1758,1758,1758,1758,1758,1758,1758,1758,1758,21,21,21,21,21,
1758,1758,1758,1758,1758,1758,1758,1758,1758,1758,1758,21,21,21,21,21,
1758,1758,1758,1758,1758,1758,1758,1758,1758,1758,1758,21,21,21,21,21,
1758,1758,1758,1758,1758,1758,1758,1758,1758,1758,1758,21,21,21,21,21
</chunk>
   <chunk x="-64" y="16" width="16" height="16">
21,21,21,21,21,21,21,21,21,21,21,21,21,21,21,21,
21,21,21,21,21,21,21,21,21,21,21,21,21,21,21,21,
21,21,21,21,21,21,21,21,21,21,21,21,21,21,21,21,
21,21,21,21,21,21,21,21,21,21,21,21,21,21,21,21,
21,21,21,21,21,21,21,21,21,21,21,21,21,21,21,21,
21,21,21,21,21,21,21,21,21,21,21,21,21,21,21,21,
21,21,21,21,21,21,21,21,21,21,21,21,21,21,21,21,
21,21,21,21,21,21,21,21,21,21,21,21,21,21,21,21,
21,21,21,21,21,21,21,21,21,21,21,21,21,21,21,21,
21,21,21,21,21,21,21,21,21,21,21,21,21,21,21,21,
21,21,21,21,21,21,21,21,21,21,21,21,21,21,21,21,
21,21,21,21,21,21,21,21,21,21,21,21,21,21,21,21,
21,21,21,21,21,21,21,21,21,21,21,21,21,21,21,21,
21,21,21,21,21,21,21,21,21,21,21,21,21,21,21,21,
21,21,21,21,21,21,21,21,21,21,21,21,21,21,21,21,
21,21,21,21,21,21,21,21,21,21,21,21,21,21,21,21
</chunk>
   <chunk x="-48" y="16" width="16" height="16">
21,21,21,21,21,21,21,21,21,21,21,21,21,21,21,21,
21,21,21,21,21,21,21,21,21,21,21,21,21,21,21,21,
21,21,21,21,21,21,21,21,21,21,21,21,21,21,21,21,
21,21,21,21,21,21,21,21,21,21,21,21,21,21,21,21,
21,21,21,21,21,21,21,21,21,21,21,21,21,21,21,21,
21,21,21,21,21,21,21,21,21,21,21,21,21,21,21,21,
21,21,21,21,21,21,21,21,21,21,21,21,21,21,21,21,
21,21,21,21,21,21,21,21,21,21,21,21,21,21,21,21,
21,21,21,21,21,21,21,21,21,21,21,21,21,21,21,21,
21,21,21,21,21,21,21,21,21,21,21,21,21,21,21,21,
21,21,21,21,21,21,21,21,21,21,21,21,21,21,21,21,
21,21,21,21,21,21,21,21,21,21,21,21,21,21,21,21,
21,21,21,21,21,21,21,21,21,21,21,21,21,21,21,21,
21,21,21,21,21,21,21,21,21,21,21,21,21,21,21,21,
21,21,21,21,21,21,21,21,21,21,21,21,21,21,21,21,
21,21,21,21,21,21,21,21,21,21,21,21,21,21,21,21
</chunk>
   <chunk x="-32" y="16" width="16" height="16">
21,21,21,21,21,21,21,21,21,21,21,21,21,21,21,21,
21,21,21,21,21,21,21,21,21,21,21,21,21,21,21,21,
21,21,21,21,21,21,21,21,21,21,21,21,21,21,21,21,
21,21,21,21,21,21,21,21,21,21,21,21,21,21,21,21,
21,21,21,21,21,21,21,21,21,21,21,21,21,21,21,21,
21,21,21,21,21,21,21,21,21,21,21,21,21,21,21,21,
21,21,21,21,21,21,21,21,21,21,21,21,21,21,21,21,
21,21,21,21,21,21,21,21,21,21,21,21,21,21,21,21,
21,21,21,21,21,21,21,21,21,21,21,21,21,21,21,21,
21,21,21,21,21,21,21,21,21,21,21,21,21,21,21,21,
21,21,21,21,21,21,21,21,21,21,21,21,21,21,21,21,
21,21,21,21,21,21,21,21,21,21,21,21,21,21,21,21,
21,21,21,21,21,21,21,21,21,21,21,21,21,21,21,21,
21,21,21,21,21,21,21,21,21,21,21,21,21,21,21,21,
21,21,21,21,21,21,21,21,21,21,21,21,21,21,21,21,
21,21,21,21,21,21,21,21,21,21,21,21,21,21,21,21
</chunk>
   <chunk x="-16" y="16" width="16" height="16">
21,21,21,21,21,21,21,21,21,21,21,21,21,21,21,21,
21,21,21,21,21,21,21,21,21,21,21,21,21,21,21,21,
21,21,21,21,21,21,21,21,21,21,21,21,21,21,21,21,
21,21,21,21,21,21,21,21,21,21,21,21,21,21,21,21,
21,21,21,21,21,21,21,21,21,21,21,21,21,21,21,21,
21,21,21,21,21,21,21,21,21,21,21,21,21,21,21,21,
21,21,21,21,21,21,21,21,21,21,21,21,21,21,21,0,
21,21,21,21,21,21,21,21,21,21,21,21,21,0,0,0,
21,21,21,21,21,21,21,21,21,21,21,21,0,0,0,0,
21,21,21,21,21,21,21,21,21,21,21,0,0,0,0,0,
21,21,21,21,21,21,21,21,21,21,0,0,0,0,0,0,
21,21,21,21,21,21,21,21,0,0,0,0,0,0,0,21,
21,21,21,21,21,21,21,0,0,0,0,0,0,0,21,21,
21,21,21,21,21,21,0,0,0,0,0,0,0,21,21,21,
21,21,21,21,21,0,0,0,0,0,0,0,21,21,21,21,
21,21,21,0,0,0,0,0,0,0,0,21,21,21,21,21
</chunk>
   <chunk x="0" y="16" width="16" height="16">
21,21,21,21,21,21,21,21,21,21,21,21,21,21,21,21,
21,21,21,21,21,21,21,21,21,21,21,21,21,21,21,21,
21,21,21,21,21,21,21,21,21,21,21,21,0,0,0,0,
21,21,21,21,21,21,0,0,0,0,0,0,0,0,0,0,
21,0,0,0,0,0,0,0,0,0,0,0,0,0,0,0,
0,0,0,0,0,0,0,0,0,0,0,0,0,0,0,0,
0,0,0,0,0,0,0,0,0,0,0,0,0,0,0,0,
0,0,0,0,0,0,0,0,0,0,0,0,0,0,0,21,
0,0,0,0,0,21,21,21,21,21,21,21,21,21,21,21,
0,0,21,21,21,21,21,21,21,21,21,21,21,21,21,21,
0,21,21,21,21,21,21,21,21,21,21,21,21,21,21,21,
21,21,21,21,21,21,21,21,21,21,21,21,21,21,21,21,
21,21,21,21,21,21,21,21,21,21,21,21,21,21,21,21,
21,21,21,21,21,21,21,21,21,21,21,21,21,21,21,21,
21,21,21,21,21,21,21,21,21,21,21,21,21,21,21,21,
21,21,21,21,21,21,21,21,21,21,21,21,21,21,21,21
</chunk>
   <chunk x="16" y="16" width="16" height="16">
0,0,0,0,0,0,21,21,21,21,21,21,21,21,21,21,
0,0,0,0,0,21,21,21,21,21,21,21,21,21,21,21,
0,0,0,0,0,21,21,21,21,21,21,21,21,21,21,21,
0,0,0,0,21,21,21,21,21,21,21,21,21,21,21,21,
0,0,0,0,21,21,21,21,21,21,21,21,21,21,21,21,
0,0,21,21,21,21,21,21,21,21,21,21,21,21,21,21,
21,21,21,21,21,21,21,21,21,21,21,21,21,21,21,21,
21,21,21,21,21,21,21,21,21,21,21,21,21,21,21,21,
21,21,21,21,21,21,21,21,21,21,21,21,21,21,21,21,
21,21,21,21,21,21,21,21,21,21,21,21,21,21,21,21,
21,21,21,21,21,21,21,21,21,21,21,21,21,21,21,21,
21,21,21,21,21,21,21,21,21,21,21,21,21,21,21,21,
21,21,21,21,21,21,21,21,21,21,21,21,21,21,21,21,
21,21,21,21,21,21,21,21,21,21,21,21,21,21,21,21,
21,21,21,21,21,21,21,21,21,21,21,21,21,21,21,21,
21,21,21,21,21,21,21,21,21,21,21,21,21,21,21,21
</chunk>
   <chunk x="32" y="16" width="16" height="16">
21,21,21,21,21,21,21,21,21,21,21,21,21,21,21,21,
21,21,21,21,21,21,21,21,21,21,21,21,21,21,21,21,
21,21,21,21,21,21,21,21,21,21,21,21,21,21,21,21,
21,21,21,21,21,21,21,21,21,21,21,21,21,21,21,21,
21,21,21,21,21,21,21,21,21,21,21,21,21,21,21,21,
21,21,21,21,21,21,21,21,21,21,21,21,21,21,21,21,
21,21,21,21,21,21,21,21,21,21,21,21,21,21,21,21,
21,21,21,21,21,21,21,21,21,21,21,21,21,21,21,21,
21,21,21,21,21,21,21,21,21,21,21,21,21,21,21,21,
21,21,21,21,21,21,21,21,21,21,21,21,21,21,21,21,
21,21,21,21,21,21,21,21,21,21,21,21,21,21,21,21,
21,21,21,21,21,21,21,21,21,21,21,21,21,21,21,21,
21,21,21,21,21,21,21,21,21,21,21,21,21,21,21,21,
21,21,21,21,21,21,21,21,21,21,21,21,21,21,21,21,
21,21,21,21,21,21,21,21,21,21,21,21,21,21,21,21,
21,21,21,21,21,21,21,21,21,21,21,21,21,21,21,21
</chunk>
   <chunk x="48" y="16" width="16" height="16">
21,21,21,21,21,21,21,21,21,21,21,21,21,21,21,21,
21,21,21,21,21,21,21,21,21,21,21,21,21,21,21,21,
21,21,21,21,21,21,21,21,21,21,21,21,21,21,21,21,
21,21,21,21,21,21,21,21,21,21,21,21,21,21,21,21,
21,21,21,21,21,21,21,21,21,21,21,21,21,21,21,21,
21,21,21,21,21,21,21,21,21,21,21,21,21,21,21,21,
21,21,21,21,21,21,21,21,21,21,21,21,21,21,21,21,
21,21,21,21,21,21,21,21,21,21,21,21,21,21,21,21,
21,21,21,21,21,21,21,21,21,21,21,21,21,21,21,21,
21,21,21,21,21,21,21,21,21,21,21,21,21,21,21,21,
21,21,21,21,21,21,21,21,21,21,21,21,21,21,21,21,
21,21,21,21,21,21,21,21,21,21,21,21,21,21,21,21,
21,21,21,21,21,21,21,21,21,21,21,21,21,21,21,21,
21,21,21,21,21,21,21,21,21,21,21,21,21,21,21,21,
21,21,21,21,21,21,21,21,21,21,21,21,21,21,21,21,
21,21,21,21,21,21,21,21,21,21,21,21,21,21,21,21
</chunk>
   <chunk x="64" y="16" width="16" height="16">
21,21,21,21,21,42,0,0,0,0,0,0,0,0,0,0,
21,21,21,21,21,21,0,0,0,0,0,0,0,0,0,0,
21,21,21,21,21,23,0,0,0,0,0,0,0,0,0,0,
21,21,21,21,21,42,0,0,0,0,0,0,0,0,0,0,
21,21,21,21,21,21,0,0,0,0,0,0,0,0,0,0,
21,21,21,21,21,23,0,0,0,0,0,0,0,0,0,0,
21,21,21,21,21,22,0,0,0,0,0,0,0,0,0,0,
21,21,21,21,21,42,0,0,0,0,0,0,0,0,0,0,
21,21,21,21,21,23,0,0,0,0,0,0,0,0,0,0,
21,21,21,21,21,42,0,0,0,0,0,0,0,0,0,0,
21,21,21,21,21,23,0,0,0,0,0,0,0,0,0,0,
21,21,21,21,21,22,0,0,0,0,0,0,0,0,0,0,
21,21,21,21,21,42,0,0,0,0,0,0,0,0,0,0,
21,21,21,21,21,23,0,0,0,0,0,0,0,0,0,0,
21,21,21,21,21,22,0,0,0,0,0,0,0,0,0,0,
21,21,21,21,21,42,0,0,0,0,0,0,0,0,0,0
</chunk>
   <chunk x="-96" y="32" width="16" height="16">
0,0,0,0,0,0,0,1758,1758,1758,1758,1758,1758,1758,1758,1758,
0,0,0,0,0,0,0,1758,1758,1758,1758,1758,1758,1758,1758,1758,
0,0,0,0,0,0,0,1758,1758,1758,1758,1758,1758,1758,1758,1758,
0,0,0,0,0,0,0,1758,1758,1758,1758,1758,1758,1758,1758,1758,
0,0,0,0,0,0,0,1758,1758,1758,1758,1758,1758,1758,1758,1758,
0,0,0,0,0,0,0,1758,1758,1758,1758,1758,1758,1758,1758,1758,
0,0,0,0,0,0,0,1758,1758,1758,1758,1758,1758,1758,1758,1758,
0,0,0,0,0,0,0,1758,1758,1758,1758,1758,1758,1758,1758,1758,
0,0,0,0,0,0,0,1758,1758,1758,1758,1758,1758,1758,1758,1758,
0,0,0,0,0,0,0,1758,1758,1758,1758,1758,1758,1758,1758,1758,
0,0,0,0,0,0,0,1758,1758,1758,1758,1758,1758,1758,1758,1758,
0,0,0,0,0,0,0,1758,1758,1758,1758,1758,1758,1758,1758,1758,
0,0,0,0,0,0,0,1758,1758,1758,1758,1758,1758,1758,1758,1758,
0,0,0,0,0,0,0,1758,1758,1758,1758,1758,1758,1758,1758,1758,
0,0,0,0,0,0,0,1758,1758,1758,1758,1758,1758,1758,1758,1758,
0,0,0,0,0,0,0,1758,1758,1758,1758,1758,1758,1758,1758,1758
</chunk>
   <chunk x="-80" y="32" width="16" height="16">
1758,1758,1758,1758,1758,1758,1758,1758,1758,1758,1758,21,21,21,21,21,
1758,1758,1758,1758,1758,1758,1758,1758,1758,1758,1758,21,21,21,21,21,
1758,1758,1758,1758,1758,1758,1758,1758,1758,1758,1758,21,21,21,21,21,
1758,1758,1758,1758,1758,1758,1758,1758,1758,1758,21,21,21,21,21,21,
1758,1758,1758,1758,1758,1758,1758,1758,1758,1758,21,21,21,21,21,21,
1758,1758,1758,1758,1758,1758,1758,1758,1758,1758,21,21,21,21,21,21,
1758,1758,1758,1758,1758,1758,1758,1758,1758,1758,21,21,21,21,21,21,
1758,1758,1758,1758,1758,1758,1758,1758,1758,1758,21,21,21,21,21,21,
1758,1758,1758,1758,1758,1758,1758,1758,1758,1758,21,21,21,21,21,21,
1758,1758,1758,1758,1758,1758,1758,1758,1758,1758,21,21,21,21,21,21,
1758,1758,1758,1758,1758,1758,1758,1758,1758,1758,21,21,21,21,21,21,
1758,1758,1758,1758,1758,1758,1758,1758,1758,1758,21,21,21,21,21,21,
1758,1758,1758,1758,1758,1758,1758,1758,1758,1758,21,21,21,21,21,21,
1758,1758,1758,1758,1758,1758,1758,1758,1758,1758,21,21,21,21,21,21,
1758,1758,1758,1758,1758,1758,1758,1758,1758,1758,21,21,21,21,21,21,
1758,1758,1758,1758,1758,1758,1758,1758,1758,1758,21,21,21,21,21,21
</chunk>
   <chunk x="-64" y="32" width="16" height="16">
21,21,21,21,21,21,21,21,21,21,21,21,21,21,21,21,
21,21,21,21,21,21,21,21,21,21,21,21,21,21,21,21,
21,21,21,21,21,21,21,21,21,21,21,21,21,21,21,21,
21,21,21,21,21,21,21,21,21,21,21,21,21,21,21,21,
21,21,21,21,21,21,21,21,21,21,21,21,21,21,21,21,
21,21,21,21,21,21,21,21,21,21,21,21,21,21,21,21,
21,21,21,21,21,21,21,21,21,21,21,21,21,21,21,21,
21,21,21,21,21,21,21,21,21,21,21,21,21,21,21,21,
21,21,21,21,21,21,0,21,21,21,21,21,21,21,21,21,
21,21,21,21,21,0,0,21,21,21,21,21,21,21,21,21,
21,21,21,21,21,0,0,21,21,21,21,21,21,21,21,21,
21,21,21,21,0,0,0,21,21,21,21,21,21,21,21,21,
21,21,21,21,0,0,0,21,21,21,21,21,21,21,21,21,
21,21,21,0,0,0,0,0,21,21,21,21,21,21,21,21,
21,21,0,0,0,0,0,0,21,21,21,21,21,21,21,21,
21,21,0,21,21,0,0,0,21,21,21,21,21,21,21,21
</chunk>
   <chunk x="-48" y="32" width="16" height="16">
21,21,21,21,21,0,0,21,21,21,21,21,21,21,21,21,
21,21,21,21,21,21,0,0,0,21,21,21,21,21,21,21,
21,21,21,21,21,21,21,21,21,21,21,21,21,21,21,21,
21,21,21,21,21,21,21,21,21,21,21,21,21,21,21,21,
21,21,21,21,21,21,21,21,21,21,21,21,21,21,21,21,
21,21,21,21,21,21,21,21,21,21,21,21,21,21,21,21,
21,21,21,21,21,21,21,21,21,21,21,21,21,21,21,21,
21,21,21,21,21,21,21,21,21,21,21,21,21,21,21,21,
21,21,21,21,21,21,21,21,21,21,21,21,21,21,21,21,
21,21,21,21,21,21,21,21,21,21,21,21,21,21,21,21,
21,21,21,21,21,21,21,21,21,21,21,21,21,21,21,21,
21,21,21,21,21,21,21,21,21,21,21,21,21,21,21,21,
21,21,21,21,21,21,21,21,21,21,21,21,21,21,21,21,
21,21,21,21,21,21,21,21,21,21,21,21,21,21,21,21,
21,21,21,21,21,21,21,21,21,21,21,21,21,21,21,21,
21,21,21,21,21,21,21,21,21,21,21,21,21,21,21,21
</chunk>
   <chunk x="-32" y="32" width="16" height="16">
21,21,21,21,21,21,21,21,21,21,21,21,21,21,21,21,
21,21,21,21,21,21,21,21,21,21,21,21,21,21,21,21,
21,21,21,21,21,21,21,21,21,21,21,21,21,21,21,0,
21,21,21,21,21,21,21,21,21,21,21,21,21,21,21,0,
21,21,21,21,21,21,21,21,21,21,21,21,21,21,0,0,
21,21,21,21,21,21,21,21,21,21,21,21,0,0,0,0,
21,21,21,21,21,21,21,21,21,21,0,0,0,0,0,0,
21,21,21,21,21,21,21,21,0,0,0,0,0,0,0,0,
21,21,21,21,21,21,21,21,0,0,0,0,0,0,21,21,
21,21,21,21,21,21,21,21,0,0,0,0,0,21,21,21,
21,21,21,21,21,21,21,21,21,21,21,21,21,21,21,21,
21,21,21,21,21,21,21,21,21,21,21,21,21,21,21,21,
21,21,21,21,21,21,21,21,21,21,21,21,21,21,21,21,
21,21,21,21,21,21,21,21,21,21,21,21,21,21,21,21,
21,21,21,21,21,21,21,21,21,21,21,21,21,21,21,21,
21,21,21,21,21,21,21,21,21,21,21,21,21,21,21,21
</chunk>
   <chunk x="-16" y="32" width="16" height="16">
21,21,0,0,0,0,0,0,21,21,21,21,21,21,21,21,
21,0,0,0,0,0,0,0,21,21,21,21,21,21,21,21,
0,0,0,0,0,0,0,21,21,21,21,21,21,21,21,21,
0,0,0,0,21,21,21,21,21,21,21,21,21,21,21,21,
0,0,0,0,21,21,21,21,21,21,21,21,21,21,21,21,
0,21,21,21,21,21,21,21,21,21,21,21,21,21,21,21,
21,21,21,21,21,21,21,21,21,21,21,21,21,21,21,21,
21,21,21,21,21,21,21,21,21,21,21,21,21,21,21,21,
21,21,21,21,21,21,21,21,21,21,21,21,21,21,21,21,
21,21,21,21,21,21,21,21,21,21,21,21,21,21,21,21,
21,21,21,21,21,21,21,21,21,21,21,21,21,21,21,21,
21,21,21,21,21,21,21,21,21,21,21,21,21,21,21,21,
21,21,21,21,21,21,21,21,21,21,21,21,21,21,21,21,
21,21,21,21,21,21,21,21,21,21,21,21,21,21,21,21,
21,21,21,21,21,21,21,21,21,21,21,21,21,21,21,21,
21,21,21,21,21,21,21,21,21,21,21,21,21,21,21,21
</chunk>
   <chunk x="0" y="32" width="16" height="16">
21,21,21,21,21,21,21,21,21,21,21,21,21,21,21,21,
21,21,21,21,21,21,21,21,21,21,21,21,21,21,21,21,
21,21,21,21,21,21,21,21,21,21,21,21,21,21,21,21,
21,21,21,21,21,21,21,21,21,21,21,21,21,21,21,21,
21,21,21,21,21,21,21,21,21,21,21,21,21,21,21,21,
21,21,21,21,21,21,21,21,21,21,21,21,21,21,21,21,
21,21,21,21,21,21,21,21,21,21,21,21,21,21,21,21,
21,21,21,21,21,21,21,21,21,21,21,21,21,21,21,21,
21,21,21,21,21,21,21,21,21,21,21,21,21,21,21,21,
21,21,21,21,21,21,21,21,21,21,21,21,21,21,21,21,
21,21,21,21,21,21,21,21,21,21,21,21,21,21,21,21,
21,21,21,21,21,21,21,21,21,21,21,21,21,21,21,21,
21,21,21,21,21,21,21,21,21,21,21,21,21,21,21,21,
21,21,21,21,21,21,21,21,21,21,21,21,21,21,21,21,
21,21,21,21,21,21,21,21,21,21,21,21,21,21,21,21,
21,21,21,21,21,21,21,21,21,21,21,21,21,21,21,21
</chunk>
   <chunk x="16" y="32" width="16" height="16">
21,21,21,21,21,21,21,21,21,21,21,21,21,21,21,21,
21,21,21,21,21,21,21,21,21,21,21,21,21,21,21,21,
21,21,21,21,21,21,21,21,21,21,21,21,21,21,21,21,
21,21,21,21,21,21,21,21,21,21,21,21,21,21,21,21,
21,21,21,21,21,21,21,21,21,21,21,21,21,21,21,21,
21,21,21,21,21,21,21,21,21,21,21,21,21,21,21,21,
21,21,21,21,21,21,21,21,21,21,21,21,21,21,21,21,
21,21,21,21,21,21,21,21,21,21,21,21,21,21,21,21,
21,21,21,21,21,21,21,21,21,21,21,21,21,21,21,21,
21,21,21,21,21,21,21,21,21,21,21,21,21,21,21,21,
21,21,21,21,21,21,21,21,21,21,21,21,21,21,21,21,
21,21,21,21,21,21,21,21,21,21,21,21,21,21,21,21,
21,21,21,21,21,21,21,21,21,21,21,21,21,21,21,21,
21,21,21,21,21,21,21,21,21,21,21,21,21,21,21,21,
21,21,21,21,21,21,21,21,21,21,21,21,21,21,21,21,
21,21,21,21,21,21,21,21,21,21,21,21,21,21,21,21
</chunk>
   <chunk x="32" y="32" width="16" height="16">
21,21,21,21,21,21,21,21,21,21,21,21,21,21,21,21,
21,21,21,21,21,21,21,21,21,21,21,21,21,21,21,21,
21,21,21,21,21,21,21,21,21,21,21,21,21,21,21,21,
21,21,21,21,21,21,21,21,21,21,21,21,21,21,21,21,
21,21,21,21,21,21,21,21,21,21,21,21,21,21,21,21,
21,21,21,21,21,21,21,21,21,21,21,21,21,21,21,21,
21,21,21,21,21,21,21,21,21,21,21,21,21,21,21,21,
21,21,21,21,21,21,21,21,21,21,21,21,21,21,21,21,
21,21,21,21,21,21,21,21,21,21,21,21,21,21,21,21,
21,21,21,21,21,21,21,21,21,21,21,21,21,21,21,21,
21,21,21,21,21,21,21,21,21,21,21,21,21,21,21,21,
21,21,21,21,21,21,21,21,21,21,21,21,21,21,21,21,
21,21,21,21,21,21,21,21,21,21,21,21,21,21,21,21,
21,21,21,21,21,21,21,21,21,21,21,21,21,21,21,21,
21,21,21,21,21,21,21,21,21,21,21,21,21,21,21,21,
21,21,21,21,21,21,21,21,21,21,21,21,21,21,21,21
</chunk>
   <chunk x="48" y="32" width="16" height="16">
21,21,21,21,21,21,21,21,21,21,21,21,21,21,21,21,
21,21,21,21,21,21,21,21,21,21,21,21,21,21,21,21,
21,21,21,21,21,21,21,21,21,21,21,21,21,21,21,21,
21,21,21,21,21,21,21,21,21,21,21,21,21,21,21,21,
21,21,21,21,21,21,21,21,21,21,21,21,21,21,21,21,
21,21,21,21,21,21,21,21,21,21,21,21,21,21,21,21,
21,21,21,21,21,21,21,21,21,21,21,21,21,21,21,21,
21,21,21,21,21,21,21,21,21,21,21,21,21,21,21,21,
21,21,21,21,21,21,21,21,21,21,21,21,21,21,21,21,
21,21,21,21,21,21,21,21,21,21,21,21,21,21,21,21,
21,21,21,21,21,21,21,21,21,21,21,21,21,21,21,21,
21,21,21,21,21,21,21,21,21,21,21,21,21,21,21,21,
21,21,21,21,21,21,21,21,21,21,21,21,21,21,21,21,
21,21,21,21,21,21,21,21,21,21,21,21,21,21,21,21,
21,21,21,21,21,21,21,21,21,21,21,21,21,21,21,21,
21,21,21,21,21,21,21,21,21,21,21,21,21,21,21,21
</chunk>
   <chunk x="64" y="32" width="16" height="16">
21,21,21,21,21,23,0,0,0,0,0,0,0,0,0,0,
21,21,21,21,21,42,0,0,0,0,0,0,0,0,0,0,
21,21,21,21,21,23,0,0,0,0,0,0,0,0,0,0,
21,21,21,21,21,22,0,0,0,0,0,0,0,0,0,0,
21,21,21,21,21,42,0,0,0,0,0,0,0,0,0,0,
21,21,21,21,21,21,0,0,0,0,0,0,0,0,0,0,
21,21,21,21,21,23,0,0,0,0,0,0,0,0,0,0,
21,21,21,21,21,22,0,0,0,0,0,0,0,0,0,0,
21,21,21,21,21,22,0,0,0,0,0,0,0,0,0,0,
21,21,21,21,21,42,0,0,0,0,0,0,0,0,0,0,
21,21,21,21,21,21,0,0,0,0,0,0,0,0,0,0,
21,21,21,21,21,21,0,0,0,0,0,0,0,0,0,0,
21,21,21,21,21,23,0,0,0,0,0,0,0,0,0,0,
21,21,21,21,21,42,0,0,0,0,0,0,0,0,0,0,
21,21,21,21,21,21,0,0,0,0,0,0,0,0,0,0,
21,21,21,21,21,21,0,0,0,0,0,0,0,0,0,0
</chunk>
   <chunk x="-128" y="48" width="16" height="16">
0,0,0,0,0,0,0,0,0,0,0,0,0,0,0,0,
0,0,0,0,0,0,0,0,0,0,0,0,0,0,0,0,
0,0,0,0,0,0,0,0,0,0,0,0,0,0,0,0,
0,0,0,0,0,0,0,0,0,0,0,0,0,0,0,0,
0,0,0,0,0,0,0,0,0,0,0,0,0,0,0,0,
0,0,0,0,0,0,0,0,0,0,0,0,0,0,0,0,
0,0,0,0,0,0,0,0,0,0,0,0,0,0,0,0,
0,0,0,0,0,0,0,0,0,0,0,0,0,0,0,0,
0,0,0,0,0,0,0,0,0,0,0,0,0,0,0,0,
0,0,0,0,0,0,0,0,0,0,0,0,0,0,0,0,
0,0,0,0,0,0,0,0,0,0,0,0,0,0,0,0,
0,0,0,0,0,0,0,0,0,0,0,0,0,0,0,0,
0,0,0,0,0,0,0,0,0,0,0,0,0,0,0,0,
0,0,0,0,0,0,0,0,0,0,0,0,0,0,0,0,
0,0,0,0,0,0,0,0,0,0,0,0,0,0,0,0,
0,0,0,0,0,0,0,0,0,0,0,0,0,0,0,1
</chunk>
   <chunk x="-112" y="48" width="16" height="16">
0,0,0,0,0,0,0,0,0,0,0,0,0,0,0,0,
0,0,0,0,0,0,0,0,0,0,0,0,0,0,0,0,
0,0,0,0,0,0,0,0,0,0,0,0,0,0,0,0,
0,0,0,0,0,0,0,0,0,0,0,0,0,0,0,0,
0,0,0,0,0,0,0,0,0,0,0,0,0,0,0,0,
0,0,0,0,0,0,0,0,0,0,0,0,0,0,0,0,
0,0,0,0,0,0,0,0,0,0,0,0,0,0,0,1,
0,0,0,0,0,0,0,0,0,0,0,0,0,1,2,43,
0,0,0,0,0,0,0,0,0,0,0,0,1,43,21,21,
0,0,0,0,0,0,0,0,0,0,0,1,43,21,21,21,
0,0,0,0,0,0,0,0,0,1,2,43,21,21,21,21,
0,0,0,0,0,0,0,1,2,43,21,21,21,21,21,21,
0,0,0,0,0,1,2,43,21,21,21,21,21,21,21,21,
0,0,0,1,2,43,21,21,21,21,21,21,21,21,21,21,
1,2,2,43,21,21,21,21,21,21,21,21,21,21,21,21,
43,21,21,21,21,21,21,21,21,21,21,21,21,21,21,21
</chunk>
   <chunk x="-96" y="48" width="16" height="16">
0,0,0,0,0,0,0,1758,1758,1758,1758,1758,1758,1758,1758,1758,
0,0,0,0,0,0,0,1758,1758,1758,1758,1758,1758,1758,1758,1758,
0,0,0,0,0,0,0,1758,1758,1758,1758,1758,1758,1758,1758,1758,
0,0,0,0,0,0,0,1758,1758,1758,1758,1758,1758,1758,1758,1758,
0,0,0,1,2,2,2,3,1758,1758,1758,1758,1758,1758,1758,1758,
0,1,2,43,21,21,21,22,1758,1758,1758,1758,1758,1758,1758,1758,
2,43,21,21,21,21,21,22,1758,1758,1758,1758,1758,1758,1758,1758,
21,21,21,21,21,21,21,42,3,1758,1758,1758,1758,1758,1758,1758,
21,21,21,21,21,21,21,21,42,2,2,2,2,2,2,2,
21,21,21,21,21,21,21,21,21,21,21,21,21,21,21,21,
21,21,21,21,21,21,21,21,21,21,21,21,21,21,21,21,
21,21,21,21,21,21,21,21,21,21,21,21,21,21,21,21,
21,21,21,21,21,21,21,21,21,21,21,21,21,21,21,21,
21,21,21,21,21,21,21,21,21,21,21,21,21,21,21,21,
21,21,21,21,21,21,21,21,21,21,21,21,21,21,21,21,
21,21,21,21,21,21,21,21,21,21,21,21,21,21,21,21
</chunk>
   <chunk x="-80" y="48" width="16" height="16">
1758,1758,1758,1758,1758,1758,1758,1758,1758,1758,21,21,21,21,21,21,
1758,1758,1758,1758,1758,1758,1758,1758,1758,1758,21,21,21,21,21,21,
1758,1758,1758,1758,1758,1758,1758,1758,1758,1758,21,21,21,21,21,21,
1758,1758,1758,1758,1758,1758,1758,1758,1758,1758,21,21,21,21,21,21,
1758,1758,1758,1758,1758,1758,1758,1758,1758,1758,21,21,21,21,21,21,
1758,1758,1758,1758,1758,1758,1758,1758,1758,1758,21,21,21,21,21,21,
1758,1758,1758,1758,1758,1758,1758,1758,1758,1,43,21,21,21,21,21,
1758,1758,1758,1758,1758,1758,1758,1758,1758,39,24,21,21,21,21,21,
2,2,2,2,2,2,2,2,2,2,43,21,21,21,21,21,
21,21,21,21,21,21,21,21,21,23,24,21,21,21,21,21,
21,21,21,21,21,21,21,21,23,41,20,21,21,21,21,21,
21,21,21,21,21,21,21,23,41,0,20,21,21,21,21,21,
21,21,21,23,24,23,40,41,0,1,43,21,21,21,21,21,
21,23,24,22,39,41,0,0,0,39,24,21,21,21,21,21,
23,41,20,22,0,0,0,1,2,3,20,21,21,21,21,21,
22,0,20,22,0,1,2,43,21,42,43,21,21,21,21,21
</chunk>
   <chunk x="-64" y="48" width="16" height="16">
21,21,21,21,21,21,21,0,21,21,21,21,21,21,21,21,
21,21,21,21,21,21,21,21,21,21,21,21,21,21,21,21,
21,21,21,21,21,21,21,21,21,21,21,21,21,21,21,21,
21,21,21,21,21,21,21,21,21,21,21,21,21,21,21,21,
21,21,21,21,21,21,21,21,21,21,21,21,21,21,21,21,
21,21,21,21,21,21,21,21,21,21,21,21,21,21,21,21,
21,21,21,21,21,21,21,21,21,21,21,21,21,21,21,21,
21,21,21,21,21,21,21,21,21,21,21,21,21,3204,0,3204,
21,21,21,21,21,21,21,21,21,21,21,21,21,21,21,21,
21,21,21,21,21,21,21,21,21,21,21,21,21,21,21,21,
21,21,21,21,21,21,21,21,21,21,21,21,21,21,21,21,
21,21,21,21,21,21,21,21,21,21,21,21,21,21,21,21,
21,21,21,21,21,21,21,21,21,21,21,21,21,21,21,21,
21,21,21,21,21,21,21,21,21,21,21,21,21,21,21,21,
21,21,21,21,21,21,21,21,21,21,21,21,21,21,21,21,
21,21,21,21,21,21,21,21,21,21,21,21,21,21,21,21
</chunk>
   <chunk x="-48" y="48" width="16" height="16">
21,21,21,21,21,21,21,21,21,21,21,21,21,21,21,21,
21,21,21,21,21,21,21,21,21,21,21,21,21,21,21,21,
21,21,21,21,21,21,21,21,21,21,21,21,21,21,21,21,
21,21,21,21,21,21,21,21,21,21,21,21,21,21,21,21,
21,21,21,21,21,21,21,21,21,21,21,21,21,21,21,21,
21,21,21,21,21,21,21,21,21,21,21,21,21,21,21,21,
21,21,21,21,21,21,21,21,21,21,21,21,21,21,21,21,
21,21,21,21,21,21,21,21,21,21,21,21,21,21,21,21,
21,21,21,21,21,21,21,21,21,21,21,21,21,21,21,21,
21,21,21,21,21,21,21,21,21,21,21,21,0,0,0,0,
21,21,21,21,21,21,21,21,21,21,21,21,0,0,0,0,
21,21,21,21,21,21,21,21,21,21,21,21,21,21,21,21,
21,21,21,21,21,21,21,21,21,21,21,21,21,1758,1758,1758,
21,21,21,21,21,21,21,21,21,21,21,21,21,21,21,21,
21,21,21,21,21,21,21,21,21,21,21,21,21,21,21,21,
21,21,21,21,21,21,21,21,21,21,21,21,21,21,21,21
</chunk>
   <chunk x="-32" y="48" width="16" height="16">
21,21,21,21,21,21,21,21,21,21,21,21,21,21,21,21,
21,21,21,21,21,21,21,21,21,21,21,21,21,21,21,21,
21,21,21,21,21,21,21,21,21,21,21,21,21,21,21,21,
21,21,21,21,21,21,21,21,21,21,21,21,21,21,21,21,
21,21,21,21,21,21,21,21,21,21,21,21,21,21,21,21,
21,21,21,21,21,21,21,21,21,21,21,21,21,21,21,21,
21,21,21,21,21,21,21,21,21,21,21,21,21,21,21,21,
21,21,21,21,21,21,21,21,21,21,21,21,21,21,21,21,
21,21,21,21,21,21,21,21,21,21,21,21,21,21,21,21,
0,0,21,21,21,21,21,21,21,21,21,21,21,21,21,21,
0,0,0,0,0,0,0,0,0,0,21,21,21,21,21,21,
21,21,21,1758,21,1758,1758,1758,1758,1758,21,21,21,21,21,21,
1758,1758,1758,1758,21,1758,21,21,1761,21,21,21,21,21,21,21,
1758,1758,1758,1758,1758,1758,21,21,21,21,21,21,21,21,21,21,
1758,1758,1758,21,21,21,21,21,21,21,21,21,21,21,21,21,
21,21,21,21,21,21,21,21,21,21,21,21,21,21,21,21
</chunk>
   <chunk x="-16" y="48" width="16" height="16">
21,21,21,21,21,21,21,21,21,21,21,21,21,21,21,21,
21,21,21,21,21,21,21,21,21,21,21,21,21,21,21,21,
21,21,21,21,21,21,21,21,21,21,21,21,21,21,21,21,
21,21,21,21,21,21,21,21,21,21,21,21,21,21,21,21,
21,21,21,21,21,21,21,21,21,21,21,21,21,21,21,21,
21,21,21,21,21,21,21,21,21,21,21,21,21,21,21,21,
21,21,21,21,21,21,21,21,21,21,21,21,21,21,21,21,
21,21,21,21,21,21,21,21,21,21,21,21,21,21,21,21,
21,21,21,21,21,21,21,21,21,21,21,21,21,21,21,21,
21,21,21,21,21,21,21,21,21,21,21,21,21,21,21,21,
21,21,21,21,21,21,21,21,21,21,21,21,21,21,21,21,
21,21,21,21,21,21,21,21,21,21,21,21,21,21,21,21,
21,21,21,21,21,21,21,21,21,21,21,21,21,21,21,21,
21,21,21,21,21,21,21,21,21,21,21,21,21,21,21,21,
21,21,21,21,21,21,21,21,21,21,21,21,21,21,21,21,
21,21,21,21,21,21,21,21,21,21,21,21,21,21,21,21
</chunk>
   <chunk x="0" y="48" width="16" height="16">
21,21,21,21,21,21,21,21,21,21,21,21,21,21,21,21,
21,21,21,21,21,21,21,21,21,21,21,21,21,21,21,21,
21,21,21,21,21,21,21,21,21,21,21,21,21,21,21,21,
21,21,21,21,21,21,21,21,21,21,21,21,21,21,21,21,
21,21,21,21,21,21,21,21,21,21,21,21,21,21,21,21,
21,21,21,21,21,21,21,21,21,21,21,21,21,21,21,21,
21,21,21,21,21,21,21,21,21,21,21,21,21,21,21,21,
21,21,21,21,21,21,21,21,21,21,21,21,21,21,21,21,
21,21,21,21,21,21,21,21,21,21,21,21,21,21,21,21,
21,21,21,21,21,21,21,21,21,21,21,21,21,21,21,21,
21,21,21,21,21,21,21,21,21,21,21,21,21,21,21,21,
21,21,21,21,21,21,21,21,21,21,21,21,21,21,21,21,
21,21,21,21,21,21,21,21,21,21,21,21,21,21,21,21,
21,21,21,21,21,21,21,21,21,21,21,21,21,21,21,21,
21,21,21,21,21,21,21,21,21,21,21,21,21,21,21,21,
21,21,21,21,21,21,21,21,21,21,21,21,21,21,21,21
</chunk>
   <chunk x="16" y="48" width="16" height="16">
21,21,21,21,21,21,21,21,21,21,21,21,21,21,21,21,
21,21,21,21,21,21,21,21,21,21,21,21,21,21,21,21,
21,21,21,21,21,21,21,21,21,21,21,21,21,21,21,21,
21,21,21,21,21,21,21,21,21,21,21,21,21,21,21,21,
21,21,21,21,21,21,21,21,21,21,21,21,21,21,21,21,
21,21,21,21,21,21,21,21,21,21,21,21,21,21,21,21,
21,21,21,21,21,21,21,21,21,21,21,21,21,21,21,21,
21,21,21,21,21,21,21,21,21,21,21,21,21,21,21,21,
21,21,21,21,21,21,21,21,21,21,21,21,21,21,21,21,
21,21,21,21,21,21,21,21,21,21,21,21,21,21,21,21,
21,21,21,21,21,21,21,21,21,21,21,21,21,21,21,21,
21,21,21,21,21,21,21,21,21,21,21,21,21,21,21,21,
21,21,21,21,21,21,21,21,21,21,21,21,21,21,21,21,
21,21,21,21,21,21,21,21,21,21,21,21,21,21,21,21,
21,21,21,21,21,21,21,21,21,21,21,21,21,21,21,21,
21,21,21,21,21,21,21,21,21,21,21,21,21,21,21,21
</chunk>
   <chunk x="32" y="48" width="16" height="16">
21,21,21,21,21,21,21,21,21,21,21,21,21,21,21,21,
21,21,21,21,21,21,21,21,21,21,21,21,21,21,21,21,
21,21,21,21,21,21,21,21,21,21,21,21,21,21,21,21,
21,21,21,21,21,21,21,21,21,21,21,21,21,21,21,21,
21,21,21,21,21,21,21,21,21,21,21,21,21,21,21,21,
21,21,21,21,21,21,21,21,21,21,21,21,21,21,21,21,
21,21,21,21,21,21,21,21,21,21,21,21,21,21,21,21,
21,21,21,21,21,21,21,21,21,21,21,21,21,21,21,21,
21,21,21,21,21,21,21,21,21,21,21,21,21,21,21,21,
21,21,21,21,21,21,21,21,21,21,21,21,21,21,21,21,
21,21,21,21,21,21,21,21,21,21,21,21,21,21,21,21,
21,21,21,21,21,21,21,21,21,21,21,21,21,21,21,21,
21,21,21,21,21,21,21,21,21,21,21,21,21,21,21,21,
21,21,21,21,21,21,21,21,21,21,21,21,21,21,21,21,
21,21,21,21,21,21,21,21,21,21,21,21,21,21,21,21,
21,21,21,21,21,21,21,21,21,21,21,21,21,21,21,21
</chunk>
   <chunk x="48" y="48" width="16" height="16">
21,21,21,21,21,21,21,21,21,21,21,21,21,21,21,21,
21,21,21,21,21,21,21,21,21,21,21,21,21,21,21,21,
21,21,21,21,21,21,21,21,21,21,21,21,21,21,21,21,
21,21,21,21,21,21,21,21,21,21,21,21,21,21,21,21,
21,21,21,21,21,21,21,21,21,21,21,21,21,21,21,21,
21,21,21,21,21,21,21,21,21,21,21,21,21,21,21,21,
21,21,21,21,21,21,21,21,21,21,21,21,21,21,21,21,
21,21,21,21,21,21,21,21,21,21,21,21,21,21,21,21,
21,21,21,21,21,21,21,21,21,21,21,21,21,21,21,21,
21,21,21,21,21,21,21,21,21,21,21,21,21,21,21,21,
21,21,21,21,21,21,21,21,21,21,21,21,21,21,21,21,
21,21,21,21,21,21,21,21,21,21,21,21,21,21,21,21,
21,21,21,21,21,21,21,21,21,21,21,21,21,21,21,21,
21,21,21,21,21,21,21,21,21,21,21,21,21,21,21,21,
21,21,21,21,21,21,21,21,21,21,21,21,21,21,21,21,
21,21,21,21,21,21,21,21,21,21,21,21,21,21,21,21
</chunk>
   <chunk x="64" y="48" width="16" height="16">
21,21,21,21,21,23,0,0,0,0,0,0,0,0,0,0,
21,21,21,21,21,22,0,0,0,0,0,0,0,0,0,0,
21,21,21,21,21,42,0,0,0,0,0,0,0,0,0,0,
21,21,21,21,21,21,0,0,0,0,0,0,0,0,0,0,
21,21,21,21,21,21,0,0,0,0,0,0,0,0,0,0,
21,21,21,21,21,23,0,0,0,0,0,0,0,0,0,0,
21,21,21,21,21,42,0,0,0,0,0,0,0,0,0,0,
21,21,21,21,21,21,0,0,0,0,0,0,0,0,0,0,
21,21,21,21,21,23,0,0,0,0,0,0,0,0,0,0,
21,21,21,21,21,42,0,0,0,0,0,0,0,0,0,0,
21,21,21,21,21,23,0,0,0,0,0,0,0,0,0,0,
21,21,21,21,21,23,0,0,0,0,0,0,0,0,0,0,
21,21,21,21,21,22,0,0,0,0,0,0,0,0,0,0,
21,21,21,21,21,42,0,0,0,0,0,0,0,0,0,0,
21,21,21,21,21,42,0,0,0,0,0,0,0,0,0,0,
21,21,21,21,21,23,0,0,0,0,0,0,0,0,0,0
</chunk>
   <chunk x="-144" y="64" width="16" height="16">
0,0,0,0,0,0,0,0,0,0,0,0,0,0,0,0,
0,0,0,0,0,0,0,0,0,0,0,0,0,0,0,0,
0,0,0,0,0,0,0,0,0,0,0,0,0,0,0,0,
0,0,0,0,0,0,0,0,0,0,0,0,0,0,0,0,
0,0,0,0,0,0,0,0,0,0,0,0,0,0,0,0,
0,0,0,0,0,0,0,0,0,0,0,0,0,0,0,0,
0,0,0,0,0,0,0,0,0,0,0,0,0,0,0,0,
0,0,0,0,0,0,0,0,0,0,0,0,0,0,0,0,
0,0,0,0,0,0,0,0,0,0,0,0,0,0,0,0,
0,0,0,0,0,0,0,0,0,0,0,0,0,0,0,0,
0,0,0,0,0,0,0,0,0,0,0,0,0,0,0,0,
0,0,0,0,0,0,0,0,0,0,0,0,0,0,0,0,
0,0,0,0,0,0,0,0,0,0,0,0,0,0,0,0,
0,0,0,0,0,0,0,0,0,0,0,0,0,0,0,1,
0,0,0,0,0,0,0,0,0,0,0,0,0,0,1,43,
0,0,0,0,0,0,0,0,0,0,0,0,0,1,43,21
</chunk>
   <chunk x="-128" y="64" width="16" height="16">
0,0,0,0,0,0,0,0,0,0,0,0,0,0,1,43,
0,0,0,0,0,0,0,0,0,1,3,0,1,2,43,21,
0,0,0,0,0,0,0,0,1,43,22,1,43,21,21,21,
0,0,0,0,0,0,0,0,20,21,42,43,21,21,21,21,
0,0,0,0,0,0,1,2,43,21,21,21,21,21,21,21,
0,0,0,0,0,1,43,21,21,21,21,21,21,21,21,21,
0,0,0,1,2,43,21,21,21,21,21,21,21,21,21,21,
0,0,0,20,21,21,21,21,21,21,21,21,21,21,21,21,
0,0,1,43,21,21,21,21,21,21,21,21,21,21,21,21,
0,0,20,21,21,21,21,21,21,21,21,21,21,21,21,23,
0,0,20,21,21,21,21,21,21,21,21,21,21,23,40,41,
0,1,43,21,21,21,21,21,21,21,21,21,21,42,2,2,
1,43,21,21,21,21,21,21,21,21,21,21,21,21,21,21,
43,21,21,21,21,21,21,21,21,21,21,21,21,21,21,21,
21,21,21,21,21,21,21,21,21,21,21,21,21,21,21,21,
21,21,21,21,21,21,21,21,21,21,21,21,21,21,21,21
</chunk>
   <chunk x="-112" y="64" width="16" height="16">
21,21,21,21,21,21,21,21,21,21,21,21,21,21,21,21,
21,21,21,21,21,21,21,21,21,21,21,21,21,21,21,21,
21,21,21,21,21,21,21,21,21,21,21,21,21,21,21,21,
21,21,21,21,21,21,21,21,21,21,21,21,21,21,21,21,
21,21,21,21,21,21,21,21,21,21,21,21,21,21,21,21,
21,21,21,21,21,21,21,21,21,21,21,21,21,21,21,21,
21,21,21,21,21,21,21,21,21,23,24,21,21,21,21,21,
21,21,21,21,21,21,21,21,21,22,20,21,21,21,21,21,
21,21,21,21,21,21,21,21,21,42,43,21,21,21,21,21,
24,21,21,21,21,21,21,21,21,21,21,21,21,21,21,21,
20,21,21,21,21,21,21,21,21,21,21,21,21,21,21,21,
43,21,21,21,21,21,21,21,21,21,21,21,21,21,21,21,
21,21,21,21,21,21,21,21,21,21,21,21,21,21,21,21,
21,21,21,21,21,21,21,21,21,21,21,21,21,21,21,21,
21,21,21,21,21,21,21,21,21,21,21,21,21,21,21,21,
21,23,24,21,23,24,21,21,21,21,21,21,21,21,21,21
</chunk>
   <chunk x="-96" y="64" width="16" height="16">
21,21,21,21,21,21,21,21,21,21,21,21,21,23,40,40,
21,21,21,21,21,21,21,21,21,21,21,21,21,22,0,1,
21,21,21,21,21,21,21,21,21,21,21,21,23,41,1,43,
21,21,21,21,21,21,21,21,21,23,40,40,41,1,43,21,
21,21,21,21,21,21,21,21,23,41,1,2,2,43,21,21,
21,21,21,21,21,21,21,21,42,2,43,21,21,21,21,21,
21,21,21,21,21,21,21,21,21,21,21,21,21,21,21,21,
21,21,21,21,21,23,24,21,21,21,21,21,21,21,21,21,
21,23,24,21,21,42,43,21,21,21,21,21,21,21,21,21,
21,42,43,21,21,21,21,21,21,21,21,21,21,21,21,21,
21,21,21,21,21,21,21,21,21,21,21,21,21,21,21,21,
21,21,21,21,21,21,21,21,21,21,21,21,21,21,21,21,
21,21,21,21,21,21,21,21,21,21,21,21,21,21,21,21,
21,21,21,21,21,21,21,21,21,21,21,21,21,21,23,40,
21,21,21,21,21,21,21,21,21,21,21,21,23,40,41,0,
21,21,21,21,21,21,21,21,21,21,23,40,41,0,0,0
</chunk>
   <chunk x="-80" y="64" width="16" height="16">
41,0,20,42,2,43,21,21,21,21,21,21,21,21,21,21,
2,2,43,21,21,21,21,21,21,21,23,24,21,21,21,21,
21,21,21,21,21,21,21,21,21,21,42,43,21,21,21,21,
21,21,21,21,21,21,21,21,21,21,21,21,21,21,21,21,
21,21,21,21,21,21,21,21,21,21,21,21,21,21,21,21,
21,21,21,21,21,21,21,21,21,21,21,21,21,21,21,21,
21,21,21,21,21,21,21,21,21,21,21,21,21,21,21,21,
21,21,21,21,21,21,21,21,21,21,21,21,21,23,24,23,
21,21,21,21,21,21,21,21,21,21,21,21,21,22,0,0,
21,21,21,21,21,21,21,21,23,40,40,40,40,41,0,0,
21,21,21,21,21,21,21,21,22,0,0,0,0,0,0,0,
21,21,23,24,23,40,24,23,41,0,0,0,0,0,0,0,
21,23,41,39,41,0,39,41,0,0,0,0,0,0,0,0,
40,41,0,0,0,0,0,0,0,0,0,0,0,0,0,0,
0,0,0,0,0,0,0,0,0,0,0,0,0,0,0,0,
0,0,0,0,0,0,0,0,0,0,0,0,0,0,0,0
</chunk>
   <chunk x="-64" y="64" width="16" height="16">
21,21,21,21,21,21,21,21,21,21,21,21,21,21,21,21,
21,21,21,21,21,21,21,21,21,21,21,21,21,21,21,21,
21,21,21,21,21,21,21,21,21,21,21,21,21,21,21,21,
21,21,21,21,21,21,21,21,21,21,21,21,21,21,21,21,
21,21,21,21,21,21,21,21,21,21,21,21,21,21,21,21,
21,21,21,21,21,21,21,21,21,21,21,21,21,21,21,21,
21,21,21,21,21,21,21,21,21,21,21,21,21,21,21,21,
24,23,24,23,24,21,21,21,21,21,21,21,21,21,21,21,
0,0,0,0,0,0,0,0,0,0,0,0,0,0,0,0,
0,0,0,0,0,0,0,0,0,0,0,0,0,0,0,0,
0,0,0,0,0,0,0,0,0,0,0,0,0,0,0,0,
0,0,0,0,0,0,0,0,0,0,0,0,0,0,0,0,
0,0,0,0,0,0,0,0,0,0,0,0,0,0,0,0,
0,0,0,0,0,0,0,0,0,0,0,0,0,0,0,0,
0,0,0,0,0,0,0,0,0,0,0,0,0,0,0,0,
0,0,0,0,0,0,0,0,0,0,0,0,0,0,0,0
</chunk>
   <chunk x="-48" y="64" width="16" height="16">
21,21,21,21,21,21,21,21,21,21,21,21,21,21,21,21,
21,21,21,21,21,21,21,21,21,21,21,21,21,21,21,21,
21,21,21,21,21,21,21,21,21,21,21,21,21,21,21,21,
21,21,21,21,21,21,21,21,21,21,21,21,21,21,21,21,
21,21,21,21,21,21,21,21,21,21,21,21,21,21,21,21,
21,21,21,21,21,21,21,21,21,21,21,21,21,21,21,21,
21,21,21,21,21,21,21,21,21,21,21,21,21,21,21,21,
21,23,24,21,21,23,24,21,21,21,21,21,23,24,23,24,
0,0,0,0,0,0,0,0,0,0,0,0,0,0,0,0,
0,0,0,0,0,0,0,0,0,0,0,0,0,0,0,0,
0,0,0,0,0,0,0,0,0,0,0,0,0,0,0,0,
0,0,0,0,0,0,0,0,0,0,0,0,0,0,0,0,
0,0,0,0,0,0,0,0,0,0,0,0,0,0,0,0,
0,0,0,0,0,0,0,0,0,0,0,0,0,0,0,0,
0,0,0,0,0,0,0,0,0,0,0,0,0,0,0,0,
0,0,0,0,0,0,0,0,0,0,0,0,0,0,0,0
</chunk>
   <chunk x="-32" y="64" width="16" height="16">
21,21,21,21,21,21,21,21,21,21,21,21,21,21,21,21,
21,21,21,21,21,21,21,21,21,21,21,21,21,21,21,21,
21,21,21,21,21,21,21,21,21,21,21,21,21,21,21,21,
21,21,21,21,21,21,21,21,21,21,21,21,21,21,21,21,
21,21,21,21,21,21,21,21,21,21,21,21,21,21,21,21,
21,21,21,21,21,21,21,21,21,21,21,21,21,21,21,21,
21,21,21,21,21,21,21,21,21,21,21,21,21,21,21,21,
23,24,23,24,21,21,21,23,24,21,21,23,24,21,21,21,
0,0,0,0,0,0,0,0,0,0,0,0,0,0,0,0,
0,0,0,0,0,0,0,0,0,0,0,0,0,0,0,0,
0,0,0,0,0,0,0,0,0,0,0,0,0,0,0,0,
0,0,0,0,0,0,0,0,0,0,0,0,0,0,0,0,
0,0,0,0,0,0,0,0,0,0,0,0,0,0,0,0,
0,0,0,0,0,0,0,0,0,0,0,0,0,0,0,0,
0,0,0,0,0,0,0,0,0,0,0,0,0,0,0,0,
0,0,0,0,0,0,0,0,0,0,0,0,0,0,0,0
</chunk>
   <chunk x="-16" y="64" width="16" height="16">
21,21,21,21,21,21,21,21,21,21,21,21,21,21,21,21,
21,21,21,21,21,21,21,21,21,21,21,21,21,21,21,21,
21,21,21,21,21,21,21,21,21,21,21,21,21,21,21,21,
21,21,21,21,21,21,21,21,21,21,21,21,21,21,21,21,
21,21,21,21,21,21,21,21,21,21,21,21,21,21,21,21,
21,21,21,21,21,21,21,21,21,21,21,21,21,21,21,21,
21,21,21,21,21,21,21,21,21,21,21,21,21,21,21,21,
21,21,21,21,21,23,24,21,21,21,21,23,24,21,21,23,
0,0,0,0,0,0,0,0,0,0,0,0,0,0,0,0,
0,0,0,0,0,0,0,0,0,0,0,0,0,0,0,0,
0,0,0,0,0,0,0,0,0,0,0,0,0,0,0,0,
0,0,0,0,0,0,0,0,0,0,0,0,0,0,0,0,
0,0,0,0,0,0,0,0,0,0,0,0,0,0,0,0,
0,0,0,0,0,0,0,0,0,0,0,0,0,0,0,0,
0,0,0,0,0,0,0,0,0,0,0,0,0,0,0,0,
0,0,0,0,0,0,0,0,0,0,0,0,0,0,0,0
</chunk>
   <chunk x="0" y="64" width="16" height="16">
21,21,21,21,21,21,21,21,21,21,21,21,21,21,21,21,
21,21,21,21,21,21,21,21,21,21,21,21,21,21,21,21,
21,21,21,21,21,21,21,21,21,21,21,21,21,21,21,21,
21,21,21,21,21,21,21,21,21,21,21,21,21,21,21,21,
21,21,21,21,21,21,21,21,21,21,21,21,21,21,21,21,
21,21,21,21,21,21,21,21,21,21,21,21,21,21,21,21,
21,21,21,21,21,21,21,21,21,21,21,21,21,21,21,21,
24,21,21,21,21,21,23,24,21,23,24,23,24,23,24,23,
0,0,0,0,0,0,0,0,0,0,0,0,0,0,0,0,
0,0,0,0,0,0,0,0,0,0,0,0,0,0,0,0,
0,0,0,0,0,0,0,0,0,0,0,0,0,0,0,0,
0,0,0,0,0,0,0,0,0,0,0,0,0,0,0,0,
0,0,0,0,0,0,0,0,0,0,0,0,0,0,0,0,
0,0,0,0,0,0,0,0,0,0,0,0,0,0,0,0,
0,0,0,0,0,0,0,0,0,0,0,0,0,0,0,0,
0,0,0,0,0,0,0,0,0,0,0,0,0,0,0,0
</chunk>
   <chunk x="16" y="64" width="16" height="16">
21,21,21,21,21,21,21,21,21,21,21,21,21,21,21,21,
21,21,21,21,21,21,21,21,21,21,21,21,21,21,21,21,
21,21,21,21,21,21,21,21,21,21,21,21,21,21,21,21,
21,21,21,21,21,21,21,21,21,21,21,21,21,21,21,21,
21,21,21,21,21,21,21,21,21,21,21,21,21,21,21,21,
21,21,21,21,21,21,21,21,21,21,21,21,21,21,21,21,
21,21,21,21,21,21,21,21,21,21,21,21,21,21,21,21,
24,23,24,23,21,23,24,23,24,23,24,23,24,23,40,24,
0,0,0,0,0,0,0,0,0,0,0,0,0,0,0,0,
0,0,0,0,0,0,0,0,0,0,0,0,0,0,0,0,
0,0,0,0,0,0,0,0,0,0,0,0,0,0,0,0,
0,0,0,0,0,0,0,0,0,0,0,0,0,0,0,0,
0,0,0,0,0,0,0,0,0,0,0,0,0,0,0,0,
0,0,0,0,0,0,0,0,0,0,0,0,0,0,0,0,
0,0,0,0,0,0,0,0,0,0,0,0,0,0,0,0,
0,0,0,0,0,0,0,0,0,0,0,0,0,0,0,0
</chunk>
   <chunk x="32" y="64" width="16" height="16">
21,21,21,21,21,21,21,21,21,21,21,21,21,21,21,21,
21,21,21,21,21,21,21,21,21,21,21,21,21,21,21,21,
21,21,21,21,21,21,21,21,21,21,21,21,21,21,21,21,
21,21,21,21,21,21,21,21,21,21,21,21,21,21,21,21,
21,21,21,21,21,21,21,21,21,21,21,21,21,21,21,21,
21,21,21,21,21,21,21,21,21,21,21,21,21,21,21,21,
21,21,21,21,21,21,21,21,21,21,21,21,21,21,21,21,
23,24,23,24,21,21,21,21,21,23,40,24,23,24,23,24,
0,0,0,0,0,0,0,0,0,0,0,0,0,0,0,0,
0,0,0,0,0,0,0,0,0,0,0,0,0,0,0,0,
0,0,0,0,0,0,0,0,0,0,0,0,0,0,0,0,
0,0,0,0,0,0,0,0,0,0,0,0,0,0,0,0,
0,0,0,0,0,0,0,0,0,0,0,0,0,0,0,0,
0,0,0,0,0,0,0,0,0,0,0,0,0,0,0,0,
0,0,0,0,0,0,0,0,0,0,0,0,0,0,0,0,
0,0,0,0,0,0,0,0,0,0,0,0,0,0,0,0
</chunk>
   <chunk x="48" y="64" width="16" height="16">
21,21,21,21,21,21,21,21,21,21,21,21,21,21,21,21,
21,21,21,21,21,21,21,21,21,21,21,21,21,21,21,21,
21,21,21,21,21,21,21,21,21,21,21,21,21,21,21,21,
21,21,21,21,21,21,21,21,21,21,21,21,21,21,21,21,
21,21,21,21,21,21,21,21,21,21,21,21,21,21,21,21,
21,21,21,21,21,21,21,21,21,21,21,21,21,21,21,21,
21,21,21,21,21,21,21,21,21,21,21,21,21,21,21,21,
21,23,24,21,23,24,23,24,21,21,21,21,23,24,21,21,
0,0,0,0,0,0,0,0,0,0,0,0,0,0,0,0,
0,0,0,0,0,0,0,0,0,0,0,0,0,0,0,0,
0,0,0,0,0,0,0,0,0,0,0,0,0,0,0,0,
0,0,0,0,0,0,0,0,0,0,0,0,0,0,0,0,
0,0,0,0,0,0,0,0,0,0,0,0,0,0,0,0,
0,0,0,0,0,0,0,0,0,0,0,0,0,0,0,0,
0,0,0,0,0,0,0,0,0,0,0,0,0,0,0,0,
0,0,0,0,0,0,0,0,0,0,0,0,0,0,0,0
</chunk>
   <chunk x="64" y="64" width="16" height="16">
21,21,21,21,21,42,0,0,0,0,0,0,0,0,0,0,
21,21,21,21,21,21,0,0,0,0,0,0,0,0,0,0,
21,21,21,21,21,23,0,0,0,0,0,0,0,0,0,0,
21,21,21,21,21,42,0,0,0,0,0,0,0,0,0,0,
21,21,21,21,21,23,0,0,0,0,0,0,0,0,0,0,
21,21,21,21,21,22,0,0,0,0,0,0,0,0,0,0,
21,21,21,21,21,22,0,0,0,0,0,0,0,0,0,0,
21,23,40,40,24,42,0,0,0,0,0,0,0,0,0,0,
0,0,0,0,0,0,0,0,0,0,0,0,0,0,0,0,
0,0,0,0,0,0,0,0,0,0,0,0,0,0,0,0,
0,0,0,0,0,0,0,0,0,0,0,0,0,0,0,0,
0,0,0,0,0,0,0,0,0,0,0,0,0,0,0,0,
0,0,0,0,0,0,0,0,0,0,0,0,0,0,0,0,
0,0,0,0,0,0,0,0,0,0,0,0,0,0,0,0,
0,0,0,0,0,0,0,0,0,0,0,0,0,0,0,0,
0,0,0,0,0,0,0,0,0,0,0,0,0,0,0,0
</chunk>
   <chunk x="-144" y="80" width="16" height="16">
0,0,0,0,0,0,0,0,0,0,0,0,0,20,21,21,
0,0,0,0,0,0,0,0,0,0,0,0,0,20,21,21,
0,0,0,0,0,0,0,0,0,0,0,0,0,20,21,21,
0,0,0,0,0,0,0,0,0,0,0,0,1,43,21,21,
0,0,0,0,0,0,0,0,0,0,0,0,20,21,23,40,
0,0,0,0,0,0,0,0,0,0,0,0,39,40,41,0,
0,0,0,0,0,0,0,0,0,0,0,0,0,0,0,0,
0,0,0,0,0,0,0,0,0,0,0,0,0,0,0,0,
0,0,0,0,0,0,0,0,0,0,0,0,0,0,0,0,
0,0,0,0,0,0,0,0,0,0,0,0,0,0,0,0,
0,0,0,0,0,0,0,0,0,0,0,0,0,0,0,0,
0,0,0,0,0,0,0,0,0,0,0,0,0,0,0,0,
0,0,0,0,0,0,0,0,0,0,0,0,0,0,0,0,
0,0,0,0,0,0,0,0,0,0,0,0,0,0,0,0,
0,0,0,0,0,0,0,0,0,0,0,0,0,0,0,0,
0,0,0,0,0,0,0,0,0,0,0,0,0,0,0,0
</chunk>
   <chunk x="-128" y="80" width="16" height="16">
21,21,21,21,21,21,21,21,21,21,21,21,21,21,21,21,
21,21,21,21,21,21,21,21,21,21,21,21,21,21,23,40,
21,21,21,21,21,21,21,21,21,21,21,23,24,23,41,0,
21,21,21,21,21,21,23,24,23,40,40,41,39,41,0,0,
40,24,21,23,40,40,41,39,41,0,0,0,0,0,0,0,
0,39,40,41,0,0,0,0,0,0,0,0,0,0,0,0,
0,0,0,0,0,0,0,0,0,0,0,0,0,0,0,0,
0,0,0,0,0,0,0,0,0,0,0,0,0,0,0,0,
0,0,0,0,0,0,0,0,0,0,0,0,0,0,0,0,
0,0,0,0,0,0,0,0,0,0,0,0,0,0,0,0,
0,0,0,0,0,0,0,0,0,0,0,0,0,0,0,0,
0,0,0,0,0,0,0,0,0,0,0,0,0,0,0,0,
0,0,0,0,0,0,0,0,0,0,0,0,0,0,0,0,
0,0,0,0,0,0,0,0,0,0,0,0,0,0,0,0,
0,0,0,0,0,0,0,0,0,0,0,0,0,0,0,0,
0,0,0,0,0,0,0,0,0,0,0,0,0,0,0,0
</chunk>
   <chunk x="-112" y="80" width="16" height="16">
23,41,20,21,22,20,21,21,21,21,21,21,21,21,21,21,
41,0,39,24,42,43,21,21,21,21,21,21,21,21,21,21,
0,0,0,39,24,21,21,21,21,21,21,21,21,21,21,21,
0,0,0,1,43,21,21,21,21,21,21,21,21,21,21,21,
0,0,0,39,24,21,21,21,21,21,21,21,21,21,21,21,
0,0,0,0,20,21,21,21,21,21,21,21,21,21,21,21,
0,0,0,1,43,21,21,21,21,21,21,23,40,40,40,40,
0,0,0,20,21,21,21,21,23,40,40,41,0,0,0,0,
0,0,0,39,40,24,23,40,41,0,0,0,0,0,0,0,
0,0,0,0,0,39,41,0,0,0,0,0,0,0,0,0,
0,0,0,0,0,0,0,0,0,0,0,0,0,0,0,0,
0,0,0,0,0,0,0,0,0,0,0,0,0,0,0,0,
0,0,0,0,0,0,0,0,0,0,0,0,0,0,0,0,
0,0,0,0,0,0,0,0,0,0,0,0,0,0,0,0,
0,0,0,0,0,0,0,0,0,0,0,0,0,0,0,0,
0,0,0,0,0,0,0,0,0,0,0,0,0,0,0,0
</chunk>
   <chunk x="-96" y="80" width="16" height="16">
21,21,21,21,21,21,21,21,23,40,41,0,0,0,0,0,
21,21,21,21,21,21,23,40,41,0,0,0,0,0,0,0,
21,21,21,21,23,40,41,0,0,0,0,0,0,0,0,0,
21,21,23,40,41,0,0,0,0,0,0,0,0,0,0,0,
21,21,22,0,0,0,0,0,0,0,0,0,0,0,0,0,
23,40,41,0,0,0,0,0,0,0,0,0,0,0,0,0,
41,0,0,0,0,0,0,0,0,0,0,0,0,0,0,0,
0,0,0,0,0,0,0,0,0,0,0,0,0,0,0,0,
0,0,0,0,0,0,0,0,0,0,0,0,0,0,0,0,
0,0,0,0,0,0,0,0,0,0,0,0,0,0,0,0,
0,0,0,0,0,0,0,0,0,0,0,0,0,0,0,0,
0,0,0,0,0,0,0,0,0,0,0,0,0,0,0,0,
0,0,0,0,0,0,0,0,0,0,0,0,0,0,0,0,
0,0,0,0,0,0,0,0,0,0,0,0,0,0,0,0,
0,0,0,0,0,0,0,0,0,0,0,0,0,0,0,0,
0,0,0,0,0,0,0,0,0,0,0,0,0,0,0,0
</chunk>
  </data>
 </layer>
 <layer id="17" name="Su" width="30" height="20">
  <data encoding="csv">
   <chunk x="-96" y="-80" width="16" height="16">
0,0,0,0,0,0,0,0,0,0,0,0,0,0,0,0,
0,0,0,0,0,0,0,0,0,0,0,0,0,0,0,0,
0,0,0,0,0,0,0,0,0,0,0,0,0,0,0,0,
0,0,0,0,0,0,0,0,0,0,0,0,0,0,0,0,
0,0,0,0,0,0,0,0,0,0,0,0,0,0,0,0,
0,0,0,0,0,0,0,0,0,0,0,0,0,0,0,0,
0,0,0,0,0,0,0,0,0,0,0,0,0,0,0,0,
0,0,0,0,0,0,0,3165,3166,3167,3168,3169,3170,3171,3172,3173,
0,0,0,0,0,0,0,3203,3204,3205,3206,3207,3208,3209,3210,3211,
0,0,0,0,0,0,0,3241,3242,3243,3244,3245,3246,3247,3248,3249,
0,0,0,0,0,0,0,3279,3280,3281,3282,3283,3284,3285,3286,3287,
0,0,0,0,0,0,0,3317,3318,3319,3320,3321,3322,3323,3324,3325,
0,0,0,0,0,0,0,3355,3356,3357,3358,3359,3360,3361,3362,3363,
0,0,0,0,0,0,0,3393,3394,3395,3396,3397,3398,3399,3400,3401,
0,0,0,0,0,0,0,3431,3432,3433,3434,3435,3436,3437,3438,3439,
0,0,0,0,0,0,0,3469,3470,3471,3472,3473,3474,3475,3476,3477
</chunk>
   <chunk x="-80" y="-80" width="16" height="16">
0,0,0,0,0,0,0,0,0,0,0,0,0,0,0,0,
0,0,0,0,0,0,0,0,0,0,0,0,0,0,0,0,
0,0,0,0,0,0,0,0,0,0,0,0,0,0,0,0,
0,0,0,0,0,0,0,0,0,0,0,0,0,0,0,0,
0,0,0,0,0,0,0,0,0,0,0,0,0,0,0,0,
0,0,0,0,0,0,0,0,0,0,0,0,0,0,0,0,
0,0,0,0,0,0,0,0,0,0,0,0,0,0,0,0,
3174,3175,3176,3177,3178,3179,3180,3181,3182,3183,3184,3165,3166,3167,3168,3169,
3212,3213,3214,3215,3216,3217,3218,3219,3220,3221,3222,3203,3204,3205,3206,3207,
3250,3251,3252,3253,3254,3255,3256,3257,3258,3259,3260,3241,3242,3243,3244,3245,
3288,3289,3290,3291,3292,3293,3294,3295,3296,3297,3298,3279,3280,3281,3282,3283,
3326,3327,3328,3329,3330,3331,3332,3333,3334,3335,3336,3317,3318,3319,3320,3321,
3364,3365,3366,3367,3368,3369,3370,3371,3372,3373,3374,3355,3356,3357,3358,3359,
3402,3403,3404,3405,3406,3407,3408,3409,3410,3411,3412,3393,3394,3395,3396,3397,
3440,3441,3442,3443,3444,3445,3446,3447,3448,3449,3450,3431,3432,3433,3434,3435,
3478,3479,3480,3481,3482,3483,3484,3485,3486,3487,3488,3469,3470,3471,3472,3473
</chunk>
   <chunk x="-64" y="-80" width="16" height="16">
0,0,0,0,0,0,0,0,0,0,0,0,0,0,0,0,
0,0,0,0,0,0,0,0,0,0,0,0,0,0,0,0,
0,0,0,0,0,0,0,0,0,0,0,0,0,0,0,0,
0,0,0,0,0,0,0,0,0,0,0,0,0,0,0,0,
0,0,0,0,0,0,0,0,0,0,0,0,0,0,0,0,
0,0,0,0,0,0,0,0,0,0,0,0,0,0,0,0,
0,0,0,0,0,0,0,0,0,0,0,0,0,0,0,0,
3170,3171,3172,3173,3174,3175,3176,3177,3178,3179,3180,3181,3182,3183,3184,3165,
3208,3209,3210,3211,3212,3213,3214,3215,3216,3217,3218,3219,3220,3221,3222,3203,
3246,3247,3248,3249,3250,3251,3252,3253,3254,3255,3256,3257,3258,3259,3260,3241,
3284,3285,3286,3287,3288,3289,3290,3291,3292,3293,3294,3295,3296,3297,3298,3279,
3322,3323,3324,3325,3326,3327,3328,3329,3330,3331,3332,3333,3334,3335,3336,3317,
3360,3361,3362,3363,3364,3365,3366,3367,3368,3369,3370,3371,3372,3373,3374,3355,
3398,3399,3400,3401,3402,3403,3404,3405,3406,3407,3408,3409,3410,3411,3412,3393,
3436,3437,3438,3439,3440,3441,3442,3443,3444,3445,3446,3447,3448,3449,3450,3431,
3474,3475,3476,3477,3478,3479,3480,3481,3482,3483,3484,3485,3486,3487,3488,3469
</chunk>
   <chunk x="-48" y="-80" width="16" height="16">
0,0,0,0,0,0,0,0,0,0,0,0,0,0,0,0,
0,0,0,0,0,0,0,0,0,0,0,0,0,0,0,0,
0,0,0,0,0,0,0,0,0,0,0,0,0,0,0,0,
0,0,0,0,0,0,0,0,0,0,0,0,0,0,0,0,
0,0,0,0,0,0,0,0,0,0,0,0,0,0,0,0,
0,0,0,0,0,0,0,0,0,0,0,0,0,0,0,0,
0,0,0,0,0,0,0,0,0,0,0,0,0,0,0,0,
3166,3167,3168,3169,3170,3171,3172,3173,3174,3175,3176,3177,3178,3179,3180,3181,
3204,3205,3206,3207,3208,3209,3210,3211,3212,3213,3214,3215,3216,3217,3218,3219,
3242,3243,3244,3245,3246,3247,3248,3249,3250,3251,3252,3253,3254,3255,3256,3257,
3280,3281,3282,3283,3284,3285,3286,3287,3288,3289,3290,3291,3292,3293,3294,3295,
3318,3319,3320,3321,3322,3323,3324,3325,3326,3327,3328,3329,3330,3331,3332,3333,
3356,3357,3358,3359,3360,3361,3362,3363,3364,3365,3366,3367,3368,3369,3370,3371,
3394,3395,3396,3397,3398,3399,3400,3401,3402,3403,3404,3405,3406,3407,3408,3409,
3432,3433,3434,3435,3436,3437,3438,3439,3440,3441,3442,3443,3444,3445,3446,3447,
3470,3471,3472,3473,3474,3475,3476,3477,3478,3479,3480,3481,3482,3483,3484,3485
</chunk>
   <chunk x="-32" y="-80" width="16" height="16">
0,0,0,0,0,0,0,0,0,0,0,0,0,0,0,0,
0,0,0,0,0,0,0,0,0,0,0,0,0,0,0,0,
0,0,0,0,0,0,0,0,0,0,0,0,0,0,0,0,
0,0,0,0,0,0,0,0,0,0,0,0,0,0,0,0,
0,0,0,0,0,0,0,0,0,0,0,0,0,0,0,0,
0,0,0,0,0,0,0,0,0,0,0,0,0,0,0,0,
0,0,0,0,0,0,0,0,0,0,0,0,0,0,0,0,
3182,3183,3184,3165,3166,3167,3168,3169,3170,3171,3172,3173,3174,3175,3176,3177,
3220,3221,3222,3203,3204,3205,3206,3207,3208,3209,3210,3211,3212,3213,3214,3215,
3258,3259,3260,3241,3242,3243,3244,3245,3246,3247,3248,3249,3250,3251,3252,3253,
3296,3297,3298,3279,3280,3281,3282,3283,3284,3285,3286,3287,3288,3289,3290,3291,
3334,3335,3336,3317,3318,3319,3320,3321,3322,3323,3324,3325,3326,3327,3328,3329,
3372,3373,3374,3355,3356,3357,3358,3359,3360,3361,3362,3363,3364,3365,3366,3367,
3410,3411,3412,3393,3394,3395,3396,3397,3398,3399,3400,3401,3402,3403,3404,3405,
3448,3449,3450,3431,3432,3433,3434,3435,3436,3437,3438,3439,3440,3441,3442,3443,
3486,3487,3488,3469,3470,3471,3472,3473,3474,3475,3476,3477,3478,3479,3480,3481
</chunk>
   <chunk x="-16" y="-80" width="16" height="16">
0,0,0,0,0,0,0,0,0,0,0,0,0,0,0,0,
0,0,0,0,0,0,0,0,0,0,0,0,0,0,0,0,
0,0,0,0,0,0,0,0,0,0,0,0,0,0,0,0,
0,0,0,0,0,0,0,0,0,0,0,0,0,0,0,0,
0,0,0,0,0,0,0,0,0,0,0,0,0,0,0,0,
0,0,0,0,0,0,0,0,0,0,0,0,0,0,0,0,
0,0,0,0,0,0,0,0,0,0,0,0,0,0,0,0,
3178,3179,3180,3181,3182,3183,3184,3165,3166,3167,3168,3169,3170,3171,3172,3173,
3216,3217,3218,3219,3220,3221,3222,3203,3204,3205,3206,3207,3208,3209,3210,3211,
3254,3255,3256,3257,3258,3259,3260,3241,3242,3243,3244,3245,3246,3247,3248,3249,
3292,3293,3294,3295,3296,3297,3298,3279,3280,3281,3282,3283,3284,3285,3286,3287,
3330,3331,3332,3333,3334,3335,3336,3317,3318,3319,3320,3321,3322,3323,3324,3325,
3368,3369,3370,3371,3372,3373,3374,3355,3356,3357,3358,3359,3360,3361,3362,3363,
3406,3407,3408,3409,3410,3411,3412,3393,3394,3395,3396,3397,3398,3399,3400,3401,
3444,3445,3446,3447,3448,3449,3450,3431,3432,3433,3434,3435,3436,3437,3438,3439,
3482,3483,3484,3485,3486,3487,3488,3469,3470,3471,3472,3473,3474,3475,3476,3477
</chunk>
   <chunk x="0" y="-80" width="16" height="16">
0,0,0,0,0,0,0,0,0,0,0,0,0,0,0,0,
0,0,0,0,0,0,0,0,0,0,0,0,0,0,0,0,
0,0,0,0,0,0,0,0,0,0,0,0,0,0,0,0,
0,0,0,0,0,0,0,0,0,0,0,0,0,0,0,0,
0,0,0,0,0,0,0,0,0,0,0,0,0,0,0,0,
0,0,0,0,0,0,0,0,0,0,0,0,0,0,0,0,
0,0,0,0,0,0,0,0,0,0,0,0,0,0,0,0,
3174,3175,3176,3177,3178,3179,3180,3181,3182,3183,3184,3165,3166,3167,3168,3169,
3212,3213,3214,3215,3216,3217,3218,3219,3220,3221,3222,3203,3204,3205,3206,3207,
3250,3251,3252,3253,3254,3255,3256,3257,3258,3259,3260,3241,3242,3243,3244,3245,
3288,3289,3290,3291,3292,3293,3294,3295,3296,3297,3298,3279,3280,3281,3282,3283,
3326,3327,3328,3329,3330,3331,3332,3333,3334,3335,3336,3317,3318,3319,3320,3321,
3364,3365,3366,3367,3368,3369,3370,3371,3372,3373,3374,3355,3356,3357,3358,3359,
3402,3403,3404,3405,3406,3407,3408,3409,3410,3411,3412,3393,3394,3395,3396,3397,
3440,3441,3442,3443,3444,3445,3446,3447,3448,3449,3450,3431,3432,3433,3434,3435,
3478,3479,3480,3481,3482,3483,3484,3485,3486,3487,3488,3469,3470,3471,3472,3473
</chunk>
   <chunk x="16" y="-80" width="16" height="16">
0,0,0,0,0,0,0,0,0,0,0,0,0,0,0,0,
0,0,0,0,0,0,0,0,0,0,0,0,0,0,0,0,
0,0,0,0,0,0,0,0,0,0,0,0,0,0,0,0,
0,0,0,0,0,0,0,0,0,0,0,0,0,0,0,0,
0,0,0,0,0,0,0,0,0,0,0,0,0,0,0,0,
0,0,0,0,0,0,0,0,0,0,0,0,0,0,0,0,
0,0,0,0,0,0,0,0,0,0,0,0,0,0,0,0,
3170,3171,3172,3173,3174,3175,3176,3177,3178,3179,3180,3181,3182,3183,3184,3165,
3208,3209,3210,3211,3212,3213,3214,3215,3216,3217,3218,3219,3220,3221,3222,3203,
3246,3247,3248,3249,3250,3251,3252,3253,3254,3255,3256,3257,3258,3259,3260,3241,
3284,3285,3286,3287,3288,3289,3290,3291,3292,3293,3294,3295,3296,3297,3298,3279,
3322,3323,3324,3325,3326,3327,3328,3329,3330,3331,3332,3333,3334,3335,3336,3317,
3360,3361,3362,3363,3364,3365,3366,3367,3368,3369,3370,3371,3372,3373,3374,3355,
3398,3399,3400,3401,3402,3403,3404,3405,3406,3407,3408,3409,3410,3411,3412,3393,
3436,3437,3438,3439,3440,3441,3442,3443,3444,3445,3446,3447,3448,3449,3450,3431,
3474,3475,3476,3477,3478,3479,3480,3481,3482,3483,3484,3485,3486,3487,3488,3469
</chunk>
   <chunk x="32" y="-80" width="16" height="16">
0,0,0,0,0,0,0,0,0,0,0,0,0,0,0,0,
0,0,0,0,0,0,0,0,0,0,0,0,0,0,0,0,
0,0,0,0,0,0,0,0,0,0,0,0,0,0,0,0,
0,0,0,0,0,0,0,0,0,0,0,0,0,0,0,0,
0,0,0,0,0,0,0,0,0,0,0,0,0,0,0,0,
0,0,0,0,0,0,0,0,0,0,0,0,0,0,0,0,
0,0,0,0,0,0,0,0,0,0,0,0,0,0,0,0,
3166,3167,3168,3169,3170,3171,3172,3173,3174,3175,3176,3177,3178,3179,3180,3181,
3204,3205,3206,3207,3208,3209,3210,3211,3212,3213,3214,3215,3216,3217,3218,3219,
3242,3243,3244,3245,3246,3247,3248,3249,3250,3251,3252,3253,3254,3255,3256,3257,
3280,3281,3282,3283,3284,3285,3286,3287,3288,3289,3290,3291,3292,3293,3294,3295,
3318,3319,3320,3321,3322,3323,3324,3325,3326,3327,3328,3329,3330,3331,3332,3333,
3356,3357,3358,3359,3360,3361,3362,3363,3364,3365,3366,3367,3368,3369,3370,3371,
3394,3395,3396,3397,3398,3399,3400,3401,3402,3403,3404,3405,3406,3407,3408,3409,
3432,3433,3434,3435,3436,3437,3438,3439,3440,3441,3442,3443,3444,3445,3446,3447,
3470,3471,3472,3473,3474,3475,3476,3477,3478,3479,3480,3481,3482,3483,3484,3485
</chunk>
   <chunk x="48" y="-80" width="16" height="16">
0,0,0,0,0,0,0,0,0,0,0,0,0,0,0,0,
0,0,0,0,0,0,0,0,0,0,0,0,0,0,0,0,
0,0,0,0,0,0,0,0,0,0,0,0,0,0,0,0,
0,0,0,0,0,0,0,0,0,0,0,0,0,0,0,0,
0,0,0,0,0,0,0,0,0,0,0,0,0,0,0,0,
0,0,0,0,0,0,0,0,0,0,0,0,0,0,0,0,
0,0,0,0,0,0,0,0,0,0,0,0,0,0,0,0,
3182,3183,3184,3165,3166,3167,3168,3169,3170,3171,3172,3173,3174,3175,3176,3177,
3220,3221,3222,3203,3204,3205,3206,3207,3208,3209,3210,3211,3212,3213,3214,3215,
3258,3259,3260,3241,3242,3243,3244,3245,3246,3247,3248,3249,3250,3251,3252,3253,
3296,3297,3298,3279,3280,3281,3282,3283,3284,3285,3286,3287,3288,3289,3290,3291,
3334,3335,3336,3317,3318,3319,3320,3321,3322,3323,3324,3325,3326,3327,3328,3329,
3372,3373,3374,3355,3356,3357,3358,3359,3360,3361,3362,3363,3364,3365,3366,3367,
3410,3411,3412,3393,3394,3395,3396,3397,3398,3399,3400,3401,3402,3403,3404,3405,
3448,3449,3450,3431,3432,3433,3434,3435,3436,3437,3438,3439,3440,3441,3442,3443,
3486,3487,3488,3469,3470,3471,3472,3473,3474,3475,3476,3477,3478,3479,3480,3481
</chunk>
   <chunk x="64" y="-80" width="16" height="16">
0,0,0,0,0,0,0,0,0,0,0,0,0,0,0,0,
0,0,0,0,0,0,0,0,0,0,0,0,0,0,0,0,
0,0,0,0,0,0,0,0,0,0,0,0,0,0,0,0,
0,0,0,0,0,0,0,0,0,0,0,0,0,0,0,0,
0,0,0,0,0,0,0,0,0,0,0,0,0,0,0,0,
0,0,0,0,0,0,0,0,0,0,0,0,0,0,0,0,
0,0,0,0,0,0,0,0,0,0,0,0,0,0,0,0,
3178,3179,3180,3181,3182,3183,3184,3165,3166,3167,3168,3169,3170,3171,3172,3173,
3216,3217,3218,3219,3220,3221,3222,3203,3204,3205,3206,3207,3208,3209,3210,3211,
3254,3255,3256,3257,3258,3259,3260,3241,3242,3243,3244,3245,3246,3247,3248,3249,
3292,3293,3294,3295,3296,3297,3298,3279,3280,3281,3282,3283,3284,3285,3286,3287,
3330,3331,3332,3333,3334,3335,3336,3317,3318,3319,3320,3321,3322,3323,3324,3325,
3368,3369,3370,3371,3372,3373,3374,3355,3356,3357,3358,3359,3360,3361,3362,3363,
3406,3407,3408,3409,3410,3411,3412,3393,3394,3395,3396,3397,3398,3399,3400,3401,
3444,3445,3446,3447,3448,3449,3450,3431,3432,3433,3434,3435,3436,3437,3438,3439,
3482,3483,3484,3485,3486,3487,3488,3469,3470,3471,3472,3473,3474,3475,3476,3477
</chunk>
   <chunk x="80" y="-80" width="16" height="16">
0,0,0,0,0,0,0,0,0,0,0,0,0,0,0,0,
0,0,0,0,0,0,0,0,0,0,0,0,0,0,0,0,
0,0,0,0,0,0,0,0,0,0,0,0,0,0,0,0,
0,0,0,0,0,0,0,0,0,0,0,0,0,0,0,0,
0,0,0,0,0,0,0,0,0,0,0,0,0,0,0,0,
0,0,0,0,0,0,0,0,0,0,0,0,0,0,0,0,
0,0,0,0,0,0,0,0,0,0,0,0,0,0,0,0,
3174,3175,3176,3177,3178,3179,3180,3181,3182,3183,3184,0,0,0,0,0,
3212,3213,3214,3215,3216,3217,3218,3219,3220,3221,3222,0,0,0,0,0,
3250,3251,3252,3253,3254,3255,3256,3257,3258,3259,3260,0,0,0,0,0,
3288,3289,3290,3291,3292,3293,3294,3295,3296,3297,3298,0,0,0,0,0,
3326,3327,3328,3329,3330,3331,3332,3333,3334,3335,3336,0,0,0,0,0,
3364,3365,3366,3367,3368,3369,3370,3371,3372,3373,3374,0,0,0,0,0,
3402,3403,3404,3405,3406,3407,3408,3409,3410,3411,3412,0,0,0,0,0,
3440,3441,3442,3443,3444,3445,3446,3447,3448,3449,3450,0,0,0,0,0,
3478,3479,3480,3481,3482,3483,3484,3485,3486,3487,3488,0,0,0,0,0
</chunk>
   <chunk x="-96" y="-64" width="16" height="16">
0,0,0,0,0,0,0,3507,3508,3509,3510,3511,3512,3513,3514,3515,
0,0,0,0,0,0,0,3545,3546,3547,3548,3549,3550,3551,3552,3553,
0,0,0,0,0,0,0,3583,3584,3585,3586,3587,3588,3589,3590,3591,
0,0,0,0,0,0,0,3621,3622,3623,3624,3625,3626,3627,3628,3629,
0,0,0,0,0,0,0,3659,3660,3661,3662,3663,3664,3665,3666,3667,
0,0,0,0,0,0,0,3697,3698,3699,3700,3701,3702,3703,3704,3705,
0,0,0,0,0,0,0,3735,3736,3737,3738,3739,3740,3741,3742,3743,
0,0,0,0,0,0,0,3773,3774,3775,3776,3777,3778,3779,3780,3781,
0,0,0,0,0,0,0,3811,3812,3813,3814,3815,3816,3817,3818,3819,
0,0,0,0,0,0,0,3849,3850,3851,3852,3853,3854,3855,3856,3857,
0,0,0,0,0,0,0,3887,3888,3889,3890,3891,3892,3893,3894,3895,
0,0,0,0,0,0,0,3925,3926,3927,3928,3929,3930,3931,3932,3933,
0,0,0,0,0,0,0,3393,3394,3395,3396,3397,3398,3399,3400,3401,
0,0,0,0,0,0,0,3431,3432,3433,3434,3435,3436,3437,3438,3439,
0,0,0,0,0,0,0,3469,3470,3471,3472,3473,3474,3475,3476,3477,
0,0,0,0,0,0,0,3507,3508,3509,3510,3511,3512,3513,3514,3515
</chunk>
   <chunk x="-80" y="-64" width="16" height="16">
3516,3517,3518,3519,3520,3521,3522,3523,3524,3525,3526,3507,3508,3509,3510,3511,
3554,3555,3556,3557,3558,3559,3560,3561,3562,3563,3564,3545,3546,3547,3548,3549,
3592,3593,3594,3595,3596,3597,3598,3599,3600,3601,3602,3583,3584,3585,3586,3587,
3630,3631,3632,3633,3634,3635,3636,3637,3638,3639,3640,3621,3622,3623,3624,3625,
3668,3669,3670,3671,3672,3673,3674,3675,3676,3677,3678,3659,3660,3661,3662,3663,
3706,3707,3708,3709,3710,3711,3712,3713,3714,3715,3716,3697,3698,3699,3700,3701,
3744,3745,3746,3747,3748,3749,3750,3751,3752,3753,3754,3735,3736,3737,3738,3739,
3782,3783,3784,3785,3786,3787,3788,3789,3790,3791,3792,3773,3774,3775,3776,3777,
3820,3821,3822,3823,3824,3825,3826,3827,3828,3829,3830,3811,3812,3813,3814,3815,
3858,3859,3860,3861,3862,3863,3864,3865,3866,3867,3868,3849,3850,3851,3852,3853,
3896,3897,3898,3899,3900,3901,3902,3903,3904,3905,3906,3887,3888,3889,3890,3891,
3934,3935,3936,3937,3938,3939,3940,3941,3942,3943,3944,3925,3926,3927,3928,3929,
3402,3403,3404,3405,3406,3407,3408,3409,3410,3411,3412,0,0,0,0,0,
3440,3441,3442,3443,3444,3445,3446,3447,3448,3449,3450,0,0,0,0,0,
3478,3479,3480,3481,3482,3483,3484,3485,3486,3487,3488,0,0,0,0,0,
3516,3517,3518,3519,3520,3521,3522,3523,3524,3525,3526,0,0,0,0,0
</chunk>
   <chunk x="-64" y="-64" width="16" height="16">
3512,3513,3514,3515,3516,3517,3518,3519,3520,3521,3522,3523,3524,3525,3526,3507,
3550,3551,3552,3553,3554,3555,3556,3557,3558,3559,3560,3561,3562,3563,3564,3545,
3588,3589,3590,3591,3592,3593,3594,3595,3596,3597,3598,3599,3600,3601,3602,3583,
3626,3627,3628,3629,3630,3631,3632,3633,3634,3635,3636,3637,3638,3639,3640,3621,
3664,3665,3666,3667,3668,3669,3670,3671,3672,3673,3674,3675,3676,3677,3678,3659,
3702,3703,3704,3705,3706,3707,3708,3709,3710,3711,3712,3713,3714,3715,3716,3697,
3740,3741,3742,3743,3744,3745,3746,3747,3748,3749,3750,3751,3752,3753,3754,3735,
3778,3779,3780,3781,3782,3783,3784,3785,3786,3787,3788,3789,3790,3791,3792,3773,
3816,3817,3818,3819,3820,3821,3822,3823,3824,3825,3826,3827,3828,3829,3830,3811,
3854,3855,3856,3857,3858,3859,3860,3861,3862,3863,3864,3865,3866,3867,3868,3849,
3892,3893,3894,3895,3896,3897,3898,3899,3900,3901,3902,3903,3904,3905,3906,3887,
3930,3931,3932,3933,3934,3935,3936,3937,3938,3939,3940,3941,3942,3943,3944,3925,
0,0,0,0,0,0,0,0,0,0,0,0,0,0,0,0,
0,0,0,0,0,0,0,0,0,0,0,0,0,0,0,0,
0,0,0,0,0,0,0,0,0,0,0,0,0,0,0,0,
0,0,0,0,0,0,0,0,0,0,0,0,0,0,0,0
</chunk>
   <chunk x="-48" y="-64" width="16" height="16">
3508,3509,3510,3511,3512,3513,3514,3515,3516,3517,3518,3519,3520,3521,3522,3523,
3546,3547,3548,3549,3550,3551,3552,3553,3554,3555,3556,3557,3558,3559,3560,3561,
3584,3585,3586,3587,3588,3589,3590,3591,3592,3593,3594,3595,3596,3597,3598,3599,
3622,3623,3624,3625,3626,3627,3628,3629,3630,3631,3632,3633,3634,3635,3636,3637,
3660,3661,3662,3663,3664,3665,3666,3667,3668,3669,3670,3671,3672,3673,3674,3675,
3698,3699,3700,3701,3702,3703,3704,3705,3706,3707,3708,3709,3710,3711,3712,3713,
3736,3737,3738,3739,3740,3741,3742,3743,3744,3745,3746,3747,3748,3749,3750,3751,
3774,3775,3776,3777,3778,3779,3780,3781,3782,3783,3784,3785,3786,3787,3788,3789,
3812,3813,3814,3815,3816,3817,3818,3819,3820,3821,3822,3823,3824,3825,3826,3827,
3850,3851,3852,3853,3854,3855,3856,3857,3858,3859,3860,3861,3862,3863,3864,3865,
3888,3889,3890,3891,3892,3893,3894,3895,3896,3897,3898,3899,3900,3901,3902,3903,
3926,3927,3928,3929,3930,3931,3932,3933,3934,3935,3936,3937,3938,3939,3940,3941,
0,0,0,0,0,0,0,0,0,0,0,0,0,0,0,0,
0,0,0,0,0,0,0,0,0,0,0,0,0,0,0,0,
0,0,0,0,0,0,0,0,0,0,0,0,0,0,0,0,
0,0,0,0,0,0,0,0,0,0,0,0,0,0,0,0
</chunk>
   <chunk x="-32" y="-64" width="16" height="16">
3524,3525,3526,3507,3508,3509,3510,3511,3512,3513,3514,3515,3516,3517,3518,3519,
3562,3563,3564,3545,3546,3547,3548,3549,3550,3551,3552,3553,3554,3555,3556,3557,
3600,3601,3602,3583,3584,3585,3586,3587,3588,3589,3590,3591,3592,3593,3594,3595,
3638,3639,3640,3621,3622,3623,3624,3625,3626,3627,3628,3629,3630,3631,3632,3633,
3676,3677,3678,3659,3660,3661,3662,3663,3664,3665,3666,3667,3668,3669,3670,3671,
3714,3715,3716,3697,3698,3699,3700,3701,3702,3703,3704,3705,3706,3707,3708,3709,
3752,3753,3754,3735,3736,3737,3738,3739,3740,3741,3742,3743,3744,3745,3746,3747,
3790,3791,3792,3773,3774,3775,3776,3777,3778,3779,3780,3781,3782,3783,3784,3785,
3828,3829,3830,3811,3812,3813,3814,3815,3816,3817,3818,3819,3820,3821,3822,3823,
3866,3867,3868,3849,3850,3851,3852,3853,3854,3855,3856,3857,3858,3859,3860,3861,
3904,3905,3906,3887,3888,3889,3890,3891,3892,3893,3894,3895,3896,3897,3898,3899,
3942,3943,3944,3925,3926,3927,3928,3929,3930,3931,3932,3933,3934,3935,3936,3937,
0,0,0,0,0,0,0,0,0,0,0,0,0,0,0,0,
0,0,0,0,0,0,0,0,0,0,0,0,0,0,0,0,
0,0,0,0,0,0,0,0,0,0,0,0,0,0,0,0,
0,0,0,0,0,0,0,0,0,0,0,0,0,0,0,0
</chunk>
   <chunk x="-16" y="-64" width="16" height="16">
3520,3521,3522,3523,3524,3525,3526,3507,3508,3509,3510,3511,3512,3513,3514,3515,
3558,3559,3560,3561,3562,3563,3564,3545,3546,3547,3548,3549,3550,3551,3552,3553,
3596,3597,3598,3599,3600,3601,3602,3583,3584,3585,3586,3587,3588,3589,3590,3591,
3634,3635,3636,3637,3638,3639,3640,3621,3622,3623,3624,3625,3626,3627,3628,3629,
3672,3673,3674,3675,3676,3677,3678,3659,3660,3661,3662,3663,3664,3665,3666,3667,
3710,3711,3712,3713,3714,3715,3716,3697,3698,3699,3700,3701,3702,3703,3704,3705,
3748,3749,3750,3751,3752,3753,3754,3735,3736,3737,3738,3739,3740,3741,3742,3743,
3786,3787,3788,3789,3790,3791,3792,3773,3774,3775,3776,3777,3778,3779,3780,3781,
3824,3825,3826,3827,3828,3829,3830,3811,3812,3813,3814,3815,3816,3817,3818,3819,
3862,3863,3864,3865,3866,3867,3868,3849,3850,3851,3852,3853,3854,3855,3856,3857,
3900,3901,3902,3903,3904,3905,3906,3887,3888,3889,3890,3891,3892,3893,3894,3895,
3938,3939,3940,3941,3942,3943,3944,3925,3926,3927,3928,3929,3930,3931,3932,3933,
0,0,0,0,0,0,0,0,0,0,0,0,0,0,0,0,
0,0,0,0,0,0,0,0,0,0,0,0,0,0,0,0,
0,0,0,0,0,0,0,0,0,0,0,0,0,0,0,0,
0,0,0,0,0,0,0,0,0,0,0,0,0,0,0,0
</chunk>
   <chunk x="0" y="-64" width="16" height="16">
3516,3517,3518,3519,3520,3521,3522,3523,3524,3525,3526,3507,3508,3509,3510,3511,
3554,3555,3556,3557,3558,3559,3560,3561,3562,3563,3564,3545,3546,3547,3548,3549,
3592,3593,3594,3595,3596,3597,3598,3599,3600,3601,3602,3583,3584,3585,3586,3587,
3630,3631,3632,3633,3634,3635,3636,3637,3638,3639,3640,3621,3622,3623,3624,3625,
3668,3669,3670,3671,3672,3673,3674,3675,3676,3677,3678,3659,3660,3661,3662,3663,
3706,3707,3708,3709,3710,3711,3712,3713,3714,3715,3716,3697,3698,3699,3700,3701,
3744,3745,3746,3747,3748,3749,3750,3751,3752,3753,3754,3735,3736,3737,3738,3739,
3782,3783,3784,3785,3786,3787,3788,3789,3790,3791,3792,3773,3774,3775,3776,3777,
3820,3821,3822,3823,3824,3825,3826,3827,3828,3829,3830,3811,3812,3813,3814,3815,
3858,3859,3860,3861,3862,3863,3864,3865,3866,3867,3868,3849,3850,3851,3852,3853,
3896,3897,3898,3899,3900,3901,3902,3903,3904,3905,3906,3887,3888,3889,3890,3891,
3934,3935,3936,3937,3938,3939,3940,3941,3942,3943,3944,3925,3926,3927,3928,3929,
0,0,0,0,0,0,0,0,0,0,0,0,0,0,0,0,
0,0,0,0,0,0,0,0,0,0,0,0,0,0,0,0,
0,0,0,0,0,0,0,0,0,0,0,0,0,0,0,0,
0,0,0,0,0,0,0,0,0,0,0,0,0,0,0,0
</chunk>
   <chunk x="16" y="-64" width="16" height="16">
3512,3513,3514,3515,3516,3517,3518,3519,3520,3521,3522,3523,3524,3525,3526,3507,
3550,3551,3552,3553,3554,3555,3556,3557,3558,3559,3560,3561,3562,3563,3564,3545,
3588,3589,3590,3591,3592,3593,3594,3595,3596,3597,3598,3599,3600,3601,3602,3583,
3626,3627,3628,3629,3630,3631,3632,3633,3634,3635,3636,3637,3638,3639,3640,3621,
3664,3665,3666,3667,3668,3669,3670,3671,3672,3673,3674,3675,3676,3677,3678,3659,
3702,3703,3704,3705,3706,3707,3708,3709,3710,3711,3712,3713,3714,3715,3716,3697,
3740,3741,3742,3743,3744,3745,3746,3747,3748,3749,3750,3751,3752,3753,3754,3735,
3778,3779,3780,3781,3782,3783,3784,3785,3786,3787,3788,3789,3790,3791,3792,3773,
3816,3817,3818,3819,3820,3821,3822,3823,3824,3825,3826,3827,3828,3829,3830,3811,
3854,3855,3856,3857,3858,3859,3860,3861,3862,3863,3864,3865,3866,3867,3868,3849,
3892,3893,3894,3895,3896,3897,3898,3899,3900,3901,3902,3903,3904,3905,3906,3887,
3930,3931,3932,3933,3934,3935,3936,3937,3938,3939,3940,3941,3942,3943,3944,3925,
0,0,0,0,0,0,0,0,0,0,0,0,0,0,0,0,
0,0,0,0,0,0,0,0,0,0,0,0,0,0,0,0,
0,0,0,0,0,0,0,0,0,0,0,0,0,0,0,0,
0,0,0,0,0,0,0,0,0,0,0,0,0,0,0,0
</chunk>
   <chunk x="32" y="-64" width="16" height="16">
3508,3509,3510,3511,3512,3513,3514,3515,3516,3517,3518,3519,3520,3521,3522,3523,
3546,3547,3548,3549,3550,3551,3552,3553,3554,3555,3556,3557,3558,3559,3560,3561,
3584,3585,3586,3587,3588,3589,3590,3591,3592,3593,3594,3595,3596,3597,3598,3599,
3622,3623,3624,3625,3626,3627,3628,3629,3630,3631,3632,3633,3634,3635,3636,3637,
3660,3661,3662,3663,3664,3665,3666,3667,3668,3669,3670,3671,3672,3673,3674,3675,
3698,3699,3700,3701,3702,3703,3704,3705,3706,3707,3708,3709,3710,3711,3712,3713,
3736,3737,3738,3739,3740,3741,3742,3743,3744,3745,3746,3747,3748,3749,3750,3751,
3774,3775,3776,3777,3778,3779,3780,3781,3782,3783,3784,3785,3786,3787,3788,3789,
3812,3813,3814,3815,3816,3817,3818,3819,3820,3821,3822,3823,3824,3825,3826,3827,
3850,3851,3852,3853,3854,3855,3856,3857,3858,3859,3860,3861,3862,3863,3864,3865,
3888,3889,3890,3891,3892,3893,3894,3895,3896,3897,3898,3899,3900,3901,3902,3903,
3926,3927,3928,3929,3930,3931,3932,3933,3934,3935,3936,3937,3938,3939,3940,3941,
0,0,0,0,0,0,0,0,0,0,0,0,0,0,0,0,
0,0,0,0,0,0,0,0,0,0,0,0,0,0,0,0,
0,0,0,0,0,0,0,0,0,0,0,0,0,0,0,0,
0,0,0,0,0,0,0,0,0,0,0,0,0,0,0,0
</chunk>
   <chunk x="48" y="-64" width="16" height="16">
3524,3525,3526,3507,3508,3509,3510,3511,3512,3513,3514,3515,3516,3517,3518,3519,
3562,3563,3564,3545,3546,3547,3548,3549,3550,3551,3552,3553,3554,3555,3556,3557,
3600,3601,3602,3583,3584,3585,3586,3587,3588,3589,3590,3591,3592,3593,3594,3595,
3638,3639,3640,3621,3622,3623,3624,3625,3626,3627,3628,3629,3630,3631,3632,3633,
3676,3677,3678,3659,3660,3661,3662,3663,3664,3665,3666,3667,3668,3669,3670,3671,
3714,3715,3716,3697,3698,3699,3700,3701,3702,3703,3704,3705,3706,3707,3708,3709,
3752,3753,3754,3735,3736,3737,3738,3739,3740,3741,3742,3743,3744,3745,3746,3747,
3790,3791,3792,3773,3774,3775,3776,3777,3778,3779,3780,3781,3782,3783,3784,3785,
3828,3829,3830,3811,3812,3813,3814,3815,3816,3817,3818,3819,3820,3821,3822,3823,
3866,3867,3868,3849,3850,3851,3852,3853,3854,3855,3856,3857,3858,3859,3860,3861,
3904,3905,3906,3887,3888,3889,3890,3891,3892,3893,3894,3895,3896,3897,3898,3899,
3942,3943,3944,3925,3926,3927,3928,3929,3930,3931,3932,3933,3934,3935,3936,3937,
0,0,0,0,0,0,0,0,0,0,0,0,0,0,0,0,
0,0,0,0,0,0,0,0,0,0,0,0,0,0,0,0,
0,0,0,0,0,0,0,0,0,0,0,0,0,0,0,0,
0,0,0,0,0,0,0,0,0,0,0,0,0,0,0,0
</chunk>
   <chunk x="64" y="-64" width="16" height="16">
3520,3521,3522,3523,3524,3525,3526,3507,3508,3509,3510,3511,3512,3513,3514,3515,
3558,3559,3560,3561,3562,3563,3564,3545,3546,3547,3548,3549,3550,3551,3552,3553,
3596,3597,3598,3599,3600,3601,3602,3583,3584,3585,3586,3587,3588,3589,3590,3591,
3634,3635,3636,3637,3638,3639,3640,3621,3622,3623,3624,3625,3626,3627,3628,3629,
3672,3673,3674,3675,3676,3677,3678,3659,3660,3661,3662,3663,3664,3665,3666,3667,
3710,3711,3712,3713,3714,3715,3716,3697,3698,3699,3700,3701,3702,3703,3704,3705,
3748,3749,3750,3751,3752,3753,3754,3735,3736,3737,3738,3739,3740,3741,3742,3743,
3786,3787,3788,3789,3790,3791,3792,3773,3774,3775,3776,3777,3778,3779,3780,3781,
3824,3825,3826,3827,3828,3829,3830,3811,3812,3813,3814,3815,3816,3817,3818,3819,
3862,3863,3864,3865,3866,3867,3868,3849,3850,3851,3852,3853,3854,3855,3856,3857,
3900,3901,3902,3903,3904,3905,3906,3887,3888,3889,3890,3891,3892,3893,3894,3895,
3938,3939,3940,3941,3942,3943,3944,3925,3926,3927,3928,3929,3930,3931,3932,3933,
0,0,0,0,0,0,3355,3356,3357,3358,3359,3360,3361,3362,3363,3364,
0,0,0,0,0,0,3393,3394,3395,3396,3397,3398,3399,3400,3401,3402,
0,0,0,0,0,0,3431,3432,3433,3434,3435,3436,3437,3438,3439,3440,
0,0,0,0,0,0,3469,3470,3471,3472,3473,3474,3475,3476,3477,3478
</chunk>
   <chunk x="80" y="-64" width="16" height="16">
3516,3517,3518,3519,3520,3521,3522,3523,3524,3525,3526,0,0,0,0,0,
3554,3555,3556,3557,3558,3559,3560,3561,3562,3563,3564,0,0,0,0,0,
3592,3593,3594,3595,3596,3597,3598,3599,3600,3601,3602,0,0,0,0,0,
3630,3631,3632,3633,3634,3635,3636,3637,3638,3639,3640,0,0,0,0,0,
3668,3669,3670,3671,3672,3673,3674,3675,3676,3677,3678,0,0,0,0,0,
3706,3707,3708,3709,3710,3711,3712,3713,3714,3715,3716,0,0,0,0,0,
3744,3745,3746,3747,3748,3749,3750,3751,3752,3753,3754,0,0,0,0,0,
3782,3783,3784,3785,3786,3787,3788,3789,3790,3791,3792,0,0,0,0,0,
3820,3821,3822,3823,3824,3825,3826,3827,3828,3829,3830,0,0,0,0,0,
3858,3859,3860,3861,3862,3863,3864,3865,3866,3867,3868,0,0,0,0,0,
3896,3897,3898,3899,3900,3901,3902,3903,3904,3905,3906,0,0,0,0,0,
3934,3935,3936,3937,3938,3939,3940,3941,3942,3943,3944,0,0,0,0,0,
3365,3366,3367,3368,3369,3370,3371,3372,3373,3374,0,0,0,0,0,0,
3403,3404,3405,3406,3407,3408,3409,3410,3411,3412,0,0,0,0,0,0,
3441,3442,3443,3444,3445,3446,3447,3448,3449,3450,0,0,0,0,0,0,
3479,3480,3481,3482,3483,3484,3485,3486,3487,3488,0,0,0,0,0,0
</chunk>
   <chunk x="-96" y="-48" width="16" height="16">
0,0,0,0,0,0,0,3545,3546,3547,3548,3549,3550,3551,3552,3553,
0,0,0,0,0,0,0,3583,3584,3585,3586,3587,3588,3589,3590,3591,
0,0,0,0,0,0,0,3621,3622,3623,3624,3625,3626,3627,3628,3629,
0,0,0,0,0,0,0,3659,3660,3661,3662,3663,3664,3665,3666,3667,
0,0,0,0,0,0,0,3697,3698,3699,3700,3701,3702,3703,3704,3705,
0,0,0,0,0,0,0,3735,3736,3737,3738,3739,3740,3741,3742,3743,
0,0,0,0,0,0,0,3773,3774,3775,3776,3777,3778,3779,3780,3781,
0,0,0,0,0,0,0,3811,3812,3813,3814,3815,3816,3817,3818,3819,
0,0,0,0,0,0,0,3849,3850,3851,3852,3853,3854,3855,3856,3857,
0,0,0,0,0,0,0,3887,3888,3889,3890,3891,3892,3893,3894,3895,
0,0,0,0,0,0,0,3925,3926,3927,3928,3929,3930,3931,3932,3933,
0,0,0,0,0,0,0,3165,3166,3167,3168,3169,3170,3171,3172,3173,
0,0,0,0,0,0,0,3203,3204,3205,3206,3207,3208,3209,3210,3211,
0,0,0,0,0,0,0,3241,3242,3243,3244,3245,3246,3247,3248,3249,
0,0,0,0,0,0,0,3279,3280,3281,3282,3283,3284,3285,3286,3287,
0,0,0,0,0,0,0,3317,3318,3319,3320,3321,3322,3323,3324,3325
</chunk>
   <chunk x="-80" y="-48" width="16" height="16">
3554,3555,3556,3557,3558,3559,3560,3561,3562,3563,3564,0,0,0,0,0,
3592,3593,3594,3595,3596,3597,3598,3599,3600,3601,3602,0,0,0,0,0,
3630,3631,3632,3633,3634,3635,3636,3637,3638,3639,3640,0,0,0,0,0,
3668,3669,3670,3671,3672,3673,3674,3675,3676,3677,3678,0,0,0,0,0,
3706,3707,3708,3709,3710,3711,3712,3713,3714,3715,3716,0,0,0,0,0,
3744,3745,3746,3747,3748,3749,3750,3751,3752,3753,3754,0,0,0,0,0,
3782,3783,3784,3785,3786,3787,3788,3789,3790,3791,3792,0,0,0,0,0,
3820,3821,3822,3823,3824,3825,3826,3827,3828,3829,3830,0,0,0,0,0,
3858,3859,3860,3861,3862,3863,3864,3865,3866,3867,3868,0,0,0,0,0,
3896,3897,3898,3899,3900,3901,3902,3903,3904,3905,3906,0,0,0,0,0,
3934,3935,3936,3937,3938,3939,3940,3941,3942,3943,3944,0,0,0,0,0,
3174,3175,3176,3177,3178,3179,3180,3181,3182,3183,3184,0,0,0,0,0,
3212,3213,3214,3215,3216,3217,3218,3219,3220,3221,3222,0,0,0,0,0,
3250,3251,3252,3253,3254,3255,3256,3257,3258,3259,3260,0,0,0,0,0,
3288,3289,3290,3291,3292,3293,3294,3295,3296,3297,3298,0,0,0,0,0,
3326,3327,3328,3329,3330,3331,3332,3333,3334,3335,3336,0,0,0,0,0
</chunk>
   <chunk x="64" y="-48" width="16" height="16">
0,0,0,0,0,0,3507,3508,3509,3510,3511,3512,3513,3514,3515,3516,
0,0,0,0,0,0,3545,3546,3547,3548,3549,3550,3551,3552,3553,3554,
0,0,0,0,0,0,3583,3584,3585,3586,3587,3588,3589,3590,3591,3592,
0,0,0,0,0,0,3621,3622,3623,3624,3625,3626,3627,3628,3629,3630,
0,0,0,0,0,0,3659,3660,3661,3662,3663,3664,3665,3666,3667,3668,
0,0,0,0,0,0,3697,3698,3699,3700,3701,3702,3703,3704,3705,3706,
0,0,0,0,0,0,3735,3736,3737,3738,3739,3740,3741,3742,3743,3744,
0,0,0,0,0,0,3773,3774,3775,3776,3777,3778,3779,3780,3781,3782,
0,0,0,0,0,0,3811,3812,3813,3814,3815,3816,3817,3818,3819,3820,
0,0,0,0,0,0,3849,3850,3851,3852,3853,3854,3855,3856,3857,3858,
0,0,0,0,0,0,3887,3888,3889,3890,3891,3892,3893,3894,3895,3896,
0,0,0,0,0,0,3925,3926,3927,3928,3929,3930,3931,3932,3933,3934,
0,0,0,0,0,0,3165,3166,3167,3168,3169,3170,3171,3172,3173,3174,
0,0,0,0,0,0,3203,3204,3205,3206,3207,3208,3209,3210,3211,3212,
0,0,0,0,0,0,3241,3242,3243,3244,3245,3246,3247,3248,3249,3250,
0,0,0,0,0,0,3279,3280,3281,3282,3283,3284,3285,3286,3287,3288
</chunk>
   <chunk x="80" y="-48" width="16" height="16">
3517,3518,3519,3520,3521,3522,3523,3524,3525,3526,0,0,0,0,0,0,
3555,3556,3557,3558,3559,3560,3561,3562,3563,3564,0,0,0,0,0,0,
3593,3594,3595,3596,3597,3598,3599,3600,3601,3602,0,0,0,0,0,0,
3631,3632,3633,3634,3635,3636,3637,3638,3639,3640,0,0,0,0,0,0,
3669,3670,3671,3672,3673,3674,3675,3676,3677,3678,0,0,0,0,0,0,
3707,3708,3709,3710,3711,3712,3713,3714,3715,3716,0,0,0,0,0,0,
3745,3746,3747,3748,3749,3750,3751,3752,3753,3754,0,0,0,0,0,0,
3783,3784,3785,3786,3787,3788,3789,3790,3791,3792,0,0,0,0,0,0,
3821,3822,3823,3824,3825,3826,3827,3828,3829,3830,0,0,0,0,0,0,
3859,3860,3861,3862,3863,3864,3865,3866,3867,3868,0,0,0,0,0,0,
3897,3898,3899,3900,3901,3902,3903,3904,3905,3906,0,0,0,0,0,0,
3935,3936,3937,3938,3939,3940,3941,3942,3943,3944,0,0,0,0,0,0,
3175,3176,3177,3178,3179,3180,3181,3182,3183,3184,0,0,0,0,0,0,
3213,3214,3215,3216,3217,3218,3219,3220,3221,3222,0,0,0,0,0,0,
3251,3252,3253,3254,3255,3256,3257,3258,3259,3260,0,0,0,0,0,0,
3289,3290,3291,3292,3293,3294,3295,3296,3297,3298,0,0,0,0,0,0
</chunk>
   <chunk x="-96" y="-32" width="16" height="16">
0,0,0,0,0,0,0,3355,3356,3357,3358,3359,3360,3361,3362,3363,
0,0,0,0,0,0,0,3393,3394,3395,3396,3397,3398,3399,3400,3401,
0,0,0,0,0,0,0,3431,3432,3433,3434,3435,3436,3437,3438,3439,
0,0,0,0,0,0,0,3469,3470,3471,3472,3473,3474,3475,3476,3477,
0,0,0,0,0,0,0,3507,3508,3509,3510,3511,3512,3513,3514,3515,
0,0,0,0,0,0,0,3545,3546,3547,3548,3549,3550,3551,3552,3553,
0,0,0,0,0,0,0,3583,3584,3585,3586,3587,3588,3589,3590,3591,
0,0,0,0,0,0,0,3621,3622,3623,3624,3625,3626,3627,3628,3629,
0,0,0,0,0,0,0,3659,3660,3661,3662,3663,3664,3665,3666,3667,
0,0,0,0,0,0,0,3697,3698,3699,3700,3701,3702,3703,3704,3705,
0,0,0,0,0,0,0,3735,3736,3737,3738,3739,3740,3741,3742,3743,
0,0,0,0,0,0,0,3773,3774,3775,3776,3777,3778,3779,3780,3781,
0,0,0,0,0,0,0,3811,3812,3813,3814,3815,3816,3817,3818,3819,
0,0,0,0,0,0,0,3849,3850,3851,3852,3853,3854,3855,3856,3857,
0,0,0,0,0,0,0,3887,3888,3889,3890,3891,3892,3893,3894,3895,
0,0,0,0,0,0,0,3130,3130,3130,3130,3130,3130,3130,3130,3130
</chunk>
   <chunk x="-80" y="-32" width="16" height="16">
3364,3365,3366,3367,3368,3369,3370,3371,3372,3373,3374,0,0,0,0,0,
3402,3403,3404,3405,3406,3407,3408,3409,3410,3411,3412,0,0,0,0,0,
3440,3441,3442,3443,3444,3445,3446,3447,3448,3449,3450,0,0,0,0,0,
3478,3479,3480,3481,3482,3483,3484,3485,3486,3487,3488,0,0,0,0,0,
3516,3517,3518,3519,3520,3521,3522,3523,3524,3525,3526,0,0,0,0,0,
3554,3555,3556,3557,3558,3559,3560,3561,3562,3563,3564,0,0,0,0,0,
3592,3593,3594,3595,3596,3597,3598,3599,3600,3601,3602,0,0,0,0,0,
3630,3631,3632,3633,3634,3635,3636,3637,3638,3639,3640,0,0,0,0,0,
3668,3669,3670,3671,3672,3673,3674,3675,3676,3677,3678,0,0,0,0,0,
3706,3707,3708,3709,3710,3711,3712,3713,3714,3715,3716,0,0,0,0,0,
3744,3745,3746,3747,3748,3749,3750,3751,3752,3753,3754,0,0,0,0,0,
3782,3783,3784,3785,3786,3787,3788,3789,3790,3791,3792,0,0,0,0,0,
3820,3821,3822,3823,3824,3825,3826,3827,3828,3829,3830,0,0,0,0,0,
3858,3859,3860,3861,3862,3863,3864,3865,3866,3867,3868,0,0,0,0,0,
3896,3897,3898,3899,3900,3901,3902,3903,3904,3905,3906,0,0,0,0,0,
3130,3130,3130,3130,3130,3130,3130,3130,3130,3130,3130,0,0,0,0,0
</chunk>
   <chunk x="64" y="-32" width="16" height="16">
0,0,0,0,0,0,3317,3318,3319,3320,3321,3322,3323,3324,3325,3326,
0,0,0,0,0,0,3355,3356,3357,3358,3359,3360,3361,3362,3363,3364,
0,0,0,0,0,0,3393,3394,3395,3396,3397,3398,3399,3400,3401,3402,
0,0,0,0,0,0,3431,3432,3433,3434,3435,3436,3437,3438,3439,3440,
0,0,0,0,0,0,3469,3470,3471,3472,3473,3474,3475,3476,3477,3478,
0,0,0,0,0,0,3507,3508,3509,3510,3511,3512,3513,3514,3515,3516,
0,0,0,0,0,0,3545,3546,3547,3548,3549,3550,3551,3552,3553,3554,
0,0,0,0,0,0,3583,3584,3585,3586,3587,3588,3589,3590,3591,3592,
0,0,0,0,0,0,3621,3622,3623,3624,3625,3626,3627,3628,3629,3630,
0,0,0,0,0,0,3659,3660,3661,3662,3663,3664,3665,3666,3667,3668,
0,0,0,0,0,0,3697,3698,3699,3700,3701,3702,3703,3704,3705,3706,
0,0,0,0,0,0,3735,3736,3737,3738,3739,3740,3741,3742,3743,3744,
0,0,3403,3403,3403,3403,3773,3774,3775,3776,3777,3778,3779,3780,3781,3782,
0,3403,3403,3403,3403,3403,3811,3812,3813,3814,3815,3816,3817,3818,3819,3820,
0,3403,3403,3403,3403,3403,3849,3850,3851,3852,3853,3854,3855,3856,3857,3858,
3398,3403,3403,3403,3403,0,3887,3888,3889,3890,3891,3892,3893,3894,3895,3896
</chunk>
   <chunk x="80" y="-32" width="16" height="16">
3327,3328,3329,3330,3331,3332,3333,3334,3335,3336,0,0,0,0,0,0,
3365,3366,3367,3368,3369,3370,3371,3372,3373,3374,0,0,0,0,0,0,
3403,3404,3405,3406,3407,3408,3409,3410,3411,3412,0,0,0,0,0,0,
3441,3442,3443,3444,3445,3446,3447,3448,3449,3450,0,0,0,0,0,0,
3479,3480,3481,3482,3483,3484,3485,3486,3487,3488,0,0,0,0,0,0,
3517,3518,3519,3520,3521,3522,3523,3524,3525,3526,0,0,0,0,0,0,
3555,3556,3557,3558,3559,3560,3561,3562,3563,3564,0,0,0,0,0,0,
3593,3594,3595,3596,3597,3598,3599,3600,3601,3602,0,0,0,0,0,0,
3631,3632,3633,3634,3635,3636,3637,3638,3639,3640,0,0,0,0,0,0,
3669,3670,3671,3672,3673,3674,3675,3676,3677,3678,0,0,0,0,0,0,
3707,3708,3709,3710,3711,3712,3713,3714,3715,3716,0,0,0,0,0,0,
3745,3746,3747,3748,3749,3750,3751,3752,3753,3754,0,0,0,0,0,0,
3783,3784,3785,3786,3787,3788,3789,3790,3791,3792,0,0,0,0,0,0,
3821,3822,3823,3824,3825,3826,3827,3828,3829,3830,0,0,0,0,0,0,
3859,3860,3861,3862,3863,3864,3865,3866,3867,3868,0,0,0,0,0,0,
3897,3898,3899,3900,3901,3902,3903,3904,3905,3906,0,0,0,0,0,0
</chunk>
   <chunk x="16" y="-16" width="16" height="16">
0,0,0,0,0,0,0,0,0,0,0,0,0,0,0,0,
0,0,0,0,0,0,0,0,0,0,0,0,0,0,0,0,
0,0,0,0,0,0,0,0,0,0,0,0,0,0,0,0,
0,0,0,0,0,0,0,0,0,0,0,0,0,0,0,0,
0,0,0,0,0,0,0,0,0,0,0,0,0,0,0,0,
0,0,0,0,0,0,0,0,0,0,0,0,0,0,0,0,
0,0,0,0,0,0,0,0,0,0,0,0,0,0,0,0,
0,0,0,0,0,0,0,0,0,0,0,0,0,0,0,0,
0,0,0,0,0,0,0,0,0,0,0,0,0,0,0,0,
0,0,0,0,0,0,0,0,0,0,0,0,0,0,0,0,
0,0,0,0,0,0,0,0,0,0,3403,3403,0,0,0,0,
0,0,0,0,0,0,0,0,0,3403,3403,3403,3396,3396,0,0,
0,0,0,0,0,0,0,0,0,3403,3403,3403,3403,3396,3396,0,
0,0,0,0,0,0,0,0,3403,3403,3403,3403,3403,3403,3396,0,
0,0,0,0,0,0,0,3403,3403,3403,3403,3365,3403,3403,3403,3403,
0,0,0,0,0,0,3403,3403,3403,3403,3403,3365,3403,3403,3403,3403
</chunk>
   <chunk x="32" y="-16" width="16" height="16">
0,0,0,0,0,0,0,0,0,0,0,0,0,0,0,0,
0,0,0,0,0,0,0,0,0,0,0,0,0,0,0,0,
0,0,0,0,0,0,0,0,0,0,0,0,0,0,0,0,
0,0,0,0,0,0,0,0,0,0,0,0,0,0,0,0,
0,0,0,0,0,0,0,0,0,0,0,0,0,0,0,0,
0,0,0,0,0,0,0,0,0,0,0,0,0,0,0,0,
0,0,0,0,0,0,0,0,0,0,0,0,0,0,0,0,
0,0,0,0,0,0,0,0,0,0,0,0,0,0,0,0,
0,0,0,0,0,0,0,0,0,0,0,0,0,0,0,0,
0,0,0,0,0,0,0,0,0,0,0,0,0,0,0,0,
0,0,0,0,0,0,0,0,0,0,0,0,0,0,0,0,
0,0,0,0,0,0,0,0,0,0,0,0,0,0,0,0,
0,0,0,0,0,0,0,0,0,0,0,0,0,0,0,0,
0,0,0,0,0,0,0,0,0,0,0,0,0,0,0,0,
0,0,0,0,0,0,0,0,0,0,0,0,0,0,0,0,
3284,0,0,0,0,0,0,0,0,0,0,0,0,0,0,0
</chunk>
   <chunk x="48" y="-16" width="16" height="16">
0,0,0,0,0,0,0,0,0,0,0,0,0,0,0,3398,
0,0,0,0,0,0,0,0,0,0,0,0,0,0,0,3403,
0,0,0,0,0,0,0,0,0,0,0,0,0,0,0,3403,
0,0,0,0,0,0,0,0,0,0,0,0,0,0,0,3403,
0,0,0,0,0,0,0,0,0,0,0,0,0,0,0,3282,
0,0,0,0,0,0,0,0,0,0,0,0,0,0,0,3403,
0,0,0,0,0,0,0,0,0,0,0,0,0,0,3403,3403,
0,0,0,0,0,0,0,0,0,0,0,0,0,3403,3403,3403,
0,0,0,0,0,0,0,0,0,0,0,3403,3403,3403,3403,3403,
0,0,0,0,0,0,0,0,0,0,0,3403,3403,3403,3403,3403,
0,0,0,0,0,0,0,0,0,0,3403,3403,3403,3403,3403,3403,
0,0,0,0,0,0,0,0,3403,3403,3403,3403,3403,3403,3365,3365,
0,0,0,0,0,0,0,3403,3403,3403,3403,3403,3403,3403,3365,3365,
0,0,0,0,0,0,0,3403,3403,3403,3403,3365,3365,3365,3365,3365,
0,0,0,0,0,0,0,3403,3403,3403,3403,3365,0,0,0,0,
0,0,0,0,0,0,0,3403,3403,3403,3403,3365,0,0,0,0
</chunk>
   <chunk x="64" y="-16" width="16" height="16">
3398,3403,3403,3403,3403,0,3925,3926,3927,3928,3929,3930,3931,3932,3933,3934,
3403,3403,3403,3403,0,0,3165,3166,3167,3168,3169,3170,3171,3172,3173,3174,
3403,3403,3403,3403,0,0,3203,3204,3205,3206,3207,3208,3209,3210,3211,3212,
3403,3403,3403,3403,0,0,3241,3242,3243,3244,3245,3246,3247,3248,3249,3250,
3403,3403,3403,3403,0,0,3279,3280,3281,3282,3283,3284,3285,3286,3287,3288,
3403,3403,3403,3365,0,0,3317,3318,3319,3320,3321,3322,3323,3324,3325,3326,
3403,3403,3403,3365,0,0,3355,3356,3357,3358,3359,3360,3361,3362,3363,3364,
3403,3365,3365,3365,0,0,3393,3394,3395,3396,3397,3398,3399,3400,3401,3402,
3403,3365,3365,0,0,0,3431,3432,3433,3434,3435,3436,3437,3438,3439,3440,
3365,3365,3365,0,0,0,3469,3470,3471,3472,3473,3474,3475,3476,3477,3478,
3365,3365,3282,0,0,0,3507,3508,3509,3510,3511,3512,3513,3514,3515,3516,
3365,0,0,0,0,0,3545,3546,3547,3548,3549,3550,3551,3552,3553,3554,
3365,0,0,0,0,0,3583,3584,3585,3586,3587,3588,3589,3590,3591,3592,
3282,0,0,0,0,0,3621,3622,3623,3624,3625,3626,3627,3628,3629,3630,
0,0,0,0,0,0,3659,3660,3661,3662,3663,3664,3665,3666,3667,3668,
0,0,0,0,0,0,3697,3698,3699,3700,3701,3702,3703,3704,3705,3706
</chunk>
   <chunk x="80" y="-16" width="16" height="16">
3935,3936,3937,3938,3939,3940,3941,3942,3943,3944,0,0,0,0,0,0,
3175,3176,3177,3178,3179,3180,3181,3182,3183,3184,0,0,0,0,0,0,
3213,3214,3215,3216,3217,3218,3219,3220,3221,3222,0,0,0,0,0,0,
3251,3252,3253,3254,3255,3256,3257,3258,3259,3260,0,0,0,0,0,0,
3289,3290,3291,3292,3293,3294,3295,3296,3297,3298,0,0,0,0,0,0,
3327,3328,3329,3330,3331,3332,3333,3334,3335,3336,0,0,0,0,0,0,
3365,3366,3367,3368,3369,3370,3371,3372,3373,3374,0,0,0,0,0,0,
3403,3404,3405,3406,3407,3408,3409,3410,3411,3412,0,0,0,0,0,0,
3441,3442,3443,3444,3445,3446,3447,3448,3449,3450,0,0,0,0,0,0,
3479,3480,3481,3482,3483,3484,3485,3486,3487,3488,0,0,0,0,0,0,
3517,3518,3519,3520,3521,3522,3523,3524,3525,3526,0,0,0,0,0,0,
3555,3556,3557,3558,3559,3560,3561,3562,3563,3564,0,0,0,0,0,0,
3593,3594,3595,3596,3597,3598,3599,3600,3601,3602,0,0,0,0,0,0,
3631,3632,3633,3634,3635,3636,3637,3638,3639,3640,0,0,0,0,0,0,
3669,3670,3671,3672,3673,3674,3675,3676,3677,3678,0,0,0,0,0,0,
3707,3708,3709,3710,3711,3712,3713,3714,3715,3716,0,0,0,0,0,0
</chunk>
   <chunk x="16" y="0" width="16" height="16">
0,0,0,0,0,0,3403,3403,3403,3403,3365,1610616287,3365,3403,3403,3403,
0,0,0,0,0,0,3403,3403,3403,3403,3365,1610616287,3365,3403,3403,3403,
0,0,0,0,0,3403,3403,3403,3365,1610616287,1610616287,1610616287,3365,3365,3365,3403,
0,0,0,0,3403,3403,3403,3403,3365,1610616287,0,0,0,1610616287,3365,3403,
0,0,0,0,3403,3403,3403,3365,3365,0,0,0,0,0,1610616287,3365,
0,0,0,3403,3403,3403,3403,3365,0,0,0,0,0,0,1610616287,3365,
0,0,0,3403,3403,3403,3403,3365,0,0,0,0,0,0,1610616287,1610616287,
0,0,0,3403,3403,3403,3365,3365,0,0,0,0,0,0,0,0,
0,0,0,3403,3403,3403,3365,0,0,3319,3319,3319,0,0,0,0,
0,0,0,3403,3403,3403,3365,0,0,3319,3327,3327,3327,0,0,0,
0,0,0,3403,3403,3403,3365,0,0,3319,3327,3327,3327,0,0,0,
0,0,0,3403,3403,3403,3365,0,0,3319,3319,3319,3319,0,0,0,
0,0,0,3403,3403,3403,3365,0,0,0,0,0,0,0,0,0,
0,0,3403,3403,3403,3365,3365,0,0,0,0,0,0,0,0,0,
0,0,3403,3403,3403,3365,3365,0,0,0,0,0,0,0,0,0,
0,3403,3403,3403,3403,3365,3320,0,0,0,0,0,0,0,0,0
</chunk>
   <chunk x="32" y="0" width="16" height="16">
3403,0,0,0,0,0,0,0,0,0,0,0,0,0,0,0,
3403,3403,0,0,0,0,0,0,0,0,0,0,0,0,0,0,
3403,3403,3403,0,0,0,0,0,0,0,0,0,0,0,0,0,
3403,3403,3403,3403,0,0,0,0,0,0,0,0,0,0,0,0,
3403,3403,3403,3403,3403,0,0,0,0,0,0,0,0,0,0,0,
3365,3403,3403,3403,3403,3403,3403,0,0,0,0,0,0,0,0,0,
3365,3365,3403,3403,3403,3403,3403,3403,3403,0,0,0,0,0,0,0,
1610616287,1610616287,3365,3403,3403,3403,3403,3403,3403,3403,0,0,0,0,0,0,
0,1610616287,3365,3365,3403,3403,3403,3403,3403,3403,0,0,0,0,0,3403,
0,1610616287,1610616287,1610616287,3365,3365,3403,3403,3403,3403,3403,3403,3403,3403,3403,3403,
0,0,0,1610616287,1610616287,1610616287,1610616287,1610616287,3403,3403,3403,3403,3403,3403,3403,3403,
0,0,0,0,0,0,1610616287,1610616287,3403,3403,3403,3403,3403,3403,3403,3403,
0,0,0,0,0,0,0,1610616287,1610616287,3365,3365,3365,3403,3403,3403,3403,
0,0,0,0,0,0,0,0,1610616287,1610616287,1610616287,3365,3365,3365,3365,3365,
0,0,0,0,0,0,0,0,0,0,0,0,0,0,0,0,
0,0,0,0,0,0,0,0,0,0,0,0,0,0,0,0
</chunk>
   <chunk x="48" y="0" width="16" height="16">
0,0,0,0,0,0,0,3403,3403,3403,3365,3365,0,0,0,0,
0,0,0,0,0,0,0,3403,3403,3403,3365,0,0,0,0,0,
0,0,0,0,0,0,3403,3403,3403,3403,3365,0,0,0,0,0,
0,0,0,0,0,0,3403,3403,3403,3403,3365,0,0,0,0,0,
0,0,0,0,3403,3403,3403,3403,3403,3365,3362,0,0,0,0,0,
0,0,0,3403,3403,3403,3403,3403,3365,3362,0,0,0,0,0,0,
0,0,0,3403,3403,3403,3403,3403,3365,3362,0,0,0,0,0,0,
0,3403,3403,3403,3403,3365,3365,3365,0,0,0,0,0,0,0,0,
3403,3403,3403,3403,3403,3365,3365,0,0,0,0,0,0,0,0,0,
3403,3403,3403,3403,3403,3365,0,0,0,0,0,0,0,0,0,0,
3403,3403,3403,3365,3365,0,0,0,0,0,0,0,0,0,0,0,
3403,3403,3403,0,0,0,0,0,0,0,0,0,0,0,0,0,
3365,3365,0,0,0,0,0,0,0,0,0,0,0,0,0,0,
3365,0,0,0,0,0,0,0,0,0,0,0,0,0,0,0,
0,0,0,0,0,0,0,0,0,0,0,0,0,0,0,0,
0,0,0,0,0,0,0,0,0,0,0,0,0,0,0,0
</chunk>
   <chunk x="64" y="0" width="16" height="16">
0,0,0,0,0,0,3735,3736,3737,3738,3739,3740,3741,3742,3743,3744,
0,0,0,0,0,0,3773,3774,3775,3776,3777,3778,3779,3780,3781,3782,
0,0,0,0,0,0,3811,3812,3813,3814,3815,3816,3817,3818,3819,3820,
0,0,0,0,0,0,3849,3850,3851,3852,3853,3854,3855,3856,3857,3858,
0,0,0,0,0,0,3887,3888,3889,3890,3891,3892,3893,3894,3895,3896,
0,0,0,0,0,0,3925,3926,3927,3928,3929,3930,3931,3932,3933,3934,
0,0,0,0,0,0,3165,3166,3167,3168,3169,3170,3171,3172,3173,3174,
0,0,0,0,0,0,3203,3204,3205,3206,3207,3208,3209,3210,3211,3212,
0,0,0,0,0,0,3241,3242,3243,3244,3245,3246,3247,3248,3249,3250,
0,0,0,0,0,0,3279,3280,3281,3282,3283,3284,3285,3286,3287,3288,
0,0,0,0,0,0,3317,3318,3319,3320,3321,3322,3323,3324,3325,3326,
0,0,0,0,0,0,3355,3356,3357,3358,3359,3360,3361,3362,3363,3364,
0,0,0,0,0,0,3393,3394,3395,3396,3397,3398,3399,3400,3401,3402,
0,0,0,0,0,0,3431,3432,3433,3434,3435,3436,3437,3438,3439,3440,
0,0,0,0,0,0,3469,3470,3471,3472,3473,3474,3475,3476,3477,3478,
0,0,0,0,0,0,3507,3508,3509,3510,3511,3512,3513,3514,3515,3516
</chunk>
   <chunk x="80" y="0" width="16" height="16">
3745,3746,3747,3748,3749,3750,3751,3752,3753,3754,0,0,0,0,0,0,
3783,3784,3785,3786,3787,3788,3789,3790,3791,3792,0,0,0,0,0,0,
3821,3822,3823,3824,3825,3826,3827,3828,3829,3830,0,0,0,0,0,0,
3859,3860,3861,3862,3863,3864,3865,3866,3867,3868,0,0,0,0,0,0,
3897,3898,3899,3900,3901,3902,3903,3904,3905,3906,0,0,0,0,0,0,
3935,3936,3937,3938,3939,3940,3941,3942,3943,3944,0,0,0,0,0,0,
3175,3176,3177,3178,3179,3180,3181,3182,3183,3184,0,0,0,0,0,0,
3213,3214,3215,3216,3217,3218,3219,3220,3221,3222,0,0,0,0,0,0,
3251,3252,3253,3254,3255,3256,3257,3258,3259,3260,0,0,0,0,0,0,
3289,3290,3291,3292,3293,3294,3295,3296,3297,3298,0,0,0,0,0,0,
3327,3328,3329,3330,3331,3332,3333,3334,3335,3336,0,0,0,0,0,0,
3365,3366,3367,3368,3369,3370,3371,3372,3373,3374,0,0,0,0,0,0,
3403,3404,3405,3406,3407,3408,3409,3410,3411,3412,0,0,0,0,0,0,
3441,3442,3443,3444,3445,3446,3447,3448,3449,3450,0,0,0,0,0,0,
3479,3480,3481,3482,3483,3484,3485,3486,3487,3488,0,0,0,0,0,0,
3517,3518,3519,3520,3521,3522,3523,3524,3525,3526,0,0,0,0,0,0
</chunk>
   <chunk x="-16" y="16" width="16" height="16">
0,0,0,0,0,0,0,0,0,0,0,0,0,0,0,0,
0,0,0,0,0,0,0,0,0,0,0,0,0,0,0,0,
0,0,0,0,0,0,0,0,0,0,0,0,0,0,0,0,
0,0,0,0,0,0,0,0,0,0,0,0,0,0,0,0,
0,0,0,0,0,0,0,0,0,0,0,0,0,0,0,0,
0,0,0,0,0,0,0,0,0,0,0,0,0,0,0,0,
0,0,0,0,0,0,0,0,0,0,0,0,0,0,0,3403,
0,0,0,0,0,0,0,0,0,0,0,0,3244,3244,3244,3403,
0,0,0,0,0,0,0,0,0,0,0,0,3244,3403,3403,3403,
0,0,0,0,0,0,0,0,0,0,0,3244,3244,3403,3403,3365,
0,0,0,0,0,0,0,0,0,0,3403,3403,3403,3403,3403,3365,
0,0,0,0,0,0,0,0,3403,3403,3403,3403,3403,3365,3365,3245,
0,0,0,0,0,0,0,3403,3403,3403,3403,3365,3365,3365,3245,3245,
0,0,0,0,0,0,3403,3403,3403,3403,3365,3365,3365,3245,3245,0,
0,0,0,0,0,3298,3298,3403,3403,3403,3365,3245,3245,3245,0,0,
0,0,0,3298,3298,3298,3298,3365,3245,3245,3245,3245,0,0,0,0
</chunk>
   <chunk x="0" y="16" width="16" height="16">
0,0,0,0,0,0,0,0,0,0,0,0,0,0,0,0,
0,0,0,0,0,0,0,0,0,0,0,0,0,0,0,0,
0,0,0,0,0,0,0,0,0,0,0,0,3403,3403,3403,3403,
0,0,0,0,0,0,3403,3403,3403,3403,3403,3403,3403,3403,3403,3403,
0,3403,3403,3403,3403,3403,3403,3403,3403,3403,3403,3403,3403,3403,3403,3403,
3403,3403,3403,3403,3403,3403,3403,3403,3403,3403,3403,3403,3403,3403,3365,3365,
3403,3403,3403,3403,3403,3403,3403,3403,3403,3403,3403,3403,3365,3365,3365,3477,
3403,3403,3403,3243,3244,3365,3365,3365,3365,3365,3365,3365,3365,3365,3365,3477,
3403,3365,3365,3281,3282,0,0,0,0,0,0,0,0,0,0,0,
3365,3365,3245,3319,3320,0,0,0,0,0,0,0,0,0,0,0,
3245,3245,3245,0,0,0,0,0,0,0,0,0,0,0,0,0,
3245,0,0,0,0,0,0,0,0,0,0,0,0,0,0,0,
0,0,0,0,0,0,0,0,0,0,0,0,0,0,0,0,
0,0,0,0,0,0,0,0,0,0,0,0,0,0,0,0,
0,0,0,0,0,0,0,0,0,0,0,0,0,0,0,0,
0,0,0,0,0,0,0,0,0,0,0,0,0,0,0,0
</chunk>
   <chunk x="16" y="16" width="16" height="16">
3403,3403,3403,3403,3365,3365,3320,0,0,0,0,0,0,0,0,0,
3403,3403,3403,3403,3365,3320,0,0,0,0,0,0,0,0,0,0,
3403,3403,3403,3403,3365,3320,0,0,0,0,0,0,0,0,0,0,
3403,3365,3365,3365,3320,0,0,0,0,0,0,0,0,0,0,0,
3403,3365,3365,3365,3320,0,0,0,0,0,0,0,0,0,0,0,
3365,3365,3320,3320,3320,0,0,0,0,0,0,0,0,0,0,0,
3477,3477,0,0,0,0,0,0,0,0,0,0,0,0,0,0,
0,0,0,0,0,0,0,0,0,0,0,0,0,0,0,0,
0,0,0,0,0,0,0,0,0,0,0,0,0,0,0,0,
0,0,0,0,0,0,0,0,0,0,0,0,0,0,0,0,
0,0,0,0,0,0,0,0,0,0,0,0,0,0,0,0,
0,0,0,0,0,0,0,0,0,0,0,0,0,0,0,0,
0,0,0,0,0,0,0,0,0,0,0,0,0,0,0,0,
0,0,0,0,0,0,0,0,0,0,0,0,0,0,0,0,
0,0,0,0,0,0,0,0,0,0,0,0,0,0,0,0,
0,0,0,0,0,0,0,0,0,0,0,0,0,0,0,0
</chunk>
   <chunk x="64" y="16" width="16" height="16">
0,0,0,0,0,0,3545,3546,3547,3548,3549,3550,3551,3552,3553,3554,
0,0,0,0,0,0,3583,3584,3585,3586,3587,3588,3589,3590,3591,3592,
0,0,0,0,0,0,3621,3622,3623,3624,3625,3626,3627,3628,3629,3630,
0,0,0,0,0,0,3659,3660,3661,3662,3663,3664,3665,3666,3667,3668,
0,0,0,0,0,0,3697,3698,3699,3700,3701,3702,3703,3704,3705,3706,
0,0,0,0,0,0,3735,3736,3737,3738,3739,3740,3741,3742,3743,3744,
0,0,0,0,0,0,3773,3774,3775,3776,3777,3778,3779,3780,3781,3782,
0,0,0,0,0,0,3811,3812,3813,3814,3815,3816,3817,3818,3819,3820,
0,0,0,0,0,0,3849,3850,3851,3852,3853,3854,3855,3856,3857,3858,
0,0,0,0,0,0,3887,3888,3889,3890,3891,3892,3893,3894,3895,3896,
0,0,0,0,0,0,3925,3926,3927,3928,3929,3930,3931,3932,3933,3934,
0,0,0,0,0,0,3165,3166,3167,3168,3169,3170,3171,3172,3173,3174,
0,0,0,0,0,0,3203,3204,3205,3206,3207,3208,3209,3210,3211,3212,
0,0,0,0,0,0,3241,3242,3243,3244,3245,3246,3247,3248,3249,3250,
0,0,0,0,0,0,3279,3280,3281,3282,3283,3284,3285,3286,3287,3288,
0,0,0,0,0,0,3317,3318,3319,3320,3321,3322,3323,3324,3325,3326
</chunk>
   <chunk x="80" y="16" width="16" height="16">
3555,3556,3557,3558,3559,3560,3561,3562,3563,3564,0,0,0,0,0,0,
3593,3594,3595,3596,3597,3598,3599,3600,3601,3602,0,0,0,0,0,0,
3631,3632,3633,3634,3635,3636,3637,3638,3639,3640,0,0,0,0,0,0,
3669,3670,3671,3672,3673,3674,3675,3676,3677,3678,0,0,0,0,0,0,
3707,3708,3709,3710,3711,3712,3713,3714,3715,3716,0,0,0,0,0,0,
3745,3746,3747,3748,3749,3750,3751,3752,3753,3754,0,0,0,0,0,0,
3783,3784,3785,3786,3787,3788,3789,3790,3791,3792,0,0,0,0,0,0,
3821,3822,3823,3824,3825,3826,3827,3828,3829,3830,0,0,0,0,0,0,
3859,3860,3861,3862,3863,3864,3865,3866,3867,3868,0,0,0,0,0,0,
3897,3898,3899,3900,3901,3902,3903,3904,3905,3906,0,0,0,0,0,0,
3935,3936,3937,3938,3939,3940,3941,3942,3943,3944,0,0,0,0,0,0,
3175,3176,3177,3178,3179,3180,3181,3182,3183,3184,0,0,0,0,0,0,
3213,3214,3215,3216,3217,3218,3219,3220,3221,3222,0,0,0,0,0,0,
3251,3252,3253,3254,3255,3256,3257,3258,3259,3260,0,0,0,0,0,0,
3289,3290,3291,3292,3293,3294,3295,3296,3297,3298,0,0,0,0,0,0,
3327,3328,3329,3330,3331,3332,3333,3334,3335,3336,0,0,0,0,0,0
</chunk>
   <chunk x="-64" y="32" width="16" height="16">
0,0,0,0,0,0,0,0,0,0,0,0,0,0,0,0,
0,0,0,0,0,0,0,0,0,0,0,0,0,0,0,0,
0,0,0,0,0,0,0,0,0,0,0,0,0,0,0,0,
0,0,0,0,0,0,0,0,0,0,0,0,0,0,0,0,
0,0,0,0,0,0,0,0,0,0,0,0,0,0,0,0,
0,0,0,0,0,0,0,0,0,0,0,0,0,0,0,0,
0,0,0,0,0,0,0,0,0,0,0,0,0,0,0,0,
0,0,0,0,0,0,0,3204,3205,3206,3207,3208,3209,3210,3211,3212,
0,0,0,0,3479,3480,3481,3482,3483,3484,3484,3246,3247,3248,3249,3250,
0,0,0,3479,3480,3481,3482,3483,3484,3484,3522,3284,3285,3286,3287,3288,
0,0,0,3479,3480,3481,3482,3483,3484,3522,3560,3322,3323,3324,3325,3326,
0,0,0,3479,3480,3481,3482,3483,3484,3560,3598,3360,3361,3362,3363,3364,
0,0,3479,3480,3481,3482,3483,3484,3484,3598,3636,3398,3399,3400,3401,3402,
0,0,3479,3480,3481,3482,3483,3484,3522,3636,3674,3436,3437,3438,3439,3440,
0,3479,3480,3481,3482,3483,3484,3484,3560,3674,3473,3474,3475,3476,3477,3478,
0,3517,3518,3519,3520,3521,3522,3522,3598,3510,3511,3512,3513,3514,3515,3516
</chunk>
   <chunk x="-48" y="32" width="16" height="16">
0,0,0,0,0,0,0,0,0,0,0,0,0,0,0,0,
0,0,0,0,0,0,0,0,0,0,0,0,0,0,0,0,
0,0,0,0,0,0,0,0,0,0,0,0,0,0,0,0,
0,0,0,0,0,0,0,0,0,0,0,0,0,0,0,0,
0,0,0,0,0,0,0,0,0,0,0,0,0,0,0,0,
0,0,0,0,0,0,0,0,0,0,0,0,0,0,0,0,
0,0,0,0,0,0,0,0,0,0,0,0,0,0,0,0,
3213,0,0,0,0,0,0,0,0,0,0,0,0,0,0,0,
3251,0,0,0,0,0,0,0,0,0,0,0,0,0,0,0,
3289,0,0,0,0,0,0,0,0,0,0,0,0,0,0,0,
3327,0,0,0,0,0,0,0,0,0,0,0,0,0,0,0,
3365,0,0,0,0,0,0,0,0,0,0,0,0,0,0,0,
3403,0,0,0,0,0,0,0,0,0,0,0,0,0,0,0,
3441,0,0,0,0,0,0,0,0,0,0,0,0,0,0,0,
3479,0,0,0,0,0,0,0,0,0,0,0,0,0,0,0,
3517,0,0,0,0,0,0,0,0,0,0,0,0,0,0,0
</chunk>
   <chunk x="-32" y="32" width="16" height="16">
0,0,0,0,0,0,0,0,0,0,0,0,0,0,0,0,
0,0,0,0,0,0,0,0,0,0,0,0,0,0,0,3393,
0,0,0,0,0,0,0,0,0,0,0,0,0,0,0,3298,
0,0,0,0,0,0,0,0,0,0,0,0,0,0,3245,3245,
0,0,0,0,0,0,0,0,0,0,0,0,3245,3245,3245,3298,
0,0,0,0,0,0,0,0,0,0,0,3245,3245,3298,3298,3298,
0,0,0,0,0,0,0,0,0,3245,3245,3298,3362,3298,3298,3298,
0,0,0,0,0,0,0,0,3298,3298,3298,3298,3362,3298,3298,3298,
0,0,0,0,0,0,0,0,0,0,0,3298,3298,3298,0,0,
0,0,0,0,0,0,0,0,0,0,0,3298,3298,0,0,0,
0,0,0,0,0,0,0,0,0,0,0,0,0,0,0,0,
0,0,0,0,0,0,0,0,0,0,0,0,0,0,0,0,
0,0,0,0,0,0,0,0,0,0,0,0,0,0,0,0,
0,0,0,0,0,0,0,0,0,0,0,0,0,0,0,0,
0,0,0,0,0,0,0,0,0,0,0,0,0,0,0,0,
0,0,0,0,0,0,0,0,0,0,0,0,0,0,0,0
</chunk>
   <chunk x="-16" y="32" width="16" height="16">
0,0,3298,3298,3298,3298,3298,3365,3245,3245,3245,0,0,0,0,0,
3245,3245,3298,3298,3298,3298,3245,3245,3245,0,0,0,0,0,0,0,
3245,3245,3298,3298,3365,3245,3245,0,0,0,0,0,0,0,0,0,
3245,3298,3298,3245,3245,3245,0,0,0,0,0,0,0,0,0,0,
3298,3298,3245,3245,3245,0,0,0,0,0,0,0,0,0,0,0,
3298,3245,3245,3245,0,0,0,0,0,0,0,0,0,0,0,0,
3245,3245,0,0,0,0,0,0,0,0,0,0,0,0,0,0,
3245,0,0,0,0,0,0,0,0,0,0,0,0,0,0,0,
0,0,0,0,0,0,0,0,0,0,0,0,0,0,0,0,
0,0,0,0,0,0,0,0,0,0,0,0,0,0,0,0,
0,0,0,0,0,0,0,0,0,0,0,0,0,0,0,0,
0,0,0,0,0,0,0,0,0,0,0,0,0,0,0,0,
0,0,0,0,0,0,0,0,0,0,0,0,0,0,0,0,
0,0,0,0,0,0,0,0,0,0,0,0,0,0,0,0,
0,0,0,0,0,0,0,0,0,0,0,0,0,0,0,0,
0,0,0,0,0,0,0,0,0,0,0,0,0,0,0,0
</chunk>
   <chunk x="64" y="32" width="16" height="16">
0,0,0,0,0,0,3355,3356,3357,3358,3359,3360,3361,3362,3363,3364,
0,0,0,0,0,0,3393,3394,3395,3396,3397,3398,3399,3400,3401,3402,
0,0,0,0,0,0,3431,3432,3433,3434,3435,3436,3437,3438,3439,3440,
0,0,0,0,0,0,3469,3470,3471,3472,3473,3474,3475,3476,3477,3478,
0,0,0,0,0,0,3507,3508,3509,3510,3511,3512,3513,3514,3515,3516,
0,0,0,0,0,0,3545,3546,3547,3548,3549,3550,3551,3552,3553,3554,
0,0,0,0,0,0,3583,3584,3585,3586,3587,3588,3589,3590,3591,3592,
0,0,0,0,0,0,3621,3622,3623,3624,3625,3626,3627,3628,3629,3630,
0,0,0,0,0,0,3659,3660,3661,3662,3663,3664,3665,3666,3667,3668,
0,0,0,0,0,0,3697,3698,3699,3700,3701,3702,3703,3704,3705,3706,
0,0,0,0,0,0,3735,3736,3737,3738,3739,3740,3741,3742,3743,3744,
0,0,0,0,0,0,3773,3774,3775,3776,3777,3778,3779,3780,3781,3782,
0,0,0,0,0,0,3811,3812,3813,3814,3815,3816,3817,3818,3819,3820,
0,0,0,0,0,0,3849,3850,3851,3852,3853,3854,3855,3856,3857,3858,
0,0,0,0,0,0,3887,3888,3889,3890,3891,3892,3893,3894,3895,3896,
0,0,0,0,0,0,3925,3926,3927,3928,3929,3930,3931,3932,3933,3934
</chunk>
   <chunk x="80" y="32" width="16" height="16">
3365,3366,3367,3368,3369,3370,3371,3372,3373,3374,0,0,0,0,0,0,
3403,3404,3405,3406,3407,3408,3409,3410,3411,3412,0,0,0,0,0,0,
3441,3442,3443,3444,3445,3446,3447,3448,3449,3450,0,0,0,0,0,0,
3479,3480,3481,3482,3483,3484,3485,3486,3487,3488,0,0,0,0,0,0,
3517,3518,3519,3520,3521,3522,3523,3524,3525,3526,0,0,0,0,0,0,
3555,3556,3557,3558,3559,3560,3561,3562,3563,3564,0,0,0,0,0,0,
3593,3594,3595,3596,3597,3598,3599,3600,3601,3602,0,0,0,0,0,0,
3631,3632,3633,3634,3635,3636,3637,3638,3639,3640,0,0,0,0,0,0,
3669,3670,3671,3672,3673,3674,3675,3676,3677,3678,0,0,0,0,0,0,
3707,3708,3709,3710,3711,3712,3713,3714,3715,3716,0,0,0,0,0,0,
3745,3746,3747,3748,3749,3750,3751,3752,3753,3754,0,0,0,0,0,0,
3783,3784,3785,3786,3787,3788,3789,3790,3791,3792,0,0,0,0,0,0,
3821,3822,3823,3824,3825,3826,3827,3828,3829,3830,0,0,0,0,0,0,
3859,3860,3861,3862,3863,3864,3865,3866,3867,3868,0,0,0,0,0,0,
3897,3898,3899,3900,3901,3902,3903,3904,3905,3906,0,0,0,0,0,0,
3935,3936,3937,3938,3939,3940,3941,3942,3943,3944,0,0,0,0,0,0
</chunk>
   <chunk x="-96" y="48" width="16" height="16">
0,0,0,0,0,0,0,0,0,0,0,0,0,0,0,0,
0,0,0,0,0,0,0,0,0,0,0,0,0,0,0,0,
0,0,0,0,0,0,0,0,0,0,0,0,0,0,0,0,
0,0,0,0,0,0,0,0,0,0,0,0,0,0,0,0,
0,0,0,0,0,0,0,0,0,0,0,0,0,0,0,0,
0,0,0,0,0,0,0,0,0,0,0,0,0,0,0,0,
0,0,0,0,0,0,0,0,0,0,0,0,0,0,0,0,
0,0,0,0,0,0,0,0,0,0,0,0,0,0,0,0,
0,0,0,0,0,0,0,0,0,0,0,0,0,0,0,0,
0,0,0,0,0,0,0,0,0,0,0,0,0,0,0,0,
0,0,0,0,0,0,0,0,0,0,0,0,0,0,0,0,
0,0,0,0,0,0,0,0,0,0,0,0,0,0,0,0,
0,0,0,0,0,0,0,0,0,0,0,0,0,0,0,0,
0,0,0,0,0,0,0,0,0,0,0,0,0,0,0,3242,
0,0,0,0,0,0,0,0,0,0,0,0,0,0,0,3242,
0,0,0,0,0,0,0,0,0,0,0,0,0,3242,3243,3244
</chunk>
   <chunk x="-80" y="48" width="16" height="16">
0,0,0,0,0,0,0,0,0,0,0,0,0,0,0,0,
0,0,0,0,0,0,0,0,0,0,0,0,0,0,0,0,
0,0,0,0,0,0,0,0,0,0,0,0,0,0,0,0,
0,0,0,0,0,0,0,0,0,0,0,0,0,0,0,0,
0,0,0,0,0,0,0,0,0,0,0,0,0,0,0,0,
0,0,0,0,0,0,0,0,0,0,0,0,0,0,0,0,
0,0,0,0,0,0,0,0,0,0,0,3443,3443,3443,3443,3514,
0,0,0,0,0,0,0,0,0,0,0,3443,3242,3243,3244,3245,
0,0,0,0,0,0,0,0,0,0,3242,3243,3244,3245,3245,3283,
0,0,0,0,0,0,0,0,0,3242,3243,3244,3245,3245,3283,3321,
0,0,0,0,0,0,0,0,3242,3243,3244,3245,3283,3283,3321,3359,
0,0,0,0,0,0,0,3242,3243,3244,3245,3245,3321,3321,3359,0,
3242,3243,3244,3245,3245,3245,3243,3244,3245,3245,3245,3283,3359,3359,0,0,
3243,3244,3245,3245,3283,3283,3245,3245,3245,3283,3283,3321,0,0,0,0,
3243,3244,3245,3283,3321,3321,3283,3283,3283,3321,3321,3359,0,0,0,0,
3245,3245,3283,3321,3359,3359,3321,3321,3321,3359,3359,0,0,0,0,0
</chunk>
   <chunk x="-64" y="48" width="16" height="16">
0,3555,3556,3557,3558,3559,3560,3560,3636,3548,3549,3550,3551,3552,3553,3554,
0,3593,3594,3595,3596,3597,3598,3598,3674,3586,3587,3588,3589,3590,3591,3592,
0,3631,3632,3633,3634,3635,3636,3636,0,0,0,0,0,0,0,0,
0,3669,3670,3671,3672,3673,3674,3674,0,0,0,0,0,0,0,0,
0,0,0,0,0,0,0,0,0,0,0,0,0,0,0,0,
0,0,0,0,0,0,0,0,0,0,0,0,0,0,0,0,
3515,3516,3517,3518,3519,0,0,0,0,0,0,0,0,0,1752,0,
3245,3554,3555,3556,3557,0,0,0,0,0,0,0,0,0,3298,0,
3283,3592,3593,3594,3595,0,0,0,0,0,0,0,0,0,0,0,
3321,3630,3631,3632,3633,0,0,0,0,0,0,0,0,0,0,0,
3359,3668,3669,3670,3671,0,0,0,0,0,0,0,0,0,0,0,
0,3706,3707,3708,3709,0,0,0,0,0,0,0,0,0,0,0,
0,0,0,0,0,0,0,0,0,0,0,0,0,0,0,0,
0,0,0,0,0,0,0,0,0,0,0,0,0,0,0,0,
0,0,0,0,0,0,0,0,0,0,0,0,0,0,0,0,
0,0,0,0,0,0,0,0,0,0,0,0,0,0,0,0
</chunk>
   <chunk x="-48" y="48" width="16" height="16">
3555,0,0,0,0,0,0,0,0,0,0,0,0,0,0,0,
3593,0,0,0,0,0,0,0,0,0,0,0,0,0,0,0,
0,0,0,0,0,0,0,0,0,0,0,0,0,0,0,0,
0,0,0,0,0,0,0,0,0,0,0,0,0,0,0,0,
0,0,0,0,0,0,0,0,0,0,0,0,0,0,0,0,
0,0,0,0,0,0,0,0,0,0,0,0,0,0,0,0,
0,0,0,0,0,0,0,0,0,0,0,0,0,0,0,0,
0,0,0,0,0,0,0,0,0,0,0,0,0,0,0,0,
0,0,0,0,0,0,0,0,0,0,0,0,0,0,0,0,
0,0,0,0,0,0,0,0,0,0,0,0,0,0,0,3284,
0,0,0,0,0,0,0,0,0,0,0,0,3745,3284,3284,3284,
0,0,0,0,0,0,0,0,0,0,0,0,0,0,0,0,
0,0,0,0,0,0,0,0,0,0,0,0,0,0,0,0,
0,0,0,0,0,0,0,0,0,0,0,0,0,0,0,0,
0,0,0,0,0,0,0,0,0,0,0,0,0,0,0,0,
0,0,0,0,0,0,0,0,0,0,0,0,0,0,0,0
</chunk>
   <chunk x="-32" y="48" width="16" height="16">
0,0,0,0,0,0,0,0,0,0,0,0,0,0,0,0,
0,0,0,0,0,0,0,0,0,0,0,0,0,0,0,0,
0,0,0,0,0,0,0,0,0,0,0,0,0,0,0,0,
0,0,0,0,0,0,0,0,0,0,0,0,0,0,0,0,
0,0,0,0,0,0,0,0,0,0,0,0,0,0,0,0,
0,0,0,0,0,0,0,0,0,0,0,0,0,0,0,0,
0,0,0,0,0,0,0,0,0,0,0,0,0,0,0,0,
0,0,0,0,0,0,0,0,0,0,0,0,0,0,0,0,
0,0,0,0,0,0,0,0,0,0,0,0,0,0,0,0,
3284,3284,0,0,0,0,0,0,0,0,0,0,0,0,0,0,
3284,3284,3284,3284,3284,3284,3284,3284,3284,3284,0,0,0,0,0,0,
0,0,0,0,0,0,0,0,0,0,0,0,0,0,0,0,
0,0,0,0,0,0,0,0,0,0,0,0,0,0,0,0,
0,0,0,0,0,0,0,0,0,0,0,0,0,0,0,0,
0,0,0,0,0,0,0,0,0,0,0,0,0,0,0,0,
0,0,0,0,0,0,0,0,0,0,0,0,0,0,0,0
</chunk>
   <chunk x="64" y="48" width="16" height="16">
0,0,0,0,0,0,3165,3166,3167,3168,3169,3170,3171,3172,3173,3174,
0,0,0,0,0,0,3203,3204,3205,3206,3207,3208,3209,3210,3211,3212,
0,0,0,0,0,0,3241,3242,3243,3244,3245,3246,3247,3248,3249,3250,
0,0,0,0,0,0,0,0,0,0,0,0,0,0,0,0,
0,0,0,0,0,0,0,0,0,0,0,0,0,0,0,0,
0,0,0,0,0,0,0,0,0,0,0,0,0,0,0,0,
0,0,0,0,0,0,0,0,0,0,0,0,0,0,0,0,
0,0,0,0,0,0,0,0,0,0,0,0,0,0,0,0,
0,0,0,0,0,0,0,0,0,0,0,0,0,0,0,0,
0,0,0,0,0,0,0,0,0,0,0,0,0,0,0,0,
0,0,0,0,0,0,0,0,0,0,0,0,0,0,0,0,
0,0,0,0,0,0,0,0,0,0,0,0,0,0,0,0,
0,0,0,0,0,0,0,0,0,0,0,0,0,0,0,0,
0,0,0,0,0,0,0,0,0,0,0,0,0,0,0,0,
0,0,0,0,0,0,0,0,0,0,0,0,0,0,0,0,
0,0,0,0,0,0,0,0,0,0,0,0,0,0,0,0
</chunk>
   <chunk x="80" y="48" width="16" height="16">
3175,3176,3177,3178,3179,3180,3181,3182,3183,3184,0,0,0,0,0,0,
3213,3214,3215,3216,3217,3218,3219,3220,3221,3222,0,0,0,0,0,0,
3251,3252,3253,3254,3255,3256,3257,3258,3259,3260,0,0,0,0,0,0,
0,0,0,0,0,0,0,0,0,0,0,0,0,0,0,0,
0,0,0,0,0,0,0,0,0,0,0,0,0,0,0,0,
0,0,0,0,0,0,0,0,0,0,0,0,0,0,0,0,
0,0,0,0,0,0,0,0,0,0,0,0,0,0,0,0,
0,0,0,0,0,0,0,0,0,0,0,0,0,0,0,0,
0,0,0,0,0,0,0,0,0,0,0,0,0,0,0,0,
0,0,0,0,0,0,0,0,0,0,0,0,0,0,0,0,
0,0,0,0,0,0,0,0,0,0,0,0,0,0,0,0,
0,0,0,0,0,0,0,0,0,0,0,0,0,0,0,0,
0,0,0,0,0,0,0,0,0,0,0,0,0,0,0,0,
0,0,0,0,0,0,0,0,0,0,0,0,0,0,0,0,
0,0,0,0,0,0,0,0,0,0,0,0,0,0,0,0,
0,0,0,0,0,0,0,0,0,0,0,0,0,0,0,0
</chunk>
   <chunk x="-128" y="64" width="16" height="16">
0,0,0,0,0,0,0,0,0,0,0,0,0,0,0,0,
0,0,0,0,0,0,0,0,0,0,0,0,0,0,0,0,
0,0,0,0,0,0,0,0,0,0,0,0,0,0,0,0,
0,0,0,0,0,0,0,0,0,0,0,0,0,0,0,0,
0,0,0,0,0,0,0,0,0,0,0,0,0,0,0,0,
0,0,0,0,0,0,0,0,0,0,0,0,0,0,0,0,
0,0,0,0,0,0,0,0,0,0,0,0,0,0,0,0,
0,0,0,0,0,0,0,0,0,0,0,0,0,0,3242,3243,
0,0,0,0,0,0,0,0,0,0,0,3242,3243,3244,3245,3245,
0,0,0,0,0,0,0,3242,3243,3244,3245,3245,3245,3245,3283,3283,
0,0,0,0,0,0,0,3280,3281,3282,3283,3283,3283,3283,3321,3321,
0,0,0,0,0,0,0,3318,3319,3320,3321,3321,3321,3321,3359,3359,
0,0,0,0,0,0,0,3356,3357,3358,3359,3359,3359,3359,0,0,
0,0,0,0,0,0,0,0,0,0,0,0,0,0,0,0,
0,0,0,0,0,0,0,0,0,0,0,0,0,0,0,0,
0,0,0,0,0,0,0,0,0,0,0,0,0,0,0,0
</chunk>
   <chunk x="-112" y="64" width="16" height="16">
0,0,0,0,0,0,0,0,0,0,0,0,0,0,0,0,
0,0,0,0,0,0,0,0,0,0,0,0,0,0,0,0,
0,0,0,0,0,0,0,0,0,0,0,0,0,0,0,0,
0,0,0,0,0,0,0,0,0,0,0,0,0,0,0,0,
0,0,0,0,0,0,0,0,0,0,0,0,0,0,0,0,
0,0,0,0,0,0,0,0,0,0,0,0,0,0,0,0,
0,0,3242,3243,3244,3245,3245,3245,3245,3245,3245,3245,3245,3245,3245,3245,
3244,3245,3245,3245,3245,3283,3283,3283,3283,3283,3283,3283,3283,3283,3283,3283,
3245,3283,3283,3283,3283,3321,3321,3321,3321,3321,3321,3321,3321,3321,3321,3321,
3283,3321,3321,3321,3321,3359,3359,3359,3359,3359,3359,3359,3359,3359,3359,3359,
3321,3359,3359,3359,3359,0,0,0,0,0,0,0,0,0,0,0,
3359,0,0,0,0,0,0,0,0,0,0,0,0,0,0,0,
0,0,0,0,0,0,0,0,0,0,0,0,0,0,0,0,
0,0,0,0,0,0,0,0,0,0,0,0,0,0,0,0,
0,0,0,0,0,0,0,0,0,0,0,0,0,0,0,0,
0,0,0,0,0,0,0,0,0,0,0,0,0,0,0,0
</chunk>
   <chunk x="-96" y="64" width="16" height="16">
0,0,0,0,0,0,0,0,0,0,0,0,3242,3243,3244,3245,
0,0,0,0,0,0,0,0,0,0,0,3242,3243,3244,3245,3245,
0,0,0,0,0,0,0,0,0,0,3242,3243,3244,3245,3283,3283,
0,0,0,0,0,0,0,0,3242,3243,3244,3245,3245,3283,3321,3321,
0,0,0,0,0,3242,3243,3244,3245,3245,3245,3245,3283,3321,3359,3359,
0,3242,3243,3244,3245,3245,3245,3245,3245,3283,3283,3283,3321,3359,0,0,
3245,3245,3245,3245,3283,3283,3283,3283,3283,3321,3321,3321,3359,0,0,0,
3283,3283,3283,3283,3321,3321,3321,3321,3321,3359,3359,3359,0,0,0,0,
3321,3321,3321,3321,3359,3359,3359,3359,3359,0,0,0,0,0,0,0,
3359,3359,3359,3359,0,0,0,0,0,0,0,0,0,0,0,0,
0,0,0,0,0,0,0,0,0,0,0,0,0,0,0,0,
0,0,0,0,0,0,0,0,0,0,0,0,0,0,0,0,
0,0,0,0,0,0,0,0,0,0,0,0,0,0,0,0,
0,0,0,0,0,0,0,0,0,0,0,0,0,0,0,0,
0,0,0,0,0,0,0,0,0,0,0,0,0,0,0,0,
0,0,0,0,0,0,0,0,0,0,0,0,0,0,0,0
</chunk>
   <chunk x="-80" y="64" width="16" height="16">
3245,3283,3321,3359,3358,3359,3359,3359,3359,0,0,0,0,0,0,0,
3283,3321,3359,0,0,0,0,0,0,0,0,0,0,0,0,0,
3321,3359,0,0,0,0,0,0,0,0,0,0,0,0,0,0,
3359,0,0,0,0,0,0,0,0,0,0,0,0,0,0,0,
0,0,0,0,0,0,0,0,0,0,0,0,0,0,0,0,
0,0,0,0,0,0,0,0,0,0,0,0,0,0,0,0,
0,0,0,0,0,0,0,0,0,0,0,0,0,0,0,0,
0,0,0,0,0,0,0,0,0,0,0,0,0,0,0,0,
0,0,0,0,0,0,0,0,0,0,0,0,0,0,0,0,
0,0,0,0,0,0,0,0,0,0,0,0,0,0,0,0,
0,0,0,0,0,0,0,0,0,0,0,0,0,0,0,0,
0,0,0,0,0,0,0,0,0,0,0,0,0,0,0,0,
0,0,0,0,0,0,0,0,0,0,0,0,0,0,0,0,
0,0,0,0,0,0,0,0,0,0,0,0,0,0,0,0,
0,0,0,0,0,0,0,0,0,0,0,0,0,0,0,0,
0,0,0,0,0,0,0,0,0,0,0,0,0,0,0,0
</chunk>
  </data>
 </layer>
 <layer id="18" name="Su ayrıntılar" width="30" height="20">
  <data encoding="csv">
   <chunk x="64" y="-80" width="16" height="16">
0,0,0,0,0,0,0,0,0,0,0,0,0,0,0,0,
0,0,0,0,0,0,0,0,0,0,0,0,0,0,0,0,
0,0,0,0,0,0,0,0,0,0,0,0,0,0,0,0,
0,0,0,0,0,0,0,0,0,0,0,0,0,0,0,0,
0,0,0,0,0,0,0,0,0,0,0,0,0,0,0,0,
0,0,0,0,0,0,0,0,0,0,0,0,0,0,0,0,
0,0,0,0,0,0,0,0,0,0,0,0,0,0,0,0,
3209,3210,3211,3212,3213,3214,3215,3216,3217,3218,3219,3220,0,0,0,0,
3247,3248,3249,3250,3251,3252,3253,3254,3255,3256,3257,3258,0,0,0,0,
3285,3286,3287,3288,3289,3290,3291,3292,3293,3294,3295,3296,0,0,0,0,
3323,3324,3325,3326,3327,3328,3329,3330,3331,3332,3333,3334,0,0,0,0,
3361,3362,3363,3364,3365,3366,3367,3368,3369,3370,3371,3372,0,0,0,0,
3399,3400,3401,3402,3403,3404,3405,3406,3407,3408,3409,3410,0,0,0,0,
3437,3438,3439,3440,3441,3442,3443,3444,3445,3446,3447,3448,0,0,0,0,
3475,3476,3477,3478,3479,3480,3481,3482,3483,3484,3485,3486,0,0,0,0,
3513,3514,3515,3516,3517,3518,3519,3520,3521,3522,3523,3524,0,0,0,0
</chunk>
   <chunk x="-80" y="-64" width="16" height="16">
0,0,0,0,0,0,0,0,0,0,0,0,0,0,0,0,
0,0,0,0,0,0,0,0,0,0,0,0,0,0,0,0,
0,0,0,0,0,0,0,0,0,0,0,0,0,0,0,0,
0,0,0,0,0,0,0,0,0,0,0,0,0,0,0,0,
0,0,0,0,0,0,0,0,0,0,0,0,0,0,0,0,
0,0,0,0,0,0,0,0,0,0,0,0,0,0,0,0,
0,0,0,0,0,0,0,0,0,0,0,0,0,0,0,0,
0,0,0,0,0,0,0,0,0,0,0,0,0,0,0,0,
0,0,0,0,0,0,0,0,0,0,0,0,0,0,0,0,
0,0,0,0,0,0,0,0,0,0,0,0,0,0,0,0,
0,0,0,0,0,0,0,0,0,0,0,0,0,0,0,0,
0,0,0,0,0,0,0,0,0,0,0,21,21,21,21,21,
0,0,0,0,0,0,0,0,0,0,1637,135,135,135,135,135,
0,0,0,0,0,0,0,0,0,0,1637,135,0,0,0,0,
0,0,0,0,0,0,0,0,0,0,1637,135,0,0,0,0,
0,0,0,0,0,0,0,0,0,0,1637,135,135,0,0,0
</chunk>
   <chunk x="-64" y="-64" width="16" height="16">
0,0,0,0,0,0,0,0,0,0,0,0,0,0,0,0,
0,0,0,0,0,0,0,0,0,0,0,0,0,0,0,0,
0,0,0,0,0,0,0,0,0,0,0,0,0,0,0,0,
0,0,0,0,0,0,0,0,0,0,0,0,0,0,0,0,
0,0,0,0,0,0,0,0,0,0,0,0,0,0,0,0,
0,0,0,0,0,0,0,0,0,0,0,0,0,0,0,0,
0,0,0,0,0,0,0,0,0,0,0,0,0,0,0,0,
0,0,0,0,0,0,0,0,0,0,0,0,0,0,0,0,
0,0,0,0,0,0,0,0,0,0,0,0,0,0,0,0,
0,0,0,0,0,0,0,0,0,0,0,0,0,0,0,0,
0,0,0,0,0,0,0,0,0,0,0,0,0,0,0,0,
21,21,21,21,21,21,21,21,21,21,21,21,21,21,21,21,
135,135,135,135,135,135,135,135,135,135,135,135,135,135,135,135,
0,0,0,0,0,0,0,0,0,0,0,135,135,135,135,135,
0,0,0,0,0,0,0,0,0,0,0,0,0,0,0,0,
0,0,0,0,0,0,0,0,0,0,0,0,0,0,0,0
</chunk>
   <chunk x="-48" y="-64" width="16" height="16">
0,0,0,0,0,0,0,0,0,0,0,0,0,0,0,0,
0,0,0,0,0,0,0,0,0,0,0,0,0,0,0,0,
0,0,0,0,0,0,0,0,0,0,0,0,0,0,0,0,
0,0,0,0,0,0,0,0,0,0,0,0,0,0,0,0,
0,0,0,0,0,0,0,0,0,0,0,0,0,0,0,0,
0,0,0,0,0,0,0,0,0,0,0,0,0,0,0,0,
0,0,0,0,0,0,0,0,0,0,0,0,0,0,0,0,
0,0,0,0,0,0,0,0,0,0,0,0,0,0,0,0,
0,0,0,0,0,0,0,0,0,0,0,0,0,0,0,0,
0,0,0,0,0,0,0,0,0,0,0,0,0,0,0,0,
0,0,0,0,0,0,0,0,0,0,0,0,0,0,0,0,
21,21,21,21,21,21,21,21,21,21,21,21,21,21,21,21,
135,135,135,135,135,135,135,135,135,135,135,135,135,135,135,135,
0,0,0,0,0,0,0,0,0,0,0,0,0,0,0,0,
0,0,0,0,0,0,0,0,0,0,0,0,0,0,0,0,
0,0,0,0,0,0,0,0,0,0,0,0,0,0,0,0
</chunk>
   <chunk x="-32" y="-64" width="16" height="16">
0,0,0,0,0,0,0,0,0,0,0,0,0,0,0,0,
0,0,0,0,0,0,0,0,0,0,0,0,0,0,0,0,
0,0,0,0,0,0,0,0,0,0,0,0,0,0,0,0,
0,0,0,0,0,0,0,0,0,0,0,0,0,0,0,0,
0,0,0,0,0,0,0,0,0,0,0,0,0,0,0,0,
0,0,0,0,0,0,0,0,0,0,0,0,0,0,0,0,
0,0,0,0,0,0,0,0,0,0,0,0,0,0,0,0,
0,0,0,0,0,0,0,0,0,0,0,0,0,0,0,0,
0,0,0,0,0,0,0,0,0,0,0,0,0,0,0,0,
0,0,0,0,0,0,0,0,0,0,0,0,0,0,0,0,
0,0,0,0,0,0,0,0,0,0,0,0,0,0,0,0,
21,21,21,21,21,21,21,21,21,21,21,21,21,21,21,21,
135,135,135,135,135,135,135,135,135,135,135,135,135,135,135,135,
0,0,0,0,0,0,0,0,0,0,0,0,0,0,0,0,
0,0,0,0,0,0,0,0,0,0,0,0,0,0,0,0,
0,0,0,0,0,0,0,0,0,0,0,0,0,0,0,0
</chunk>
   <chunk x="-16" y="-64" width="16" height="16">
0,0,0,0,0,0,0,0,0,0,0,0,0,0,0,0,
0,0,0,0,0,0,0,0,0,0,0,0,0,0,0,0,
0,0,0,0,0,0,0,0,0,0,0,0,0,0,0,0,
0,0,0,0,0,0,0,0,0,0,0,0,0,0,0,0,
0,0,0,0,0,0,0,0,0,0,0,0,0,0,0,0,
0,0,0,0,0,0,0,0,0,0,0,0,0,0,0,0,
0,0,0,0,0,0,0,0,0,0,0,0,0,0,0,0,
0,0,0,0,0,0,0,0,0,0,0,0,0,0,0,0,
0,0,0,0,0,0,0,0,0,0,0,0,0,0,0,0,
0,0,0,0,0,0,0,0,0,0,0,0,0,0,0,0,
0,0,0,0,0,0,0,0,0,0,0,0,0,0,0,0,
21,21,21,21,21,21,21,21,21,21,21,21,21,21,21,21,
135,135,135,135,135,135,135,135,135,135,135,135,135,135,135,135,
0,0,0,0,0,0,0,0,0,0,0,0,0,0,0,0,
0,0,0,0,0,0,0,0,0,0,0,0,0,0,0,0,
0,0,0,0,0,0,0,0,0,0,0,0,0,0,0,0
</chunk>
   <chunk x="0" y="-64" width="16" height="16">
0,0,0,0,0,0,0,0,0,0,0,0,0,0,0,0,
0,0,0,0,0,0,0,0,0,0,0,0,0,0,0,0,
0,0,0,0,0,0,0,0,0,0,0,0,0,0,0,0,
0,0,0,0,0,0,0,0,0,0,0,0,0,0,0,0,
0,0,0,0,0,0,0,0,0,0,0,0,0,0,0,0,
0,0,0,0,0,0,0,0,0,0,0,0,0,0,0,0,
0,0,0,0,0,0,0,0,0,0,0,0,0,0,0,0,
0,0,0,0,0,0,0,0,0,0,0,0,0,0,0,0,
0,0,0,0,0,0,0,0,0,0,0,0,0,0,0,0,
0,0,0,0,0,0,0,0,0,0,0,0,0,0,0,0,
0,0,0,0,0,0,0,0,0,0,0,0,0,0,0,0,
21,21,21,21,21,21,21,21,21,21,21,21,21,21,21,21,
135,135,135,135,135,135,135,135,135,135,135,135,135,135,135,135,
0,0,0,0,0,0,0,0,0,0,0,0,0,0,0,0,
0,0,0,0,0,0,0,0,0,0,0,0,0,0,0,0,
0,0,0,0,0,0,0,0,0,0,0,0,0,0,0,0
</chunk>
   <chunk x="16" y="-64" width="16" height="16">
0,0,0,0,0,0,0,0,0,0,0,0,0,0,0,0,
0,0,0,0,0,0,0,0,0,0,0,0,0,0,0,0,
0,0,0,0,0,0,0,0,0,0,0,0,0,0,0,0,
0,0,0,0,0,0,0,0,0,0,0,0,0,0,0,0,
0,0,0,0,0,0,0,0,0,0,0,0,0,0,0,0,
0,0,0,0,0,0,0,0,0,0,0,0,0,0,0,0,
0,0,0,0,0,0,0,0,0,0,0,0,0,0,0,0,
0,0,0,0,0,0,0,0,0,0,0,0,0,0,0,0,
0,0,0,0,0,0,0,0,0,0,0,0,0,0,0,0,
0,0,0,0,0,0,0,0,0,0,0,0,0,0,0,0,
0,0,0,0,0,0,0,0,0,0,0,0,0,0,0,0,
21,21,21,21,21,21,21,21,21,21,21,21,21,21,21,21,
135,135,135,135,135,135,135,135,135,135,135,135,135,135,135,135,
0,0,0,0,0,0,0,0,0,0,0,0,0,0,0,0,
0,0,0,0,0,0,0,0,0,0,0,0,0,0,0,0,
0,0,0,0,0,0,0,0,0,0,0,0,0,0,0,0
</chunk>
   <chunk x="32" y="-64" width="16" height="16">
0,0,0,0,0,0,0,0,0,0,0,0,0,0,0,0,
0,0,0,0,0,0,0,0,0,0,0,0,0,0,0,0,
0,0,0,0,0,0,0,0,0,0,0,0,0,0,0,0,
0,0,0,0,0,0,0,0,0,0,0,0,0,0,0,0,
0,0,0,0,0,0,0,0,0,0,0,0,0,0,0,0,
0,0,0,0,0,0,0,0,0,0,0,0,0,0,0,0,
0,0,0,0,0,0,0,0,0,0,0,0,0,0,0,0,
0,0,0,0,0,0,0,0,0,0,0,0,0,0,0,0,
0,0,0,0,0,0,0,0,0,0,0,0,0,0,0,0,
0,0,0,0,0,0,0,0,0,0,0,0,0,0,0,0,
0,0,0,0,0,0,0,0,0,0,0,0,0,0,0,0,
21,21,21,21,21,21,21,21,21,21,21,21,21,21,21,21,
135,135,135,135,135,135,135,135,135,135,135,135,135,135,135,135,
0,0,0,0,0,0,0,0,0,0,0,0,0,0,0,0,
0,0,0,0,0,0,0,0,0,0,0,0,0,0,0,0,
0,0,0,0,0,0,0,0,0,0,0,0,0,0,0,0
</chunk>
   <chunk x="48" y="-64" width="16" height="16">
0,0,0,0,0,0,0,0,0,0,0,0,0,0,0,0,
0,0,0,0,0,0,0,0,0,0,0,0,0,0,0,0,
0,0,0,0,0,0,0,0,0,0,0,0,0,0,0,0,
0,0,0,0,0,0,0,0,0,0,0,0,0,0,0,0,
0,0,0,0,0,0,0,0,0,0,0,0,0,0,0,0,
0,0,0,0,0,0,0,0,0,0,0,0,0,0,0,0,
0,0,0,0,0,0,0,0,0,0,0,0,0,0,0,0,
0,0,0,0,0,0,0,0,0,0,0,0,0,0,0,0,
0,0,0,0,0,0,0,0,0,0,0,0,0,0,0,0,
0,0,0,0,0,0,0,0,0,0,0,0,0,0,0,0,
0,0,0,0,0,0,0,0,0,0,0,0,0,0,0,0,
21,21,21,21,21,21,21,21,21,21,21,21,21,21,21,21,
135,135,135,135,135,135,135,135,135,135,135,135,135,135,135,135,
0,0,0,0,0,0,0,0,0,0,0,0,0,0,0,0,
0,0,0,0,0,0,0,0,0,0,0,0,0,0,0,0,
0,0,0,0,0,0,0,0,0,0,0,0,0,0,0,0
</chunk>
   <chunk x="64" y="-64" width="16" height="16">
3551,3552,3553,3554,3555,3556,3557,3558,3559,3560,3561,3562,0,0,0,0,
3589,3590,3591,3592,3593,3594,3595,3596,3597,3598,3599,3600,0,0,0,0,
3627,3628,3629,3630,3631,3632,3633,3634,3635,3636,3637,3638,0,0,0,0,
3665,3666,3667,3668,3669,3670,3671,3672,3673,3674,3675,3676,0,0,0,0,
3703,3704,3705,3706,3707,3708,3709,3710,3711,3712,3713,3714,0,0,0,0,
3741,3742,3743,3744,3745,3746,3747,3748,3749,3750,3751,3752,0,0,0,0,
3551,3552,3553,3554,3555,3556,3557,3558,3559,3560,3561,3562,0,0,0,0,
3589,3590,3591,3592,3593,3594,3595,3596,3597,3598,3599,3600,0,0,0,0,
3627,3628,3629,3630,3631,3632,3633,3634,3635,3636,3637,3638,0,0,0,0,
3665,3666,3667,3668,3669,3670,3671,3672,3673,3674,3675,3676,0,0,0,0,
3703,3704,3705,3706,3707,3708,3709,3710,3711,3712,3713,3714,0,0,0,0,
21,21,21,21,21,21,21,3748,3749,3750,3751,3752,0,0,0,0,
135,135,135,135,135,135,21,0,0,0,0,0,0,0,0,0,
0,0,0,0,0,135,21,0,0,0,0,0,0,0,0,0,
0,0,0,0,0,135,21,0,0,0,0,0,0,0,0,0,
0,0,0,0,0,135,21,0,0,0,0,0,0,0,0,0
</chunk>
   <chunk x="-80" y="-48" width="16" height="16">
0,0,0,0,0,0,0,0,0,0,1637,135,135,0,0,0,
0,0,0,0,0,0,0,0,0,0,1637,135,0,0,0,0,
0,0,0,0,0,0,0,0,0,0,1637,135,0,0,0,0,
0,0,0,0,0,0,0,0,0,0,1637,135,135,0,0,0,
0,0,0,0,0,0,0,0,0,0,1637,135,135,0,0,0,
0,0,0,0,0,0,0,0,0,0,1637,135,135,0,0,0,
0,0,0,0,0,0,0,0,0,0,1637,135,135,0,0,0,
0,0,0,0,0,0,0,0,0,0,1637,135,135,0,0,0,
0,0,0,0,0,0,0,0,0,0,1637,135,135,0,0,0,
0,0,0,0,0,0,0,0,0,0,1637,135,0,0,0,0,
0,0,0,0,0,0,0,0,0,0,1637,135,0,0,0,0,
0,0,0,0,0,0,0,0,0,0,1637,135,0,0,0,0,
0,0,0,0,0,0,0,0,0,0,1637,135,0,0,0,0,
0,0,0,0,0,0,0,0,0,0,1637,135,0,0,0,0,
0,0,0,0,0,0,0,0,0,0,1637,135,0,0,0,0,
0,0,0,0,0,0,0,0,0,0,1637,135,135,0,0,0
</chunk>
   <chunk x="64" y="-48" width="16" height="16">
0,0,0,0,0,135,21,0,0,0,0,0,0,0,0,0,
0,0,0,0,0,135,21,0,0,0,0,0,0,0,0,0,
0,0,0,0,0,135,21,0,0,0,0,0,0,0,0,0,
0,0,0,0,0,135,21,0,0,0,0,0,0,0,0,0,
0,0,0,0,0,135,21,0,0,0,0,0,0,0,0,0,
0,0,0,0,0,135,21,0,0,0,0,0,0,0,0,0,
0,0,0,0,0,135,21,0,0,0,0,0,0,0,0,0,
0,0,0,0,0,135,21,0,0,0,0,0,0,0,0,0,
0,0,0,0,0,135,21,0,0,0,0,0,0,0,0,0,
0,0,0,0,0,135,21,0,0,0,0,0,0,0,0,0,
0,0,0,0,0,135,21,0,0,0,0,0,0,0,0,0,
0,0,0,0,0,135,21,0,0,0,0,0,0,0,0,0,
0,0,0,0,0,135,21,0,0,0,0,0,0,0,0,0,
0,0,0,0,0,135,21,0,0,0,0,0,0,0,0,0,
0,0,0,0,0,135,21,0,0,0,0,0,0,0,0,0,
0,0,0,0,0,135,135,0,0,0,0,0,0,0,0,0
</chunk>
   <chunk x="-80" y="-32" width="16" height="16">
0,0,0,0,0,0,0,0,0,0,1637,0,0,0,0,0,
0,0,0,0,0,0,0,0,0,0,1637,0,0,0,0,0,
0,0,0,0,0,0,0,0,0,0,1637,0,0,0,0,0,
0,0,0,0,0,0,0,0,0,0,1637,0,0,0,0,0,
0,0,0,0,0,0,0,0,0,0,1637,0,0,0,0,0,
0,0,0,0,0,0,0,0,0,0,1637,0,0,0,0,0,
0,0,0,0,0,0,0,0,0,0,1637,0,0,0,0,0,
0,0,0,0,0,0,0,0,0,0,1637,0,0,0,0,0,
0,0,0,0,0,0,0,0,0,0,1637,0,0,0,0,0,
0,0,0,0,0,0,0,0,0,0,1637,0,0,0,0,0,
0,0,0,0,0,0,0,0,0,0,1637,0,0,0,0,0,
0,0,0,0,0,0,0,0,0,0,1637,0,0,0,0,0,
0,0,0,0,0,0,0,0,0,0,1637,0,0,0,0,0,
0,0,0,0,0,0,0,0,0,0,1637,0,0,0,0,0,
0,0,0,0,0,0,0,0,0,0,0,0,0,0,0,0,
0,0,0,0,0,0,0,0,0,0,0,1638,0,0,0,0
</chunk>
   <chunk x="64" y="-32" width="16" height="16">
0,0,0,0,0,135,135,0,0,0,0,0,0,0,0,0,
0,0,0,0,0,135,135,0,0,0,0,0,0,0,0,0,
0,0,0,0,0,135,135,0,0,0,0,0,0,0,0,0,
0,0,0,0,0,135,135,0,0,0,0,0,0,0,0,0,
0,0,0,0,0,135,135,0,0,0,0,0,0,0,0,0,
0,0,0,0,0,135,135,0,0,0,0,0,0,0,0,0,
0,0,0,0,0,135,135,0,0,0,0,0,0,0,0,0,
0,0,0,0,0,135,135,0,0,0,0,0,0,0,0,0,
0,0,0,0,0,135,21,0,0,0,0,0,0,0,0,0,
0,0,0,0,0,135,21,0,0,0,0,0,0,0,0,0,
0,0,0,0,0,135,21,0,0,0,0,0,0,0,0,0,
0,0,0,0,0,135,21,0,0,0,0,0,0,0,0,0,
0,0,0,0,0,0,0,0,0,0,0,0,0,0,0,0,
0,0,0,0,0,0,0,0,0,0,0,0,0,0,0,0,
0,0,0,0,0,0,0,0,0,0,0,0,0,0,0,0,
0,0,0,0,0,0,0,0,0,0,0,0,0,0,0,0
</chunk>
   <chunk x="-80" y="-16" width="16" height="16">
0,0,0,0,0,0,0,0,0,0,1637,1638,0,0,0,0,
0,0,0,0,0,0,0,0,0,0,1637,1638,0,0,0,0,
0,0,0,0,0,0,0,0,0,0,1637,1638,0,0,0,0,
0,0,0,0,0,0,0,0,0,0,1637,1638,0,0,0,0,
0,0,0,0,0,0,0,0,0,0,1637,1638,0,0,0,0,
0,0,0,0,0,0,0,0,0,0,1637,1638,0,0,0,0,
0,0,0,0,0,0,0,0,0,0,1637,1638,0,0,0,0,
0,0,0,0,0,0,0,0,0,0,1637,1638,0,0,0,0,
0,0,0,0,0,0,0,0,0,0,1637,1638,0,0,0,0,
0,0,0,0,0,0,0,0,0,0,1637,1638,0,0,0,0,
0,0,0,0,0,0,0,0,0,0,1637,1638,0,0,0,0,
0,0,0,0,0,0,0,0,0,0,1637,1638,0,0,0,0,
0,0,0,0,0,0,0,0,0,0,1637,1638,0,0,0,0,
0,0,0,0,0,0,0,0,0,0,1637,1638,0,0,0,0,
0,0,0,0,0,0,0,0,0,0,1637,1638,0,0,0,0,
0,0,0,0,0,0,0,0,0,0,1637,1638,0,0,0,0
</chunk>
   <chunk x="64" y="-16" width="16" height="16">
0,0,0,0,0,0,0,0,0,0,0,0,0,0,0,0,
0,0,0,0,0,21,21,0,0,0,0,0,0,0,0,0,
0,0,0,0,0,135,21,0,0,0,0,0,0,0,0,0,
0,0,0,0,0,135,21,0,0,0,0,0,0,0,0,0,
0,0,0,0,0,135,21,0,0,0,0,0,0,0,0,0,
0,0,0,0,0,135,21,0,0,0,0,0,0,0,0,0,
0,0,0,0,0,135,21,0,0,0,0,0,0,0,0,0,
0,0,0,0,0,135,21,0,0,0,0,0,0,0,0,0,
0,0,0,0,0,135,21,0,0,0,0,0,0,0,0,0,
0,0,0,0,0,135,21,0,0,0,0,0,0,0,0,0,
0,0,0,0,0,135,21,0,0,0,0,0,0,0,0,0,
0,0,0,0,0,135,21,0,0,0,0,0,0,0,0,0,
0,0,0,0,0,135,21,0,0,0,0,0,0,0,0,0,
0,0,0,0,0,135,21,0,0,0,0,0,0,0,0,0,
0,0,0,0,0,135,21,0,0,0,0,0,0,0,0,0,
0,0,0,0,0,135,21,0,0,0,0,0,0,0,0,0
</chunk>
   <chunk x="-80" y="0" width="16" height="16">
0,0,0,0,0,0,0,0,0,0,1637,1638,0,0,0,0,
0,0,0,0,0,0,0,0,0,0,1637,1638,0,0,0,0,
0,0,0,0,0,0,0,0,0,0,21,21,21,0,0,0,
0,0,0,0,0,0,0,0,0,0,1637,21,21,0,0,0,
0,0,0,0,0,0,0,0,0,0,1637,21,0,0,0,0,
0,0,0,0,0,0,0,0,0,0,1637,21,0,0,0,0,
0,0,0,0,0,0,0,0,0,0,1637,21,0,0,0,0,
0,0,0,0,0,0,0,0,0,0,1637,21,0,0,0,0,
0,0,0,0,0,0,0,0,0,0,1637,21,0,0,0,0,
0,0,0,0,0,0,0,0,0,0,1637,21,0,0,0,0,
0,0,0,0,0,0,0,0,0,0,1637,21,0,0,0,0,
0,0,0,0,0,0,0,0,0,0,0,21,0,0,0,0,
0,0,0,0,0,0,0,0,0,0,0,21,0,0,0,0,
0,0,0,0,0,0,0,0,0,0,0,21,0,0,0,0,
0,0,0,0,0,0,0,0,0,0,1637,21,0,0,0,0,
0,0,0,0,0,0,0,0,0,0,1637,21,0,0,0,0
</chunk>
   <chunk x="64" y="0" width="16" height="16">
0,0,0,0,0,135,21,0,0,0,0,0,0,0,0,0,
0,0,0,0,0,135,21,0,0,0,0,0,0,0,0,0,
0,0,0,0,0,135,21,0,0,0,0,0,0,0,0,0,
0,0,0,0,0,135,21,0,0,0,0,0,0,0,0,0,
0,0,0,0,0,135,21,0,0,0,0,0,0,0,0,0,
0,0,0,0,0,135,21,0,0,0,0,0,0,0,0,0,
0,0,0,0,0,135,21,0,0,0,0,0,0,0,0,0,
0,0,0,0,0,135,21,0,0,0,0,0,0,0,0,0,
0,0,0,0,0,135,21,0,0,0,0,0,0,0,0,0,
0,0,0,0,0,135,21,0,0,0,0,0,0,0,0,0,
0,0,0,0,0,135,21,0,0,0,0,0,0,0,0,0,
0,0,0,0,0,135,21,0,0,0,0,0,0,0,0,0,
0,0,0,0,0,135,21,0,0,0,0,0,0,0,0,0,
0,0,0,0,0,135,21,0,0,0,0,0,0,0,0,0,
0,0,0,0,0,135,21,0,0,0,0,0,0,0,0,0,
0,0,0,0,0,135,21,0,0,0,0,0,0,0,0,0
</chunk>
   <chunk x="-80" y="16" width="16" height="16">
0,0,0,0,0,0,0,0,0,0,1637,21,0,0,0,0,
0,0,0,0,0,0,0,0,0,0,1637,21,0,0,0,0,
0,0,0,0,0,0,0,0,0,0,1637,21,0,0,0,0,
0,0,0,0,0,0,0,0,0,0,1637,21,0,0,0,0,
0,0,0,0,0,0,0,0,0,0,1637,21,0,0,0,0,
0,0,0,0,0,0,0,0,0,0,1637,21,0,0,0,0,
0,0,0,0,0,0,0,0,0,0,1637,21,0,0,0,0,
0,0,0,0,0,0,0,0,0,0,1637,21,0,0,0,0,
0,0,0,0,0,0,0,0,0,0,1637,21,0,0,0,0,
0,0,0,0,0,0,0,0,0,0,1637,21,0,0,0,0,
0,0,0,0,0,0,0,0,0,0,1637,21,0,0,0,0,
0,0,0,0,0,0,0,0,0,0,1637,21,0,0,0,0,
0,0,0,0,0,0,0,0,0,0,1637,21,0,0,0,0,
0,0,0,0,0,0,0,0,0,0,1637,21,0,0,0,0,
0,0,0,0,0,0,0,0,0,0,1637,21,0,0,0,0,
0,0,0,0,0,0,0,0,0,0,1637,21,0,0,0,0
</chunk>
   <chunk x="-64" y="16" width="16" height="16">
0,0,0,0,0,0,0,0,0,0,0,0,0,0,0,0,
0,0,0,0,0,0,0,0,0,0,0,0,0,0,0,0,
0,0,0,0,0,0,0,0,0,0,0,0,0,0,0,0,
0,0,0,0,0,0,0,0,0,0,0,0,0,0,0,0,
0,0,0,0,0,0,0,0,0,0,0,0,0,0,0,0,
0,0,0,0,0,0,0,0,0,0,0,0,0,0,0,0,
0,0,0,0,0,0,0,0,0,0,0,0,0,0,0,0,
0,0,0,0,0,0,0,0,0,0,0,0,0,0,0,0,
0,0,0,0,0,0,0,0,0,0,0,0,0,0,0,0,
0,0,0,0,0,0,0,0,0,0,0,0,0,0,0,0,
0,0,0,0,0,0,0,0,0,0,0,0,0,0,0,0,
0,0,0,0,0,0,0,0,0,0,0,0,3131,3132,3133,3134,
0,0,0,0,0,0,0,0,0,0,0,0,3169,3170,3171,3172,
0,0,0,0,0,0,0,0,0,0,0,0,3207,3208,3209,3210,
0,0,0,0,0,0,0,0,0,0,0,0,3245,3246,3247,3248,
0,0,0,0,0,0,0,0,0,0,0,0,3283,3284,3285,3286
</chunk>
   <chunk x="-48" y="16" width="16" height="16">
0,0,0,0,0,0,0,0,0,0,0,0,0,0,0,0,
0,0,0,0,0,0,0,0,0,0,0,0,0,0,0,0,
0,0,0,0,0,0,0,0,0,0,0,0,0,0,0,0,
0,0,0,0,0,0,0,0,0,0,0,0,0,0,0,0,
0,0,0,0,0,0,0,0,0,0,0,0,0,0,0,0,
0,0,0,0,0,0,0,0,0,0,0,0,0,0,0,0,
0,0,0,0,0,0,0,0,0,0,0,0,0,0,0,0,
0,0,0,0,0,0,0,0,0,0,0,0,0,0,0,0,
0,0,0,0,0,0,0,0,0,0,0,0,0,0,0,0,
0,0,0,0,0,0,0,0,0,0,0,0,0,0,0,0,
0,0,0,0,0,0,0,0,0,0,0,0,0,0,0,0,
3135,3136,3137,3138,3139,3140,3141,3142,3143,3144,0,0,0,0,0,0,
3173,3174,3175,3176,3177,3178,3179,3180,3181,3182,0,0,0,0,0,0,
3211,3212,3213,3214,3215,3216,3217,3218,3219,3220,0,0,0,0,0,0,
3249,3250,3251,3252,3253,3254,3255,3256,3257,3258,0,0,0,0,0,0,
3287,3288,3289,3290,3291,3292,3293,3294,3295,3296,0,0,0,0,0,0
</chunk>
   <chunk x="16" y="16" width="16" height="16">
0,0,0,0,0,0,0,0,0,0,0,0,0,0,0,0,
0,0,0,0,0,0,0,0,0,0,0,0,0,0,0,0,
0,8966,8967,0,0,0,0,0,0,0,0,0,0,0,0,0,
0,8973,8974,0,0,0,0,0,0,0,0,0,0,0,0,0,
0,0,0,0,0,0,0,0,0,0,0,0,0,0,0,0,
0,0,0,0,0,0,0,0,0,0,0,0,0,0,0,0,
0,0,0,0,0,0,0,0,0,0,0,0,0,0,0,0,
0,0,0,0,0,0,0,0,0,0,0,0,0,0,0,0,
0,0,0,0,0,0,0,0,0,0,0,0,0,0,0,0,
0,0,0,0,0,0,0,0,0,0,0,0,0,0,0,0,
0,0,0,0,0,0,0,0,0,0,0,0,0,0,0,0,
0,0,0,0,0,0,0,0,0,0,0,0,0,0,0,0,
0,0,0,0,0,0,0,0,0,0,0,0,0,0,0,0,
0,0,0,0,0,0,0,0,0,0,0,0,0,0,0,0,
0,0,0,0,0,0,0,0,0,0,0,0,0,0,0,0,
0,0,0,0,0,0,0,0,0,0,0,0,0,0,0,0
</chunk>
   <chunk x="64" y="16" width="16" height="16">
0,0,0,0,0,135,21,0,0,0,0,0,0,0,0,0,
0,0,0,0,0,135,21,0,0,0,0,0,0,0,0,0,
0,0,0,0,0,135,21,0,0,0,0,0,0,0,0,0,
0,0,0,0,0,135,21,0,0,0,0,0,0,0,0,0,
0,0,0,0,0,135,21,0,0,0,0,0,0,0,0,0,
0,0,0,0,0,135,21,0,0,0,0,0,0,0,0,0,
0,0,0,0,0,135,21,0,0,0,0,0,0,0,0,0,
0,0,0,0,0,135,21,0,0,0,0,0,0,0,0,0,
0,0,0,0,0,135,21,0,0,0,0,0,0,0,0,0,
0,0,0,0,0,135,21,0,0,0,0,0,0,0,0,0,
0,0,0,0,0,135,21,0,0,0,0,0,0,0,0,0,
0,0,0,0,0,135,21,0,0,0,0,0,0,0,0,0,
0,0,0,0,0,135,21,0,0,0,0,0,0,0,0,0,
0,0,0,0,0,135,21,0,0,0,0,0,0,0,0,0,
0,0,0,0,0,135,21,0,0,0,0,0,0,0,0,0,
0,0,0,0,0,135,21,0,0,0,0,0,0,0,0,0
</chunk>
   <chunk x="-80" y="32" width="16" height="16">
0,0,0,0,0,0,0,0,0,0,1637,21,0,0,0,0,
0,0,0,0,0,0,0,0,0,0,1637,21,0,0,0,0,
0,0,0,0,0,0,0,0,0,0,1637,21,0,0,0,0,
0,0,0,0,0,0,0,0,0,0,1637,21,0,0,0,0,
0,0,0,0,0,0,0,0,0,0,1637,21,0,0,0,0,
0,0,0,0,0,0,0,0,0,0,1637,21,0,0,0,0,
0,0,0,0,0,0,0,0,0,0,1637,21,0,0,0,0,
0,0,0,0,0,0,0,0,0,0,1637,21,0,0,0,0,
0,0,0,0,0,0,0,0,0,0,1637,21,0,0,0,0,
0,0,0,0,0,0,0,0,0,0,1637,21,0,0,0,0,
0,0,0,0,0,0,0,0,0,0,1637,21,0,0,0,0,
0,0,0,0,0,0,0,0,0,0,1637,21,0,0,0,0,
0,0,0,0,0,0,0,0,0,0,1637,21,0,0,0,0,
0,0,0,0,0,0,0,0,0,0,1637,21,0,0,0,0,
0,0,0,0,0,0,0,0,0,0,1637,21,0,0,0,0,
0,0,0,0,0,0,0,0,0,0,1637,21,0,0,0,3131
</chunk>
   <chunk x="-64" y="32" width="16" height="16">
0,0,0,0,0,0,0,0,0,0,0,0,3321,3322,3323,3324,
0,0,0,0,0,0,0,0,0,0,0,0,3359,3360,3361,3362,
0,0,0,0,0,0,0,0,0,0,0,0,3397,3398,3399,3400,
0,0,0,0,0,0,0,0,0,0,0,0,3435,3436,3437,3438,
0,0,0,0,0,0,0,0,0,0,0,0,3473,3474,3475,3476,
0,0,0,0,0,0,0,0,0,0,0,0,3511,3512,3513,3514,
0,0,0,0,0,0,0,0,0,0,0,1610,3549,3550,3551,3552,
0,0,0,0,0,0,0,0,0,0,0,0,3587,3588,3589,3590,
0,0,0,0,0,0,0,0,0,0,0,0,3625,3626,3627,3628,
0,0,0,0,0,0,0,0,0,0,0,0,3663,3664,3665,3666,
0,0,0,0,0,0,0,0,0,0,0,0,3701,3702,3703,3704,
0,0,0,0,0,0,0,0,0,0,0,0,0,0,0,0,
0,0,0,0,0,0,0,0,0,0,0,0,0,0,0,0,
0,0,0,0,0,0,0,0,0,0,0,0,0,0,0,0,
0,0,1610,0,0,0,0,0,0,0,0,0,0,0,0,0,
3132,3133,3134,3135,3136,3137,3138,0,3140,3141,3142,3241,3241,3242,3243,3244
</chunk>
   <chunk x="-48" y="32" width="16" height="16">
3325,3326,3327,3328,3329,3330,3331,3332,3333,3334,0,0,0,0,0,0,
3363,3364,3365,3366,3367,3368,3369,3370,3371,3372,0,0,0,0,0,0,
3401,3402,3403,3404,3405,3406,3407,3408,3409,3410,0,0,0,0,0,0,
3439,3440,3441,3442,3443,3444,3445,3446,3447,3448,0,0,0,0,0,0,
3477,3478,3479,3480,3481,3482,3483,3484,3485,3486,0,0,0,0,0,0,
3515,3516,3517,3518,3519,3520,3521,3522,3523,3524,0,0,0,0,0,0,
3553,3554,3555,3556,3557,3558,3559,3560,3561,3562,0,0,0,0,0,0,
3591,3592,3593,3594,3595,3596,3597,3598,3599,3600,0,0,0,0,0,0,
3629,3630,3631,3632,3633,3634,3635,3636,3637,3638,0,0,0,3131,3132,3133,
3667,3668,3669,3670,3671,3672,3673,3674,3675,3676,0,0,0,3169,3170,3171,
3131,3132,3133,3134,3135,3136,3137,3138,3139,3140,3141,3142,3143,3207,3208,3209,
3169,3170,3171,3172,3173,3174,3175,3176,3177,3178,3179,3180,3181,3245,3246,3247,
3207,3208,3209,3210,3211,3212,3213,3214,3215,3216,3217,3218,3219,3283,3284,3285,
3245,3246,3247,3248,3249,3250,3251,3252,3253,3254,3255,3256,3257,3321,3322,3323,
3283,3284,3285,3286,3287,3288,3289,3290,3291,3292,3293,3294,3295,3359,3360,3361,
3245,3246,3247,3248,3249,3326,3327,3328,3329,3330,3331,3332,3333,3397,3398,3399
</chunk>
   <chunk x="-32" y="32" width="16" height="16">
0,0,0,0,0,0,0,0,0,0,0,0,0,0,0,0,
0,0,0,0,0,0,0,0,0,0,0,0,0,0,0,0,
0,0,0,0,0,0,0,0,0,0,0,0,0,0,0,0,
0,0,0,0,0,0,0,0,0,0,0,0,0,0,0,0,
0,0,0,0,0,0,0,0,0,0,0,0,0,0,0,0,
0,0,0,0,0,0,0,0,0,0,0,0,0,0,0,0,
0,0,0,0,0,0,0,0,0,0,0,0,0,0,0,0,
0,0,0,0,0,0,0,0,0,0,0,0,0,0,0,0,
3134,3135,3136,3137,3138,3139,3140,3141,3142,3143,3144,0,0,0,0,0,
3172,3173,3174,3175,3176,3177,3178,3179,3180,3181,3182,0,0,0,0,0,
3210,3211,3212,3213,3214,3215,3216,3217,3218,3219,3220,0,0,0,0,0,
3248,3249,3250,3251,3252,3253,3254,3255,3256,3257,3258,0,0,0,0,0,
3286,3287,3288,3289,3290,3291,3292,3293,3294,3295,3296,0,0,0,0,0,
3324,3325,3326,3327,3328,3329,3330,3331,3332,3333,3334,0,0,0,0,0,
3362,3363,3364,3365,3366,3367,3368,3369,3370,3371,3372,0,0,0,0,0,
3400,3401,3402,3403,3404,3405,3406,3407,3408,3409,3410,0,0,0,0,0
</chunk>
   <chunk x="64" y="32" width="16" height="16">
0,0,0,0,0,135,21,0,0,0,0,0,0,0,0,0,
0,0,0,0,0,135,21,0,0,0,0,0,0,0,0,0,
0,0,0,0,0,135,21,0,0,0,0,0,0,0,0,0,
0,0,0,0,0,135,21,0,0,0,0,0,0,0,0,0,
0,0,0,0,0,135,21,0,0,0,0,0,0,0,0,0,
0,0,0,0,0,135,21,0,0,0,0,0,0,0,0,0,
0,0,0,0,0,135,21,0,0,0,0,0,0,0,0,0,
0,0,0,0,0,135,21,0,0,0,0,0,0,0,0,0,
0,0,0,0,0,135,21,0,0,0,0,0,0,0,0,0,
0,0,0,0,0,135,135,0,0,0,0,0,0,0,0,0,
0,0,0,0,0,135,135,0,0,0,0,0,0,0,0,0,
0,0,0,0,0,135,135,0,0,0,0,0,0,0,0,0,
0,0,0,0,0,135,135,0,0,0,0,0,0,0,0,0,
0,0,0,0,0,135,21,0,0,0,0,0,0,0,0,0,
0,0,0,0,0,135,21,0,0,0,0,0,0,0,0,0,
0,0,0,0,0,135,21,0,0,0,0,0,0,0,0,0
</chunk>
   <chunk x="-80" y="48" width="16" height="16">
0,0,0,0,0,0,0,0,0,0,1637,21,0,0,0,3169,
0,0,0,0,0,0,0,0,0,0,1637,21,0,0,0,3207,
0,0,0,0,0,0,0,0,0,0,1637,21,0,0,0,3245,
0,0,0,0,0,0,0,0,0,0,1637,21,0,0,0,3283,
0,0,0,0,0,0,0,0,0,0,1637,21,0,0,0,3321,
0,0,0,0,0,0,0,0,0,0,1637,21,0,0,0,3359,
0,0,0,0,0,0,0,0,0,0,0,21,21,21,0,0,
0,0,0,0,0,0,0,0,0,0,0,21,0,0,0,0,
0,0,0,0,0,0,0,0,0,0,0,21,0,0,0,0,
0,0,0,0,0,0,0,0,0,0,0,0,0,0,0,0,
0,0,0,0,0,0,0,0,0,0,0,0,0,0,0,0,
0,0,0,0,0,0,0,0,0,0,0,0,0,0,0,0,
0,0,0,0,0,0,0,0,0,0,0,0,0,0,0,3625,
0,0,0,0,0,0,0,0,0,0,0,0,0,0,0,3663,
5194,5195,5196,5197,5198,5199,5200,5201,0,0,1637,1638,0,0,0,3701,
5231,5232,5233,5234,5235,5236,5237,5238,0,0,1637,1638,0,0,0,0
</chunk>
   <chunk x="-64" y="48" width="16" height="16">
3170,3171,3172,3173,3174,3175,3176,3177,3178,3179,3180,3279,3279,3280,3281,3282,
3208,3209,3210,3211,3212,3213,3214,3215,3216,3217,3218,3317,3317,3318,3319,3320,
3246,3247,3248,3249,3250,3251,3252,3253,3254,3255,3256,3355,3355,3356,3357,3358,
3284,3285,3286,3287,3288,3289,3290,3291,3292,3293,3294,3393,3393,3394,3395,3396,
3322,3323,3324,3325,3326,3327,3328,3329,3330,3331,3332,3431,3431,3432,3433,3434,
3360,3361,3362,3363,3364,3365,3366,3367,3368,3369,3370,3469,3469,3470,3471,3472,
3398,3399,3400,3401,3402,3403,3404,3405,3406,3407,3408,3507,3507,3508,3509,3510,
3436,3437,3438,3439,3440,3441,3442,3443,3444,3445,3446,3447,3448,0,0,0,
3474,3475,3476,3477,3478,3479,3480,3481,3482,3483,3484,3485,3486,0,0,0,
3512,3513,3514,3515,3516,3517,3518,3519,3520,3521,3522,3523,3524,0,0,0,
3550,3551,3552,3553,3554,3555,3556,3557,3558,3559,3560,3561,3562,0,0,0,
3588,3589,3590,3591,3592,3593,3594,3595,3596,3597,3598,3599,3600,0,0,0,
3626,3627,3628,3629,3630,3631,3632,3633,3634,3635,3636,3637,3638,0,0,0,
3664,3665,3666,3667,3668,3669,3670,3671,3672,3673,3674,3675,3676,0,0,0,
3702,3703,3704,3705,3706,3707,3708,3709,3710,3711,3712,3713,3714,0,0,0,
0,0,0,0,0,0,0,0,0,0,0,0,0,0,0,0
</chunk>
   <chunk x="-48" y="48" width="16" height="16">
3283,3284,3285,3286,3287,3364,3365,3366,3367,3368,3369,3131,3132,3435,3436,3437,
3321,3322,3323,3324,3325,3402,3403,3404,3405,3406,3407,3169,3170,3473,3474,3475,
3359,3360,3361,3362,3363,3440,3441,3442,3443,3444,3445,3207,3208,3511,3512,3513,
3397,3398,3399,3400,3401,3478,3479,3480,3481,3482,3483,3245,3246,3549,3550,3551,
3435,3436,3437,3438,3439,3516,3517,3518,3519,3520,3521,3283,3284,3587,3588,3589,
3473,3474,3475,3476,3477,3554,3555,3556,3557,3558,3559,3321,3322,3625,3626,3627,
3511,3512,3513,3514,3515,3592,3593,3594,3595,3596,3597,3359,3360,3663,3664,3665,
3625,3626,3627,3628,3629,3630,3631,3632,3633,3634,3635,3397,3398,3701,3702,3703,
3663,3664,3665,3666,3667,3668,3669,3670,3671,3672,3673,3435,3436,3437,3438,3439,
3701,3702,3703,3704,3705,3706,3707,3708,3709,3710,3711,3473,3474,3475,3476,0,
0,0,0,0,0,0,0,0,0,0,0,3511,0,0,0,0,
0,0,0,0,0,0,0,0,0,0,0,3549,0,0,0,0,
0,0,0,0,0,0,0,0,0,0,0,3587,0,0,0,0,
0,0,0,0,0,0,0,0,0,0,0,3625,0,0,0,0,
0,0,0,0,0,0,0,0,0,0,0,3663,0,0,0,0,
0,0,0,0,0,0,0,0,0,0,0,3701,0,0,0,0
</chunk>
   <chunk x="-32" y="48" width="16" height="16">
3438,3439,3440,3441,3442,3443,3444,3445,3446,3447,3448,0,0,0,0,0,
3476,3477,3478,3479,3480,3481,3482,3483,3484,3485,3486,0,0,0,0,0,
3514,3515,3516,3517,3518,3519,3520,3521,3522,3523,3524,0,0,0,0,0,
3552,3553,3554,3555,3241,3242,3243,3241,3242,3243,3244,3245,3246,3247,3248,3249,
3590,3591,3592,3593,3279,3280,3281,3279,3280,3281,3282,3283,3284,3285,3286,3287,
3628,3629,3630,3631,3317,3318,3319,3317,3318,3319,3320,3321,3322,3323,3324,3325,
3666,3667,3668,3669,3355,3356,3357,3355,3356,3357,3358,3359,3360,3361,3362,3363,
3704,3705,3706,3707,3393,3394,3395,3393,3394,3395,3396,3397,3398,3399,3400,3401,
3440,3441,3442,3443,3431,3432,3433,3431,3432,3433,3434,3435,3436,3437,3438,3439,
0,0,3480,3481,3469,3470,3471,3469,3470,3471,3472,3473,3474,3475,3476,3477,
0,0,0,0,0,0,0,0,0,0,3510,3511,3512,3513,3514,3515,
0,0,0,0,0,0,0,0,0,0,0,0,0,0,0,0,
0,0,0,0,0,0,0,0,0,0,0,0,0,0,0,0,
0,0,0,0,0,0,0,0,0,0,0,0,0,0,0,0,
0,0,0,0,0,0,0,0,0,0,0,0,0,0,0,0,
0,0,0,0,0,0,0,0,0,0,0,0,0,0,0,0
</chunk>
   <chunk x="64" y="48" width="16" height="16">
0,0,0,0,0,135,21,0,0,0,0,0,0,0,0,0,
0,0,0,0,0,135,21,0,0,0,0,0,0,0,0,0,
0,0,0,0,0,135,21,0,0,0,0,0,0,0,0,0,
0,0,0,0,0,135,21,0,0,0,0,0,0,0,0,0,
0,0,0,0,0,135,21,0,0,0,0,0,0,0,0,0,
0,0,0,0,0,135,21,0,0,0,0,0,0,0,0,0,
0,0,0,0,0,135,21,0,0,0,0,0,0,0,0,0,
0,0,0,0,0,135,21,0,0,0,0,0,0,0,0,0,
0,0,0,0,0,135,21,0,0,0,0,0,0,0,0,0,
0,0,0,0,0,135,21,0,0,0,0,0,0,0,0,0,
0,0,0,0,0,135,21,0,0,0,0,0,0,0,0,0,
0,0,0,0,0,135,21,0,0,0,0,0,0,0,0,0,
0,0,0,0,0,135,21,0,0,0,0,0,0,0,0,0,
0,0,0,0,0,135,21,0,0,0,0,0,0,0,0,0,
0,0,0,0,0,135,21,0,0,0,0,0,0,0,0,0,
0,0,0,0,0,135,21,0,0,0,0,0,0,0,0,0
</chunk>
   <chunk x="-128" y="64" width="16" height="16">
0,0,0,0,0,0,0,0,0,0,0,0,0,0,0,0,
0,0,0,0,0,0,0,0,0,0,0,0,0,0,0,0,
0,0,0,0,0,0,0,0,0,0,0,0,0,0,0,0,
0,0,0,0,0,0,0,0,0,0,0,0,0,0,0,0,
0,0,0,0,0,0,0,0,0,0,0,0,0,0,0,0,
0,0,0,0,0,0,0,0,0,0,0,0,0,0,0,0,
0,0,0,0,0,0,0,0,0,0,0,0,0,0,0,0,
0,0,0,0,0,0,0,0,0,0,0,0,0,0,0,0,
0,0,0,0,0,0,0,0,0,0,0,0,0,0,0,0,
0,0,0,0,0,0,0,0,0,0,0,0,0,0,0,0,
0,0,0,0,0,0,0,0,0,5316,5317,5318,5319,5320,0,0,
0,0,0,0,0,0,0,0,0,5353,5354,5355,5356,5357,0,0,
0,0,0,0,0,0,0,0,0,0,0,0,0,0,0,0,
0,0,0,0,0,0,0,0,0,0,0,0,0,0,0,0,
0,0,0,0,0,0,0,0,0,0,0,0,0,0,0,0,
0,0,0,0,0,0,0,0,0,0,0,0,0,0,0,0
</chunk>
   <chunk x="-112" y="64" width="16" height="16">
0,0,0,0,0,0,0,0,0,0,0,0,0,0,0,0,
0,0,0,0,0,0,0,0,0,0,0,0,0,0,0,0,
0,0,0,0,0,0,0,0,0,0,0,0,0,0,0,0,
0,0,0,0,0,0,0,0,0,0,0,0,0,0,0,0,
0,0,0,0,0,0,0,0,0,0,0,0,0,0,0,0,
0,0,0,0,0,0,0,0,0,0,0,0,0,0,0,0,
0,0,0,0,0,0,0,0,0,0,0,0,0,0,0,0,
0,0,0,5327,5328,5329,5330,5331,5332,5333,5334,5335,5336,5337,5338,5339,
0,0,0,5364,5365,5366,5367,5368,5369,5370,5371,5372,5373,5374,5375,5376,
0,0,0,5401,5402,5403,5404,5405,5406,5407,5408,5409,5410,5411,5412,5413,
0,0,0,0,0,0,0,0,0,0,0,0,0,0,0,0,
0,0,0,0,0,0,0,0,0,0,0,0,0,0,0,0,
0,0,0,0,0,0,0,0,0,0,0,0,0,0,0,0,
0,0,0,0,0,0,0,0,0,0,0,0,0,0,0,0,
0,0,0,0,0,0,0,0,0,0,0,0,0,0,0,0,
0,0,0,0,0,0,0,0,0,0,0,0,0,0,0,0
</chunk>
   <chunk x="-96" y="64" width="16" height="16">
0,0,0,0,0,0,0,0,0,0,0,0,0,0,0,0,
0,0,0,0,0,0,0,0,0,0,0,0,0,0,0,0,
0,0,0,0,0,0,0,0,0,0,0,0,0,0,0,0,
0,0,0,0,0,0,0,0,0,0,5316,5317,5318,5319,5320,5321,
0,0,0,0,0,0,0,0,0,0,5353,5354,5355,5356,5357,5358,
0,0,0,0,0,0,0,5133,5134,5135,5390,5391,5392,5393,5394,5395,
0,5062,5063,5064,5065,5066,0,5170,5171,5172,0,0,0,0,0,0,
0,5099,5100,5101,5102,5103,0,0,0,0,0,0,0,0,0,0,
0,5136,5137,5138,5139,5140,0,0,0,0,0,0,0,0,0,0,
0,0,0,0,0,0,0,0,0,0,0,0,0,0,0,0,
0,0,0,0,0,0,0,0,0,0,0,0,0,0,0,0,
0,0,0,0,0,0,0,0,0,0,0,0,0,0,0,0,
0,0,0,0,0,0,0,0,0,0,0,0,0,0,0,0,
0,0,0,0,0,0,0,0,0,0,0,0,0,0,0,0,
0,0,0,0,0,0,0,0,0,0,0,0,0,0,0,0,
0,0,0,0,0,0,0,0,0,0,0,0,0,0,0,0
</chunk>
   <chunk x="-80" y="64" width="16" height="16">
0,0,0,0,0,0,0,0,0,0,1637,1638,0,0,0,0,
0,0,0,0,0,0,0,0,0,0,1637,1638,0,0,0,0,
0,0,0,0,0,0,0,0,0,0,1637,1638,0,0,0,0,
0,0,0,0,0,0,0,0,0,0,1637,1638,0,0,0,0,
0,0,0,0,0,0,0,0,0,0,1637,1638,0,0,0,0,
0,0,0,0,0,0,0,0,0,0,135,135,0,0,0,0,
0,0,0,0,0,0,0,0,0,135,135,135,135,135,135,135,
0,0,0,0,0,0,0,0,0,0,21,21,21,21,135,135,
0,0,0,0,0,0,0,0,0,0,0,0,0,0,0,0,
0,0,0,0,0,0,0,0,0,0,0,0,0,0,0,0,
0,0,0,0,0,0,0,0,0,0,0,0,0,0,0,0,
0,0,0,0,0,0,0,0,0,0,0,0,0,0,0,0,
0,0,0,0,0,0,0,0,0,0,0,0,0,0,0,0,
0,0,0,0,0,0,0,0,0,0,0,0,0,0,0,0,
0,0,0,0,0,0,0,0,0,0,0,0,0,0,0,0,
0,0,0,0,0,0,0,0,0,0,0,0,0,0,0,0
</chunk>
   <chunk x="-64" y="64" width="16" height="16">
0,0,0,0,0,0,0,0,0,0,0,0,0,0,0,0,
0,0,0,0,0,0,0,0,0,0,0,0,0,0,0,0,
0,0,0,0,0,0,0,0,0,0,0,0,0,0,0,0,
0,0,0,0,0,0,0,0,0,0,0,0,0,0,0,0,
0,0,0,0,0,0,0,0,0,0,0,0,0,0,0,0,
0,0,0,0,0,0,0,0,0,0,0,0,0,0,0,0,
135,135,135,135,135,135,135,135,135,135,135,135,135,135,135,135,
135,135,135,135,135,135,135,135,21,21,21,21,21,21,21,21,
0,0,0,0,0,0,0,0,0,0,0,0,0,0,0,0,
0,0,0,0,0,0,0,0,0,0,0,0,0,0,0,0,
0,0,0,0,0,0,0,0,0,0,0,0,0,0,0,0,
0,0,0,0,0,0,0,0,0,0,0,0,0,0,0,0,
0,0,0,0,0,0,0,0,0,0,0,0,0,0,0,0,
0,0,0,0,0,0,0,0,0,0,0,0,0,0,0,0,
0,0,0,0,0,0,0,0,0,0,0,0,0,0,0,0,
0,0,0,0,0,0,0,0,0,0,0,0,0,0,0,0
</chunk>
   <chunk x="-48" y="64" width="16" height="16">
0,0,0,0,0,0,0,0,0,0,0,0,0,0,0,0,
0,0,0,0,0,0,0,0,0,0,0,0,0,0,0,0,
0,0,0,0,0,0,0,0,0,0,0,0,0,0,0,0,
0,0,0,0,0,0,0,0,0,0,0,0,0,0,0,0,
0,0,0,0,0,0,0,0,0,0,0,0,0,0,0,0,
0,0,0,0,0,0,0,0,0,0,0,0,0,0,0,0,
135,135,135,135,135,135,135,135,135,135,135,135,135,135,135,135,
135,21,21,21,21,21,21,21,21,21,21,21,21,21,21,21,
0,0,0,0,0,0,0,0,0,0,0,0,0,0,0,0,
0,0,0,0,0,0,0,0,0,0,0,0,0,0,0,0,
0,0,0,0,0,0,0,0,0,0,0,0,0,0,0,0,
0,0,0,0,0,0,0,0,0,0,0,0,0,0,0,0,
0,0,0,0,0,0,0,0,0,0,0,0,0,0,0,0,
0,0,0,0,0,0,0,0,0,0,0,0,0,0,0,0,
0,0,0,0,0,0,0,0,0,0,0,0,0,0,0,0,
0,0,0,0,0,0,0,0,0,0,0,0,0,0,0,0
</chunk>
   <chunk x="-32" y="64" width="16" height="16">
0,0,0,0,0,0,0,0,0,0,0,0,0,0,0,0,
0,0,0,0,0,0,0,0,0,0,0,0,0,0,0,0,
0,0,0,0,0,0,0,0,0,0,0,0,0,0,0,0,
0,0,0,0,0,0,0,0,0,0,0,0,0,0,0,0,
0,0,0,0,0,0,0,0,0,0,0,0,0,0,0,0,
0,0,0,0,0,0,0,0,0,0,0,0,0,0,0,0,
135,135,135,135,135,135,135,135,135,135,135,135,135,135,135,135,
21,21,21,21,21,21,21,21,21,21,21,21,21,21,21,21,
0,0,0,0,0,0,0,0,0,0,0,0,0,0,0,0,
0,0,0,0,0,0,0,0,0,0,0,0,0,0,0,0,
0,0,0,0,0,0,0,0,0,0,0,0,0,0,0,0,
0,0,0,0,0,0,0,0,0,0,0,0,0,0,0,0,
0,0,0,0,0,0,0,0,0,0,0,0,0,0,0,0,
0,0,0,0,0,0,0,0,0,0,0,0,0,0,0,0,
0,0,0,0,0,0,0,0,0,0,0,0,0,0,0,0,
0,0,0,0,0,0,0,0,0,0,0,0,0,0,0,0
</chunk>
   <chunk x="-16" y="64" width="16" height="16">
0,0,0,0,0,0,0,0,0,0,0,0,0,0,0,0,
0,0,0,0,0,0,0,0,0,0,0,0,0,0,0,0,
0,0,0,0,0,0,0,0,0,0,0,0,0,0,0,0,
0,0,0,0,0,0,0,0,0,0,0,0,0,0,0,0,
0,0,0,0,0,0,0,0,0,0,0,0,0,0,0,0,
0,0,0,0,0,0,0,0,0,0,0,0,0,0,0,0,
135,135,135,135,135,135,135,135,135,135,135,135,135,135,135,135,
21,21,21,21,21,21,21,21,21,21,21,21,21,21,21,21,
0,0,0,0,0,0,0,0,0,0,0,0,0,0,0,0,
0,0,0,0,0,0,0,0,0,0,0,0,0,0,0,0,
0,0,0,0,0,0,0,0,0,0,0,0,0,0,0,0,
0,0,0,0,0,0,0,0,0,0,0,0,0,0,0,0,
0,0,0,0,0,0,0,0,0,0,0,0,0,0,0,0,
0,0,0,0,0,0,0,0,0,0,0,0,0,0,0,0,
0,0,0,0,0,0,0,0,0,0,0,0,0,0,0,0,
0,0,0,0,0,0,0,0,0,0,0,0,0,0,0,0
</chunk>
   <chunk x="0" y="64" width="16" height="16">
0,0,0,0,0,0,0,0,0,0,0,0,0,0,0,0,
0,0,0,0,0,0,0,0,0,0,0,0,0,0,0,0,
0,0,0,0,0,0,0,0,0,0,0,0,0,0,0,0,
0,0,0,0,0,0,0,0,0,0,0,0,0,0,0,0,
0,0,0,0,0,0,0,0,0,0,0,0,0,0,0,0,
0,0,0,0,0,0,0,0,0,0,0,0,0,0,0,0,
135,135,135,135,135,135,135,135,135,135,135,135,135,135,135,135,
21,21,21,21,21,21,21,21,21,21,21,21,21,21,21,21,
0,0,0,0,0,0,0,0,0,0,0,0,0,0,0,0,
0,0,0,0,0,0,0,0,0,0,0,0,0,0,0,0,
0,0,0,0,0,0,0,0,0,0,0,0,0,0,0,0,
0,0,0,0,0,0,0,0,0,0,0,0,0,0,0,0,
0,0,0,0,0,0,0,0,0,0,0,0,0,0,0,0,
0,0,0,0,0,0,0,0,0,0,0,0,0,0,0,0,
0,0,0,0,0,0,0,0,0,0,0,0,0,0,0,0,
0,0,0,0,0,0,0,0,0,0,0,0,0,0,0,0
</chunk>
   <chunk x="16" y="64" width="16" height="16">
0,0,0,0,0,0,0,0,0,0,0,0,0,0,0,0,
0,0,0,0,0,0,0,0,0,0,0,0,0,0,0,0,
0,0,0,0,0,0,0,0,0,0,0,0,0,0,0,0,
0,0,0,0,0,0,0,0,0,0,0,0,0,0,0,0,
0,0,0,0,0,0,0,0,0,0,0,0,0,0,0,0,
0,0,0,0,0,0,0,0,0,0,0,0,0,0,0,0,
135,135,135,135,135,135,135,135,135,135,135,135,135,135,135,135,
21,21,21,21,21,21,21,21,21,21,21,21,21,21,21,21,
0,0,0,0,0,0,0,0,0,0,0,0,0,0,0,0,
0,0,0,0,0,0,0,0,0,0,0,0,0,0,0,0,
0,0,0,0,0,0,0,0,0,0,0,0,0,0,0,0,
0,0,0,0,0,0,0,0,0,0,0,0,0,0,0,0,
0,0,0,0,0,0,0,0,0,0,0,0,0,0,0,0,
0,0,0,0,0,0,0,0,0,0,0,0,0,0,0,0,
0,0,0,0,0,0,0,0,0,0,0,0,0,0,0,0,
0,0,0,0,0,0,0,0,0,0,0,0,0,0,0,0
</chunk>
   <chunk x="32" y="64" width="16" height="16">
0,0,0,0,0,0,0,0,0,0,0,0,0,0,0,0,
0,0,0,0,0,0,0,0,0,0,0,0,0,0,0,0,
0,0,0,0,0,0,0,0,0,0,0,0,0,0,0,0,
0,0,0,0,0,0,0,0,0,0,0,0,0,0,0,0,
0,0,0,0,0,0,0,0,0,0,0,0,0,0,0,0,
0,0,0,0,0,0,0,0,0,0,0,135,0,0,0,0,
135,135,135,135,135,135,135,135,135,135,135,135,135,135,135,135,
21,21,21,21,21,21,21,21,21,21,21,21,21,21,21,21,
0,0,0,0,0,0,0,0,0,0,0,0,0,0,0,0,
0,0,0,0,0,0,0,0,0,0,0,0,0,0,0,0,
0,0,0,0,0,0,0,0,0,0,0,0,0,0,0,0,
0,0,0,0,0,0,0,0,0,0,0,0,0,0,0,0,
0,0,0,0,0,0,0,0,0,0,0,0,0,0,0,0,
0,0,0,0,0,0,0,0,0,0,0,0,0,0,0,0,
0,0,0,0,0,0,0,0,0,0,0,0,0,0,0,0,
0,0,0,0,0,0,0,0,0,0,0,0,0,0,0,0
</chunk>
   <chunk x="48" y="64" width="16" height="16">
0,0,0,0,0,0,0,0,0,0,0,0,0,0,0,0,
0,0,0,0,0,0,0,0,0,0,0,0,0,0,0,0,
0,0,0,0,0,0,0,0,0,0,0,0,0,0,0,0,
0,0,0,0,0,0,0,0,0,0,0,0,0,0,0,0,
0,0,0,0,0,0,0,0,0,0,0,0,0,0,0,0,
0,0,0,0,0,0,0,0,0,0,0,0,0,0,0,0,
135,135,135,135,135,135,135,135,135,135,135,135,135,135,135,135,
21,21,21,21,21,21,21,21,21,21,21,21,21,21,21,21,
0,0,0,0,0,0,0,0,0,0,0,0,0,0,0,0,
0,0,0,0,0,0,0,0,0,0,0,0,0,0,0,0,
0,0,0,0,0,0,0,0,0,0,0,0,0,0,0,0,
0,0,0,0,0,0,0,0,0,0,0,0,0,0,0,0,
0,0,0,0,0,0,0,0,0,0,0,0,0,0,0,0,
0,0,0,0,0,0,0,0,0,0,0,0,0,0,0,0,
0,0,0,0,0,0,0,0,0,0,0,0,0,0,0,0,
0,0,0,0,0,0,0,0,0,0,0,0,0,0,0,0
</chunk>
   <chunk x="64" y="64" width="16" height="16">
0,0,0,0,0,135,21,0,0,0,0,0,0,0,0,0,
0,0,0,0,0,135,21,0,0,0,0,0,0,0,0,0,
0,0,0,0,0,135,21,0,0,0,0,0,0,0,0,0,
0,0,0,0,0,135,21,0,0,0,0,0,0,0,0,0,
0,0,0,0,0,135,21,0,0,0,0,0,0,0,0,0,
0,0,0,0,0,135,21,0,0,0,0,0,0,0,0,0,
135,135,135,135,135,135,21,0,0,0,0,0,0,0,0,0,
21,21,21,21,21,21,21,0,0,0,0,0,0,0,0,0,
0,0,0,0,0,0,0,0,0,0,0,0,0,0,0,0,
0,0,0,0,0,0,0,0,0,0,0,0,0,0,0,0,
0,0,0,0,0,0,0,0,0,0,0,0,0,0,0,0,
0,0,0,0,0,0,0,0,0,0,0,0,0,0,0,0,
0,0,0,0,0,0,0,0,0,0,0,0,0,0,0,0,
0,0,0,0,0,0,0,0,0,0,0,0,0,0,0,0,
0,0,0,0,0,0,0,0,0,0,0,0,0,0,0,0,
0,0,0,0,0,0,0,0,0,0,0,0,0,0,0,0
</chunk>
  </data>
 </layer>
 <layer id="19" name="Su ayrıntılar 2" width="30" height="20">
  <data encoding="csv">
   <chunk x="-96" y="-80" width="16" height="16">
0,0,0,0,0,0,0,0,0,0,0,0,0,0,0,0,
0,0,0,0,0,0,0,0,0,0,0,0,0,0,0,0,
0,0,0,0,0,0,0,0,0,0,0,0,0,0,0,0,
0,0,0,0,0,0,0,0,0,0,0,0,0,0,0,0,
0,0,0,0,0,0,0,0,0,0,0,0,0,0,0,0,
0,0,0,0,0,0,0,0,0,0,0,0,0,0,0,0,
0,0,0,0,0,0,0,0,0,0,0,0,0,0,0,0,
0,0,0,0,0,0,0,0,0,0,0,0,0,0,0,0,
0,0,0,0,0,0,0,0,0,0,0,0,0,0,0,0,
0,0,0,0,0,0,0,0,0,0,0,0,0,0,0,0,
0,0,0,0,0,0,0,0,0,0,0,0,0,0,0,0,
0,0,0,0,0,0,0,0,0,0,0,0,0,0,0,0,
0,0,0,0,0,0,0,0,0,0,0,0,0,0,0,0,
0,0,0,0,0,0,0,0,0,0,0,0,0,0,0,0,
0,0,0,0,0,0,0,0,0,0,0,0,0,0,0,5030,
0,0,0,0,0,0,0,0,0,0,0,0,0,0,0,5067
</chunk>
   <chunk x="-80" y="-80" width="16" height="16">
0,0,0,0,0,0,0,0,0,0,0,0,0,0,0,0,
0,0,0,0,0,0,0,0,0,0,0,0,0,0,0,0,
0,0,0,0,0,0,0,0,0,0,0,0,0,0,0,0,
0,0,0,0,0,0,0,0,0,0,0,0,0,0,0,0,
0,0,0,0,0,0,0,0,0,0,0,0,0,0,0,0,
0,0,0,0,0,0,0,0,0,0,0,0,0,0,0,0,
0,0,0,0,0,0,0,0,0,0,0,0,0,0,0,0,
0,0,0,0,0,0,0,0,0,0,0,0,0,0,0,0,
0,0,0,0,0,0,0,0,0,0,0,0,0,0,0,0,
0,0,0,0,0,0,0,0,0,0,0,0,0,0,0,0,
0,0,0,0,0,0,0,0,0,0,0,0,0,0,0,0,
0,0,0,0,0,0,0,0,0,0,0,0,0,0,0,0,
0,0,0,0,0,0,0,0,0,0,0,0,0,0,0,0,
0,0,0,0,0,0,0,0,0,0,0,0,0,0,0,0,
5031,5032,5033,5034,5035,5036,5037,5038,5039,5040,5041,5042,5043,5044,5045,5046,
5068,5069,5070,5071,5072,5073,5074,5075,5076,5077,5078,5079,5080,5081,5082,5083
</chunk>
   <chunk x="-64" y="-80" width="16" height="16">
0,0,0,0,0,0,0,0,0,0,0,0,0,0,0,0,
0,0,0,0,0,0,0,0,0,0,0,0,0,0,0,0,
0,0,0,0,0,0,0,0,0,0,0,0,0,0,0,0,
0,0,0,0,0,0,0,0,0,0,0,0,0,0,0,0,
0,0,0,0,0,0,0,0,0,0,0,0,0,0,0,0,
0,0,0,0,0,0,0,0,0,0,0,0,0,0,0,0,
0,0,0,0,0,0,0,0,0,0,0,0,0,0,0,0,
0,0,0,0,0,0,0,0,0,0,0,0,0,0,0,0,
0,0,0,0,0,0,0,0,0,0,0,0,0,0,0,0,
0,0,0,0,0,0,0,0,0,0,0,0,0,0,0,0,
0,0,0,0,0,0,0,0,0,0,0,0,0,0,0,0,
0,0,0,0,0,0,0,0,0,0,0,0,0,0,0,0,
0,0,0,0,0,0,0,0,0,0,0,0,0,0,0,0,
0,0,0,0,0,0,0,0,0,0,0,0,0,0,0,0,
5047,0,0,0,0,0,0,0,0,0,0,0,0,0,0,0,
5084,0,0,0,0,0,0,0,0,0,0,0,0,0,0,0
</chunk>
   <chunk x="-32" y="-80" width="16" height="16">
0,0,0,0,0,0,0,0,0,0,0,0,0,0,0,0,
0,0,0,0,0,0,0,0,0,0,0,0,0,0,0,0,
0,0,0,0,0,0,0,0,0,0,0,0,0,0,0,0,
0,0,0,0,0,0,0,0,0,0,0,0,0,0,0,0,
0,0,0,0,0,0,0,0,0,0,0,0,0,0,0,0,
0,0,0,0,0,0,0,0,0,0,0,0,0,0,0,0,
0,0,0,0,0,0,0,0,0,0,0,0,0,0,0,0,
0,0,0,0,0,0,0,0,0,0,0,0,0,0,0,0,
0,0,0,0,0,0,0,0,0,0,0,0,0,0,0,0,
0,0,0,0,0,0,0,0,0,0,0,0,0,0,0,0,
0,0,0,0,0,5099,5100,5101,5102,0,0,0,0,0,0,0,
0,0,0,0,0,5136,5137,5138,5139,0,0,0,0,0,0,0,
0,0,0,0,0,0,0,0,0,0,0,0,0,0,0,0,
0,0,0,0,0,0,0,0,0,0,0,0,0,0,0,0,
0,0,0,0,0,0,0,0,0,0,0,0,0,0,0,0,
0,0,0,0,0,0,0,0,0,0,0,0,0,0,0,0
</chunk>
   <chunk x="0" y="-80" width="16" height="16">
0,0,0,0,0,0,0,0,0,0,0,0,0,0,0,0,
0,0,0,0,0,0,0,0,0,0,0,0,0,0,0,0,
0,0,0,0,0,0,0,0,0,0,0,0,0,0,0,0,
0,0,0,0,0,0,0,0,0,0,0,0,0,0,0,0,
0,0,0,0,0,0,0,0,0,0,0,0,0,0,0,0,
0,0,0,0,0,0,0,0,0,0,0,0,0,0,0,0,
0,0,0,0,0,0,0,0,0,0,0,0,0,0,0,0,
0,0,0,0,0,0,0,0,0,0,0,0,0,0,0,0,
0,0,0,0,0,0,0,0,0,0,0,0,0,0,0,0,
0,0,0,0,0,0,0,0,0,0,0,0,0,0,0,0,
0,0,0,0,0,0,0,0,0,0,0,0,0,0,0,0,
0,0,0,0,0,0,0,0,0,0,5048,5049,5050,5051,5052,5053,
0,0,0,0,0,0,0,0,0,0,5085,5086,5087,5088,5089,5090,
0,0,0,0,0,0,0,0,0,0,5122,5123,5124,5125,5126,5127,
0,0,0,0,0,0,0,0,0,0,0,0,0,0,0,0,
0,0,0,0,0,0,0,0,0,0,0,0,0,0,0,0
</chunk>
   <chunk x="16" y="-80" width="16" height="16">
0,0,0,0,0,0,0,0,0,0,0,0,0,0,0,0,
0,0,0,0,0,0,0,0,0,0,0,0,0,0,0,0,
0,0,0,0,0,0,0,0,0,0,0,0,0,0,0,0,
0,0,0,0,0,0,0,0,0,0,0,0,0,0,0,0,
0,0,0,0,0,0,0,0,0,0,0,0,0,0,0,0,
0,0,0,0,0,0,0,0,0,0,0,0,0,0,0,0,
0,0,0,0,0,0,0,0,0,0,0,0,0,0,0,0,
0,0,0,0,0,0,0,0,0,0,0,0,0,0,0,0,
0,0,0,0,0,0,0,0,0,0,0,0,0,0,0,0,
0,0,0,0,0,0,0,0,0,0,0,0,0,0,0,0,
0,0,0,0,0,0,0,0,0,0,0,0,0,0,0,0,
5054,5055,5056,5057,5058,0,0,0,0,0,0,0,0,0,0,0,
5091,5092,5093,5094,5095,0,0,0,0,0,0,0,0,0,0,0,
5128,5129,5130,5131,5132,0,0,0,0,0,0,0,0,0,0,0,
0,0,0,0,0,0,0,0,0,0,0,0,0,0,0,0,
0,0,0,0,0,0,0,0,0,0,0,0,0,0,0,0
</chunk>
   <chunk x="32" y="-80" width="16" height="16">
0,0,0,0,0,0,0,0,0,0,0,0,0,0,0,0,
0,0,0,0,0,0,0,0,0,0,0,0,0,0,0,0,
0,0,0,0,0,0,0,0,0,0,0,0,0,0,0,0,
0,0,0,0,0,0,0,0,0,0,0,0,0,0,0,0,
0,0,0,0,0,0,0,0,0,0,0,0,0,0,0,0,
0,0,0,0,0,0,0,0,0,0,0,0,0,0,0,0,
0,0,0,0,0,0,0,0,0,0,0,0,0,0,0,0,
0,0,0,0,0,0,0,0,0,0,0,0,0,0,0,0,
0,0,0,0,0,0,0,0,0,0,0,0,0,0,0,0,
0,0,0,0,0,0,0,0,0,0,0,0,0,0,0,0,
0,0,0,0,5306,5307,5308,5309,5310,5311,5312,5313,0,0,0,0,
0,0,0,0,5343,5344,5345,5346,5347,5348,5349,5350,0,0,0,0,
0,0,0,0,0,0,0,0,0,0,0,0,0,0,0,0,
0,0,0,0,0,0,0,0,0,0,0,0,0,0,0,0,
0,0,0,0,0,0,0,0,0,0,0,0,0,0,0,0,
0,0,0,0,0,0,0,0,0,0,0,0,0,0,0,0
</chunk>
   <chunk x="64" y="-80" width="16" height="16">
0,0,0,0,0,0,0,0,0,0,0,0,0,0,0,0,
0,0,0,0,0,0,0,0,0,0,0,0,0,0,0,0,
0,0,0,0,0,0,0,0,0,0,0,0,0,0,0,0,
0,0,0,0,0,0,0,0,0,0,0,0,0,0,0,0,
0,0,0,0,0,0,0,0,0,0,0,0,0,0,0,0,
0,0,0,0,0,0,0,0,0,0,0,0,0,0,0,0,
0,0,0,0,0,0,0,0,0,0,0,0,0,0,0,0,
0,0,0,0,0,0,0,0,0,0,0,0,0,0,0,0,
0,0,0,0,0,0,0,0,0,0,0,0,0,0,0,0,
0,0,0,0,0,0,0,0,0,0,0,0,0,0,0,0,
0,0,0,0,0,0,0,0,0,0,0,0,0,0,0,0,
0,0,0,0,0,5316,5317,5318,5319,5320,0,0,0,0,0,0,
0,0,0,0,0,5353,5354,5355,5356,5357,0,0,0,0,0,0,
0,0,0,0,0,0,0,0,0,0,0,0,0,0,0,0,
0,0,0,0,0,0,0,0,0,0,0,0,0,0,0,0,
0,0,0,0,0,0,0,0,0,0,0,0,0,0,0,0
</chunk>
   <chunk x="-96" y="-64" width="16" height="16">
0,0,0,0,0,0,0,0,0,0,0,0,0,0,0,5104,
0,0,0,0,0,0,0,0,0,0,0,0,0,0,0,0,
0,0,0,0,0,0,0,0,0,0,0,0,0,0,0,0,
0,0,0,0,0,0,0,0,0,0,0,0,0,0,0,0,
0,0,0,0,0,0,0,0,0,0,0,0,0,0,0,0,
0,0,0,0,0,0,0,0,0,0,0,0,0,0,0,0,
0,0,0,0,0,0,0,0,0,0,0,0,0,0,0,0,
0,0,0,0,0,0,0,0,0,0,0,0,0,0,0,0,
0,0,0,0,0,0,0,0,0,0,0,0,0,0,0,0,
0,0,0,0,0,0,0,0,0,0,0,0,0,0,0,0,
0,0,0,0,0,0,0,0,0,0,0,0,0,0,0,0,
0,0,0,0,0,0,0,0,0,0,0,0,0,0,0,0,
0,0,0,0,0,0,0,0,0,0,0,0,0,0,0,0,
0,0,0,0,0,0,0,0,0,0,0,0,0,0,0,0,
0,0,0,0,0,0,0,0,0,0,0,0,0,0,0,0,
0,0,0,0,0,0,0,0,0,0,0,0,0,0,0,0
</chunk>
   <chunk x="-80" y="-64" width="16" height="16">
5105,5106,5107,5108,5109,5110,5111,5112,5113,5114,5115,5116,5117,5118,5119,5120,
0,0,0,0,0,0,0,0,0,0,0,0,0,0,0,0,
0,0,0,0,0,0,0,0,0,0,0,0,0,0,0,0,
0,0,0,0,0,0,0,0,0,0,0,0,0,0,0,0,
0,0,0,0,0,0,0,0,0,0,0,0,0,0,0,0,
0,0,0,0,0,0,0,0,0,0,0,0,0,0,0,0,
0,0,0,0,0,0,0,0,0,0,0,0,0,0,0,0,
0,0,0,0,0,0,0,0,0,0,0,0,0,0,0,0,
0,0,0,0,0,0,0,0,0,0,0,0,0,0,0,0,
0,0,0,0,0,0,0,0,0,0,0,0,0,0,0,0,
0,0,0,0,0,0,0,0,0,0,0,0,0,0,0,0,
0,0,0,0,0,0,0,0,0,0,0,0,0,0,0,0,
0,0,0,0,0,0,0,0,0,0,0,0,0,0,0,0,
0,0,0,0,0,0,0,0,0,0,0,0,0,0,0,0,
0,0,0,0,0,0,0,0,0,0,0,0,0,0,0,0,
0,0,0,0,0,0,0,0,0,0,0,0,0,0,0,0
</chunk>
   <chunk x="-64" y="-64" width="16" height="16">
5121,0,0,0,0,0,0,0,0,0,0,0,0,0,0,0,
0,0,0,0,0,0,0,0,0,0,0,0,0,0,0,0,
0,0,0,0,0,0,0,0,0,0,0,0,0,0,0,0,
0,0,0,0,0,0,0,0,0,0,0,0,0,0,0,0,
0,0,0,0,0,0,0,0,0,0,0,0,0,0,0,0,
0,0,0,0,0,0,0,0,0,0,0,0,0,0,0,0,
0,0,0,0,0,0,0,0,0,0,0,0,0,0,0,0,
0,0,0,0,0,0,0,0,0,0,0,0,0,0,0,0,
0,0,0,0,0,0,0,0,0,0,0,0,0,0,0,0,
0,0,0,0,0,0,0,0,0,0,0,0,0,0,0,0,
0,0,0,0,0,0,0,0,0,0,0,0,0,0,0,0,
0,0,0,0,0,0,0,0,0,0,0,0,0,0,0,0,
0,0,0,0,0,0,0,0,0,0,0,0,0,0,0,0,
0,0,0,0,0,0,0,0,0,0,0,0,0,0,0,0,
0,0,0,0,0,0,0,0,0,0,0,0,0,0,0,0,
0,0,0,0,0,0,0,0,0,0,0,0,0,0,0,0
</chunk>
   <chunk x="-48" y="-64" width="16" height="16">
0,0,0,0,0,0,0,0,0,0,0,0,0,0,0,0,
0,0,0,0,0,0,0,0,0,0,0,0,0,0,0,0,
0,0,0,0,0,0,0,0,0,0,0,0,0,0,0,0,
0,0,0,0,0,0,0,0,0,0,0,0,0,0,0,0,
0,0,0,0,0,0,0,0,0,0,0,0,0,0,0,0,
0,0,0,0,0,0,0,0,0,0,0,0,0,0,0,0,
0,0,0,0,0,0,0,0,0,0,0,0,0,0,0,0,
5099,5100,5101,5102,0,0,0,0,0,0,0,0,0,0,0,0,
5136,5137,5138,5139,0,0,0,0,0,0,0,0,0,0,0,0,
0,0,0,0,0,0,0,0,0,0,0,0,0,0,0,0,
0,0,0,0,0,0,0,0,0,0,0,0,0,0,0,0,
0,0,0,0,0,0,0,0,0,0,0,0,0,0,0,0,
0,0,0,0,0,0,0,0,0,0,0,0,0,0,0,0,
0,0,0,0,0,0,0,0,0,0,0,0,0,0,0,0,
0,0,0,0,0,0,0,0,0,0,0,0,0,0,0,0,
0,0,0,0,0,0,0,0,0,0,0,0,0,0,0,0
</chunk>
   <chunk x="-32" y="-64" width="16" height="16">
0,0,0,0,0,0,0,0,0,0,0,0,0,0,0,0,
0,0,0,0,0,0,0,0,0,0,0,0,0,0,0,0,
0,0,0,0,0,0,0,0,0,0,0,0,0,0,0,0,
0,0,0,0,0,0,0,0,0,0,0,0,0,0,0,0,
0,0,0,0,0,0,0,0,0,0,0,5030,5031,5032,5033,5034,
0,0,0,0,0,0,0,0,0,0,0,5067,5068,5069,5070,5071,
0,0,0,0,0,0,0,0,0,0,0,5104,5105,5106,5107,5108,
0,0,0,0,0,0,0,0,0,0,0,0,0,0,0,0,
0,0,0,0,0,0,0,0,0,0,0,0,0,0,0,0,
0,0,0,0,0,0,0,0,0,0,0,0,0,0,0,0,
0,0,0,0,0,0,0,0,0,0,0,0,0,0,0,0,
0,0,0,0,0,0,0,0,0,0,0,0,0,0,0,0,
0,0,0,0,0,0,0,0,0,0,0,0,0,0,0,0,
0,0,0,0,0,0,0,0,0,0,0,0,0,0,0,0,
0,0,0,0,0,0,0,0,0,0,0,0,0,0,0,0,
0,0,0,0,0,0,0,0,0,0,0,0,0,0,0,0
</chunk>
   <chunk x="-16" y="-64" width="16" height="16">
0,0,0,0,0,0,0,0,0,0,0,0,0,0,0,0,
0,0,0,0,0,0,0,0,0,0,0,0,0,0,0,0,
0,0,0,0,0,0,0,0,0,0,0,0,0,0,0,0,
0,0,0,0,0,0,0,0,0,0,0,0,0,0,0,0,
5035,5036,5037,5038,5039,5040,5041,5042,5043,5044,5045,5046,5047,0,0,0,
5072,5073,5074,5075,5076,5077,5078,5079,5080,5081,5082,5083,5084,0,0,0,
5109,5110,5111,5112,5113,5114,5115,5116,5117,5118,5119,5120,5121,0,0,0,
0,0,0,0,0,0,0,0,0,0,0,0,0,0,0,0,
0,0,0,0,0,0,0,0,0,0,0,0,0,0,0,0,
0,0,0,0,0,0,0,0,0,0,0,0,0,0,0,0,
0,0,0,0,0,0,0,0,0,0,0,0,0,0,0,0,
0,0,0,0,0,0,0,0,0,0,0,0,0,0,0,0,
0,0,0,0,0,0,0,0,0,0,0,0,0,0,0,0,
0,0,0,0,0,0,0,0,0,0,0,0,0,0,0,0,
0,0,0,0,0,0,0,0,0,0,0,0,0,0,0,0,
0,0,0,0,0,0,0,0,0,0,0,0,0,0,0,0
</chunk>
   <chunk x="0" y="-64" width="16" height="16">
0,0,0,0,0,0,0,0,0,0,0,0,0,0,0,0,
0,0,0,0,0,0,0,0,0,0,0,0,0,0,0,0,
0,0,0,0,0,0,0,0,0,0,0,0,0,0,0,0,
0,0,0,0,0,0,0,0,0,0,0,0,0,0,0,0,
0,0,0,0,0,0,0,0,0,0,0,0,0,0,0,0,
0,0,0,0,0,0,0,0,0,0,0,0,0,0,0,0,
0,0,0,0,0,0,0,0,0,0,0,0,0,0,0,0,
0,0,0,0,0,0,0,0,0,0,0,5099,5100,5101,5102,0,
0,0,0,0,0,0,0,0,0,0,0,5136,5137,5138,5139,0,
0,0,0,0,0,0,0,0,0,0,0,0,0,0,0,0,
0,0,0,0,0,0,0,0,0,0,0,0,0,0,0,0,
0,0,0,0,0,0,0,0,0,0,0,0,0,0,0,0,
0,0,0,0,0,0,0,0,0,0,0,0,0,0,0,0,
0,0,0,0,0,0,0,0,0,0,0,0,0,0,0,0,
0,0,0,0,0,0,0,0,0,0,0,0,0,0,0,0,
0,0,0,0,0,0,0,0,0,0,0,0,0,0,0,0
</chunk>
   <chunk x="16" y="-64" width="16" height="16">
0,0,0,0,0,0,0,0,0,0,0,0,0,0,0,0,
0,0,0,0,0,0,0,0,0,0,0,0,0,0,0,0,
0,0,0,0,0,0,0,0,0,0,0,0,0,0,0,0,
0,0,0,0,0,0,0,5048,5049,5050,5051,5052,5053,5054,5055,5056,
0,0,0,0,0,0,0,5085,5086,5087,5088,5089,5090,5091,5092,5093,
0,0,0,0,0,0,0,5122,5123,5124,5125,5126,5127,5128,5129,5130,
0,0,0,0,0,0,0,0,0,0,0,0,0,0,0,0,
0,0,0,0,0,0,0,0,0,0,0,0,0,0,0,0,
0,0,0,0,0,0,0,0,0,0,0,0,0,0,0,0,
0,0,0,0,0,0,0,0,0,0,0,0,0,0,0,0,
0,0,0,0,0,0,0,0,0,0,0,0,0,0,0,0,
0,0,0,0,0,0,0,0,0,0,0,0,0,0,0,0,
0,0,0,0,0,0,0,0,0,0,0,0,0,0,0,0,
0,0,0,0,0,0,0,0,0,0,0,0,0,0,0,0,
0,0,0,0,0,0,0,0,0,0,0,0,0,0,0,0,
0,0,0,0,0,0,0,0,0,0,0,0,0,0,0,0
</chunk>
   <chunk x="32" y="-64" width="16" height="16">
0,0,0,0,0,0,0,0,0,0,0,0,0,0,0,0,
0,0,0,0,0,0,0,0,0,0,0,0,0,0,0,0,
0,0,0,0,0,0,0,0,0,0,0,0,0,0,0,0,
5057,5058,0,0,0,0,0,0,0,0,0,0,0,0,0,0,
5094,5095,0,0,0,0,0,0,0,0,0,0,0,0,0,0,
5131,5132,0,0,0,0,0,0,0,0,0,0,0,0,0,0,
0,0,0,0,0,0,0,0,0,0,0,0,0,0,0,0,
0,0,0,0,0,0,0,0,0,0,0,0,0,0,0,0,
0,0,0,0,0,0,0,0,0,0,0,0,0,0,0,0,
0,0,0,0,0,0,0,0,0,0,0,0,0,0,0,0,
0,0,0,0,0,0,0,0,0,0,0,0,0,0,0,0,
0,0,0,0,0,0,0,0,0,0,0,0,0,0,0,0,
0,0,0,0,0,0,0,0,0,0,0,0,0,0,0,0,
0,0,0,0,0,0,0,0,0,0,0,0,0,0,0,0,
0,0,0,0,0,0,0,0,0,0,0,0,0,0,0,0,
0,0,0,0,0,0,0,0,0,0,0,0,0,0,0,0
</chunk>
   <chunk x="48" y="-64" width="16" height="16">
0,0,0,0,0,0,0,0,0,0,0,0,0,0,0,0,
0,0,0,0,0,0,0,0,0,0,0,0,0,0,0,0,
0,0,0,0,0,0,0,0,5248,5249,5250,0,0,0,0,0,
0,0,0,0,0,0,0,0,5285,5286,5287,0,0,0,0,0,
0,0,0,0,0,0,0,0,0,0,0,0,0,0,0,0,
0,0,0,0,0,0,0,0,0,0,0,0,0,0,0,0,
0,0,0,5099,5100,5101,5102,0,0,0,0,0,0,0,0,5203,
0,0,0,5136,5137,5138,5139,0,0,0,0,0,0,0,0,5240,
0,0,0,0,0,0,0,0,0,0,0,0,0,0,0,0,
0,0,0,0,0,0,0,0,0,0,0,0,0,0,0,0,
0,0,0,0,0,0,0,0,0,0,0,0,0,0,0,0,
0,0,0,0,0,0,0,0,0,0,0,0,0,0,0,0,
0,0,0,0,0,0,0,0,0,0,0,0,0,0,0,0,
0,0,0,0,0,0,0,0,0,0,0,0,0,0,0,0,
0,0,0,0,0,0,0,0,0,0,0,0,0,0,0,0,
0,0,0,0,0,0,0,0,0,0,0,0,0,0,0,0
</chunk>
   <chunk x="64" y="-64" width="16" height="16">
0,0,0,0,0,0,0,0,0,0,0,0,0,0,0,0,
0,0,0,0,0,0,0,0,0,0,0,0,0,0,0,0,
0,0,0,0,0,0,0,0,0,0,0,0,0,0,0,0,
0,0,0,0,0,0,0,0,0,0,0,0,0,0,0,0,
0,0,0,0,0,0,0,0,0,0,0,0,0,0,0,0,
0,0,0,0,0,0,0,0,0,0,0,0,0,0,0,0,
5204,5205,5206,5207,5208,5209,0,0,0,0,0,0,0,0,0,0,
5241,5242,5243,5244,5245,5246,0,0,0,0,0,0,0,0,0,0,
0,0,0,0,0,0,0,0,0,0,0,0,0,0,0,0,
0,0,0,0,0,0,0,0,0,0,0,0,0,0,0,0,
0,0,0,0,0,0,0,0,0,0,0,0,0,0,0,0,
0,0,0,0,0,0,0,0,0,0,0,0,0,0,0,0,
0,0,0,0,0,0,0,0,0,0,0,0,5203,5204,5205,5206,
0,0,0,0,0,0,0,0,0,0,0,0,5240,5241,5242,5243,
0,0,0,0,0,0,0,0,0,0,0,0,0,0,0,0,
0,0,0,0,0,0,0,0,0,0,0,0,0,0,0,0
</chunk>
   <chunk x="80" y="-64" width="16" height="16">
0,0,0,0,0,0,0,0,0,0,0,0,0,0,0,0,
0,0,0,0,0,0,0,0,0,0,0,0,0,0,0,0,
0,0,0,0,0,0,0,0,0,0,0,0,0,0,0,0,
0,0,0,0,0,0,0,0,0,0,0,0,0,0,0,0,
0,0,0,0,0,0,0,0,0,0,0,0,0,0,0,0,
0,0,0,0,0,0,0,0,0,0,0,0,0,0,0,0,
0,0,0,0,0,0,0,0,0,0,0,0,0,0,0,0,
0,0,0,0,0,0,0,0,0,0,0,0,0,0,0,0,
0,0,0,0,0,0,0,0,0,0,0,0,0,0,0,0,
0,0,0,0,0,0,0,0,0,0,0,0,0,0,0,0,
0,0,0,0,0,0,0,0,0,0,0,0,0,0,0,0,
0,0,0,0,0,0,0,0,0,0,0,0,0,0,0,0,
5207,5208,5209,0,0,0,0,0,0,0,0,0,0,0,0,0,
5244,5245,5246,0,0,0,0,0,0,0,0,0,0,0,0,0,
0,0,0,0,0,0,0,0,0,0,0,0,0,0,0,0,
0,0,0,0,0,0,0,0,0,0,0,0,0,0,0,0
</chunk>
   <chunk x="-96" y="-48" width="16" height="16">
0,0,0,0,0,0,0,0,0,0,0,0,0,0,0,0,
0,0,0,0,0,0,0,0,0,0,0,0,0,0,0,0,
0,0,0,0,0,0,0,0,0,0,0,0,0,0,0,0,
0,0,0,0,0,0,0,0,0,0,0,0,0,0,0,0,
0,0,0,0,0,0,0,0,0,0,0,0,0,0,0,0,
0,0,0,0,0,0,0,0,0,0,0,0,0,0,0,0,
0,0,0,0,0,0,0,0,0,0,0,0,0,0,0,0,
0,0,0,0,0,0,0,0,0,0,0,0,0,0,0,0,
0,0,0,0,0,0,0,0,0,0,0,0,0,0,0,0,
0,0,0,0,0,0,0,0,0,0,0,0,0,0,0,0,
0,0,0,0,0,0,0,0,0,0,0,0,0,0,0,0,
0,0,0,0,0,0,0,0,0,0,0,0,0,0,0,0,
0,0,0,0,0,0,0,0,0,0,0,0,0,0,0,0,
0,0,0,0,0,0,0,0,0,0,0,0,0,0,0,0,
0,0,0,0,0,0,0,0,0,0,0,0,0,0,0,0,
0,0,0,0,0,0,0,0,5048,5049,5050,5051,5052,5053,5054,5055
</chunk>
   <chunk x="-80" y="-48" width="16" height="16">
0,0,0,0,0,0,0,0,0,0,0,0,0,0,0,0,
0,0,0,0,0,0,0,0,0,0,0,0,0,0,0,0,
0,0,5099,5100,5101,5102,0,0,0,0,0,0,0,0,0,0,
0,0,5136,5137,5138,5139,0,0,0,0,0,0,0,0,0,0,
0,0,0,0,0,0,0,0,0,0,0,0,0,0,0,0,
0,0,0,0,0,0,0,0,0,0,0,0,0,0,0,0,
0,0,0,0,0,0,0,0,0,0,0,0,0,0,0,0,
0,0,0,0,0,0,0,0,0,0,0,0,0,0,0,0,
0,0,0,0,0,0,0,0,0,0,0,0,0,0,0,0,
0,0,0,0,0,0,0,0,0,0,1767,0,0,0,0,0,
0,0,0,0,0,0,0,0,0,0,1767,0,0,0,0,0,
0,0,0,0,0,0,0,0,0,0,1767,0,0,0,0,0,
0,0,0,0,0,0,0,0,0,0,1767,0,0,0,0,0,
0,0,0,0,0,0,0,0,0,0,1767,0,0,0,0,0,
0,0,0,0,0,0,0,0,0,0,1767,0,0,0,0,0,
5056,5057,5058,0,0,0,0,0,0,0,1767,0,0,0,0,0
</chunk>
   <chunk x="80" y="-48" width="16" height="16">
0,0,0,0,0,0,0,0,0,0,0,0,0,0,0,0,
0,0,0,0,0,0,0,0,0,0,0,0,0,0,0,0,
0,0,0,0,0,0,0,0,0,0,0,0,0,0,0,0,
0,0,5316,5317,5318,5319,5320,0,0,0,0,0,0,0,0,0,
0,0,5353,5354,5355,5356,5357,0,0,0,0,0,0,0,0,0,
0,0,5390,5391,5392,5393,5394,0,0,0,0,0,0,0,0,0,
0,0,0,0,0,0,0,0,0,0,0,0,0,0,0,0,
0,0,0,0,0,0,0,0,0,0,0,0,0,0,0,0,
0,0,0,0,0,0,0,0,0,0,0,0,0,0,0,0,
0,0,0,0,0,0,0,0,0,0,0,0,0,0,0,0,
0,0,0,0,0,0,0,0,0,0,0,0,0,0,0,0,
0,0,0,0,0,0,0,0,0,0,0,0,0,0,0,0,
0,0,0,0,0,0,0,0,0,0,0,0,0,0,0,0,
0,0,0,0,0,0,0,0,0,0,0,0,0,0,0,0,
0,0,0,0,0,0,0,0,0,0,0,0,0,0,0,0,
0,0,0,0,0,0,0,0,0,0,0,0,0,0,0,0
</chunk>
   <chunk x="-96" y="-32" width="16" height="16">
0,0,0,0,0,0,0,0,5085,5086,5087,5088,5089,5090,5091,5092,
0,0,0,0,0,0,0,0,5122,5123,5124,5125,5126,5127,5128,5129,
0,0,0,0,0,0,0,0,0,0,0,0,0,0,0,0,
0,0,0,0,0,0,0,0,0,0,0,0,0,0,0,0,
0,0,0,0,0,0,0,0,0,0,0,0,0,0,0,0,
0,0,0,0,0,0,0,0,0,0,0,0,0,0,0,0,
0,0,0,0,0,0,0,0,0,0,0,0,0,0,0,0,
0,0,0,0,0,0,0,0,0,0,0,0,0,0,0,0,
0,0,0,0,0,0,0,0,0,0,0,0,0,0,0,0,
0,0,0,0,0,0,0,0,0,0,0,0,0,0,0,0,
0,0,0,0,0,0,0,0,0,0,0,0,0,0,0,0,
0,0,0,0,0,0,0,0,0,0,0,0,0,0,0,0,
0,0,0,0,0,0,0,0,0,0,0,0,0,0,0,0,
0,0,0,0,0,0,0,0,0,0,0,0,0,0,0,0,
0,0,0,0,0,0,0,0,0,0,0,0,0,0,0,0,
0,0,0,0,0,0,0,0,0,0,0,0,0,0,0,0
</chunk>
   <chunk x="-80" y="-32" width="16" height="16">
5093,5094,5095,0,0,0,0,0,0,0,1767,0,0,0,0,0,
5130,5131,5132,0,0,0,0,0,0,0,1767,0,0,0,0,0,
0,0,0,0,0,0,0,0,0,0,1767,0,0,0,0,0,
0,0,0,0,0,0,0,0,0,0,1767,0,0,0,0,0,
0,0,0,0,0,0,0,0,0,0,1767,0,0,0,0,0,
0,0,0,0,0,0,0,0,0,0,1767,0,0,0,0,0,
0,0,0,0,0,0,0,0,0,0,1767,0,0,0,0,0,
0,0,0,0,0,0,0,0,0,0,1767,0,0,0,0,0,
0,0,0,0,0,0,0,0,0,0,1767,0,0,0,0,0,
0,0,0,0,0,0,0,0,0,0,1767,0,0,0,0,0,
0,0,0,0,0,0,0,0,0,0,1767,0,0,0,0,0,
0,0,0,0,0,0,0,0,0,0,1767,0,0,0,0,0,
0,0,0,0,0,0,0,0,0,0,1767,0,0,0,0,0,
0,0,0,0,0,0,0,0,0,0,1767,0,0,0,0,0,
0,0,0,0,0,0,0,0,0,0,1767,0,0,0,0,0,
0,0,0,0,0,0,0,0,0,0,1767,0,0,0,0,0
</chunk>
   <chunk x="64" y="-32" width="16" height="16">
0,0,0,0,0,0,0,0,0,0,0,0,0,0,0,0,
0,0,0,0,0,0,0,0,0,0,0,0,0,0,0,0,
0,0,0,0,0,0,0,0,0,0,0,0,0,0,0,0,
0,0,0,0,0,0,0,0,0,0,0,0,0,0,0,5306,
0,0,0,0,0,0,0,0,0,0,0,0,0,0,0,5343,
0,0,0,0,0,0,0,0,0,0,0,0,0,0,0,0,
0,0,0,0,0,0,0,0,5316,5317,5318,5319,5320,0,0,0,
0,0,0,0,0,0,0,0,5353,5354,5355,5356,5357,0,0,0,
0,0,0,0,0,0,0,0,5390,5391,5392,5393,5394,0,0,0,
0,0,0,0,0,0,0,0,0,0,0,0,0,0,0,0,
0,0,0,0,0,0,0,0,0,0,0,0,0,0,0,0,
0,0,0,0,0,0,0,0,0,0,0,0,0,0,0,0,
0,0,0,0,0,0,0,0,0,0,0,0,0,0,0,0,
0,0,5179,5180,5181,5182,5183,5184,5185,5186,5187,5188,5189,5190,5191,0,
0,0,5216,5217,5218,5219,5220,5221,5222,5223,5224,5225,5226,5227,5228,0,
0,0,5253,5254,5255,5256,5257,5258,5259,5260,5261,5262,5263,5264,5265,0
</chunk>
   <chunk x="80" y="-32" width="16" height="16">
0,0,0,0,0,0,0,0,0,0,0,0,0,0,0,0,
0,0,0,0,0,0,0,0,0,0,0,0,0,0,0,0,
0,0,0,0,0,0,0,0,0,0,0,0,0,0,0,0,
5307,5308,5309,5310,5311,5312,0,0,0,0,0,0,0,0,0,0,
5344,5345,5346,5347,5348,5349,0,0,0,0,0,0,0,0,0,0,
0,0,0,0,0,0,0,0,0,0,0,0,0,0,0,0,
0,0,0,0,0,0,0,0,0,0,0,0,0,0,0,0,
0,0,0,0,0,0,0,0,0,0,0,0,0,0,0,0,
0,0,0,0,0,0,0,0,0,0,0,0,0,0,0,0,
0,0,0,0,0,0,0,0,0,0,0,0,0,0,0,0,
0,0,0,0,0,0,0,0,0,0,0,0,0,0,0,0,
0,0,0,0,0,0,0,0,0,0,0,0,0,0,0,0,
0,0,0,0,0,0,0,0,0,0,0,0,0,0,0,0,
0,0,0,0,0,0,0,0,0,0,0,0,0,0,0,0,
0,0,0,0,0,0,0,0,0,0,0,0,0,0,0,0,
0,0,0,0,0,0,0,0,0,0,0,0,0,0,0,0
</chunk>
   <chunk x="-16" y="-16" width="16" height="16">
0,0,0,0,0,0,0,0,0,0,0,0,0,0,0,0,
0,0,0,0,0,0,0,0,0,0,0,0,0,0,0,0,
0,0,0,0,0,0,0,0,0,0,0,0,0,0,0,0,
0,0,0,0,0,0,0,0,0,0,0,0,0,0,0,0,
0,0,0,0,0,0,0,0,0,0,0,0,0,0,0,0,
0,0,0,0,0,0,0,0,0,0,0,0,0,0,0,0,
0,0,0,0,0,0,0,0,0,0,0,0,0,0,0,0,
0,0,0,0,0,0,0,0,0,0,0,0,0,0,0,0,
0,0,0,0,0,0,0,0,0,0,0,0,0,0,0,0,
0,0,0,0,0,0,0,0,0,0,0,0,0,0,0,0,
0,0,0,0,0,0,0,0,0,0,0,0,0,0,0,0,
0,0,0,0,0,0,0,0,0,0,0,0,0,0,0,0,
0,0,0,0,0,0,0,0,0,0,0,0,0,0,1,3,
0,0,0,0,0,0,0,0,0,0,0,0,0,0,39,41,
0,0,0,0,0,0,0,0,0,0,0,0,0,0,0,0,
0,0,0,0,0,0,0,0,0,0,0,0,0,0,0,0
</chunk>
   <chunk x="16" y="-16" width="16" height="16">
0,0,0,0,0,0,0,0,0,0,0,0,0,0,0,0,
0,0,0,0,0,0,0,0,0,0,0,0,0,0,0,0,
0,0,0,0,0,0,0,0,0,0,0,0,0,0,0,0,
0,0,0,0,0,0,0,0,0,0,0,0,0,0,0,0,
0,0,0,0,0,0,0,0,0,0,0,0,0,0,0,0,
0,0,0,0,0,0,0,0,0,0,0,0,0,0,0,0,
0,0,0,0,0,0,0,0,0,0,0,0,0,0,0,0,
0,0,0,0,0,0,0,0,0,0,0,0,0,0,0,0,
0,0,0,0,0,0,0,0,0,0,0,0,0,0,0,0,
0,0,0,0,0,0,0,0,0,0,0,0,0,0,0,0,
0,0,0,0,0,0,0,0,0,0,1758,1758,0,0,0,0,
0,0,0,0,0,0,0,0,0,1758,1730,1788,1788,1731,0,0,
0,0,0,0,0,0,0,0,0,1730,1789,0,0,1787,1731,0,
0,0,0,0,0,0,0,0,1730,1789,0,0,0,0,0,0,
0,0,0,0,0,0,0,1730,1789,0,0,0,0,0,0,0,
0,0,0,0,0,0,1730,1789,9549,9550,9551,9552,9553,9554,9555,9556
</chunk>
   <chunk x="48" y="-16" width="16" height="16">
0,0,0,0,0,0,0,0,0,0,0,0,0,0,0,0,
0,0,0,0,0,0,0,0,0,0,0,0,0,0,0,0,
0,0,0,0,0,0,0,0,0,0,0,0,0,0,0,0,
0,0,0,0,0,0,0,0,0,0,0,0,0,0,0,0,
0,0,0,0,0,0,0,0,0,0,0,0,0,0,0,0,
0,0,0,0,0,0,0,0,0,0,0,0,0,0,0,0,
0,0,0,0,0,0,0,0,0,0,0,0,0,0,0,0,
0,0,0,0,0,0,0,0,0,0,0,0,0,0,0,0,
0,0,0,0,0,0,0,0,0,0,0,0,0,0,0,0,
0,0,0,0,0,0,0,0,0,0,0,0,0,0,0,0,
0,0,0,0,0,0,0,0,0,0,0,0,0,0,0,0,
0,0,0,0,0,0,0,0,0,0,0,0,0,0,0,0,
0,0,0,0,0,0,0,9549,9550,9551,9552,9553,9554,9555,9556,0,
0,0,0,0,0,0,0,9586,9587,9588,9589,9590,9591,9592,9593,0,
0,0,0,0,0,0,0,9623,9624,9625,9626,9627,9628,9629,9630,0,
0,0,0,0,0,0,0,0,0,0,0,0,0,0,0,0
</chunk>
   <chunk x="64" y="-16" width="16" height="16">
0,0,0,0,0,0,0,0,0,0,0,0,0,0,0,0,
0,0,0,0,0,0,0,0,0,0,0,0,0,0,0,0,
0,0,0,0,0,0,0,0,0,0,0,0,0,0,0,0,
0,0,0,0,0,0,0,0,0,0,0,0,0,0,0,0,
9549,9550,9551,9552,0,0,0,9556,0,0,0,0,0,0,0,0,
9586,9587,9588,9589,0,0,0,9593,0,0,0,0,0,0,0,0,
9623,9624,9625,9626,9627,0,0,9630,0,0,0,0,0,0,0,0,
0,0,0,0,0,0,0,0,0,0,0,0,0,0,0,0,
0,0,0,0,0,0,0,0,0,0,0,0,0,0,0,0,
0,0,0,0,0,0,0,0,0,0,0,0,0,0,0,0,
0,0,0,0,0,0,0,0,0,0,0,0,0,0,0,0,
0,0,0,0,0,0,0,0,0,0,0,0,0,0,0,0,
0,0,0,0,0,0,0,0,0,0,0,0,0,0,0,0,
0,0,0,0,0,0,0,0,0,0,0,0,0,0,0,0,
0,0,0,0,0,0,0,0,0,0,0,0,0,0,0,0,
0,0,0,0,0,0,0,0,0,0,0,0,0,0,0,0
</chunk>
   <chunk x="80" y="-16" width="16" height="16">
0,0,0,0,0,0,0,0,0,0,0,0,0,0,0,0,
0,0,0,0,0,0,0,0,0,0,0,0,0,0,0,0,
0,0,0,0,0,0,0,0,0,0,0,0,0,0,0,0,
0,0,0,0,0,0,0,0,0,0,0,0,0,0,0,0,
0,0,0,0,0,0,0,0,0,0,0,0,0,0,0,0,
0,0,0,0,0,0,0,0,0,0,0,0,0,0,0,0,
0,0,0,0,0,0,0,0,0,0,0,0,0,0,0,0,
0,0,0,0,0,0,0,0,0,0,0,0,0,0,0,0,
0,0,0,0,0,0,0,0,0,0,0,0,0,0,0,0,
0,0,0,0,0,0,0,0,0,0,0,0,0,0,0,0,
0,0,0,0,0,0,0,0,0,0,0,0,0,0,0,0,
0,0,0,5316,5317,5318,5319,5320,0,0,0,0,0,0,0,0,
0,0,0,5353,5354,5355,5356,5357,0,0,0,0,0,0,0,0,
0,0,0,5390,5391,5392,5393,5394,0,0,0,0,0,0,0,0,
0,0,0,0,0,0,0,0,0,0,0,0,0,0,0,0,
0,0,0,0,0,0,0,0,0,0,0,0,0,0,0,0
</chunk>
   <chunk x="16" y="0" width="16" height="16">
0,0,0,0,0,0,1766,0,9586,9587,9588,9589,9590,9591,9592,9593,
0,0,0,0,0,0,1766,0,9623,9624,9625,9626,9627,9628,9629,9630,
0,0,0,0,0,1730,1789,0,0,0,0,0,0,0,0,0,
0,0,0,0,0,1789,0,0,0,0,0,0,0,0,0,0,
0,0,0,0,0,0,0,0,0,0,0,0,0,0,0,0,
0,0,0,0,0,0,0,0,0,0,0,0,0,0,0,0,
0,0,0,0,0,0,0,0,0,0,0,0,0,0,0,0,
0,0,0,0,0,0,0,0,0,0,0,0,0,0,0,0,
0,0,0,0,0,0,0,0,0,1730,1788,1731,0,0,0,0,
0,0,0,0,0,0,0,0,0,1766,0,1787,1731,0,0,0,
0,0,0,0,0,0,0,0,0,8949,8950,0,1767,0,0,0,
0,0,0,0,0,0,0,0,0,1760,1728,1728,1797,0,0,0,
0,0,0,0,0,0,0,0,0,0,0,0,0,0,0,0,
0,0,0,0,0,0,0,0,0,0,0,0,0,0,0,0,
0,0,0,0,0,0,0,0,0,0,0,0,0,0,0,0,
0,0,0,0,0,0,0,0,0,0,0,0,0,0,0,0
</chunk>
   <chunk x="32" y="0" width="16" height="16">
0,0,0,0,0,0,0,0,0,0,0,0,0,0,0,0,
0,0,0,0,0,0,0,0,0,0,0,0,0,0,0,0,
0,0,0,0,0,0,0,0,0,0,0,0,0,0,0,0,
0,0,0,0,0,0,0,0,0,0,0,0,0,0,0,0,
0,0,0,0,0,0,0,0,0,0,0,0,0,0,0,0,
0,0,0,0,0,0,0,0,0,0,0,0,0,0,0,0,
0,9549,9550,9551,9552,9553,9554,9555,9556,0,0,0,0,0,0,0,
0,9586,9587,9588,9589,9590,9591,9592,9593,0,0,0,0,0,0,0,
0,9623,9624,9625,9626,9627,9628,9629,9630,0,0,0,0,0,0,0,
0,0,0,0,0,0,0,0,0,0,0,0,0,0,0,0,
0,0,0,0,0,0,0,0,0,0,0,0,0,0,0,0,
0,0,0,0,0,0,0,0,0,0,0,0,0,0,9549,9550,
0,0,0,0,0,0,0,0,0,0,0,0,0,0,9586,9587,
0,0,0,0,0,0,0,0,0,0,0,0,0,0,9623,9624,
0,0,0,0,0,0,0,0,0,0,0,0,0,0,0,0,
0,0,0,0,0,0,0,0,0,0,0,0,0,0,0,0
</chunk>
   <chunk x="48" y="0" width="16" height="16">
0,0,0,0,0,0,0,0,0,0,0,0,0,0,0,0,
0,0,0,0,0,0,0,0,0,0,0,0,0,0,0,0,
0,0,0,0,0,0,0,0,0,0,0,0,0,0,0,0,
0,0,0,0,0,0,0,0,0,0,0,0,0,0,0,0,
0,0,0,0,0,0,0,0,0,0,0,0,0,0,0,0,
0,0,0,0,0,0,0,0,0,0,0,0,0,0,0,0,
0,0,0,0,0,0,0,0,0,0,0,0,0,0,0,0,
0,0,0,0,0,0,0,0,0,0,0,0,0,0,0,0,
0,0,0,0,0,0,0,0,0,0,0,0,0,0,0,0,
0,0,0,0,0,0,0,0,0,0,0,0,0,0,0,0,
0,0,0,0,0,0,0,0,0,0,0,0,0,0,0,0,
9551,9552,9553,0,0,0,0,0,0,0,0,0,0,0,0,0,
9588,9589,9590,0,0,0,0,0,0,0,0,0,0,0,0,0,
9625,9626,9627,9628,9629,9630,0,0,0,0,0,0,0,0,0,0,
0,0,0,0,0,0,0,0,0,0,0,0,0,0,0,0,
0,0,0,0,0,0,0,0,0,0,0,0,0,0,0,0
</chunk>
   <chunk x="64" y="0" width="16" height="16">
0,0,0,0,0,0,0,0,0,0,0,0,0,0,0,0,
0,0,0,0,0,0,0,0,0,0,0,0,0,0,0,0,
0,0,0,0,0,0,0,0,0,0,0,0,0,0,0,0,
0,0,0,0,0,0,0,0,0,0,0,0,0,0,0,0,
0,0,0,0,0,0,0,0,0,0,0,0,0,0,0,0,
0,0,0,0,0,0,0,0,0,0,0,0,0,0,0,0,
0,0,0,0,0,0,0,0,0,0,0,0,0,0,0,0,
0,0,0,0,0,0,0,0,0,0,0,0,0,0,0,0,
0,0,0,0,0,0,0,0,0,0,0,0,0,0,0,0,
0,0,0,0,0,0,0,0,0,0,0,0,0,0,0,0,
0,0,0,0,0,0,0,0,0,0,0,0,0,0,0,0,
0,0,0,0,0,0,0,0,0,0,5316,5317,5318,5319,5320,0,
0,0,0,0,0,0,0,0,0,0,5353,5354,5355,5356,5357,0,
0,0,0,0,0,0,0,0,0,0,5390,5391,5392,5393,5394,0,
0,0,0,0,0,0,0,0,0,0,0,0,0,0,0,0,
0,0,0,0,0,0,0,0,0,0,0,0,0,0,0,0
</chunk>
   <chunk x="80" y="0" width="16" height="16">
0,0,0,0,0,0,0,0,0,0,0,0,0,0,0,0,
0,0,0,0,0,0,0,0,0,0,0,0,0,0,0,0,
0,0,0,0,0,0,0,0,0,0,0,0,0,0,0,0,
0,0,0,0,0,0,0,0,0,0,0,0,0,0,0,0,
0,0,0,0,0,0,0,0,0,0,0,0,0,0,0,0,
0,5030,5031,5032,5033,5034,5035,5036,5037,5038,5039,5040,5041,5042,5043,5044,
0,5067,5068,5069,5070,5071,5072,5073,5074,5075,5076,5077,5078,5079,5080,5081,
0,5104,5105,5106,5107,5108,5109,5110,5111,5112,5113,5114,5115,5116,5117,5118,
0,0,0,0,0,0,0,0,0,0,0,0,0,0,0,0,
0,0,0,0,0,0,0,0,0,0,0,0,0,0,0,0,
0,0,0,0,0,0,0,0,0,0,0,0,0,0,0,0,
0,0,0,0,0,0,0,0,0,0,0,0,0,0,0,0,
0,0,0,0,0,0,0,0,0,0,0,0,0,0,0,0,
0,0,0,0,0,0,0,0,0,0,0,0,0,0,0,0,
0,0,0,0,0,0,0,0,0,0,0,0,0,0,0,0,
0,0,0,0,0,0,0,0,0,0,0,0,0,0,0,0
</chunk>
   <chunk x="96" y="0" width="16" height="16">
0,0,0,0,0,0,0,0,0,0,0,0,0,0,0,0,
0,0,0,0,0,0,0,0,0,0,0,0,0,0,0,0,
0,0,0,0,0,0,0,0,0,0,0,0,0,0,0,0,
0,0,0,0,0,0,0,0,0,0,0,0,0,0,0,0,
0,0,0,0,0,0,0,0,0,0,0,0,0,0,0,0,
5045,5046,0,0,0,0,0,0,0,0,0,0,0,0,0,0,
5082,5083,0,0,0,0,0,0,0,0,0,0,0,0,0,0,
5119,5120,0,0,0,0,0,0,0,0,0,0,0,0,0,0,
0,0,0,0,0,0,0,0,0,0,0,0,0,0,0,0,
0,0,0,0,0,0,0,0,0,0,0,0,0,0,0,0,
0,0,0,0,0,0,0,0,0,0,0,0,0,0,0,0,
0,0,0,0,0,0,0,0,0,0,0,0,0,0,0,0,
0,0,0,0,0,0,0,0,0,0,0,0,0,0,0,0,
0,0,0,0,0,0,0,0,0,0,0,0,0,0,0,0,
0,0,0,0,0,0,0,0,0,0,0,0,0,0,0,0,
0,0,0,0,0,0,0,0,0,0,0,0,0,0,0,0
</chunk>
   <chunk x="-64" y="16" width="16" height="16">
0,0,0,0,0,0,0,0,0,0,0,0,0,0,0,0,
0,0,0,0,0,0,0,0,0,0,0,0,0,0,0,0,
0,0,0,0,0,0,0,0,0,0,0,0,0,0,0,0,
0,0,0,0,0,0,0,0,0,0,0,0,0,0,0,0,
0,0,0,0,0,0,0,0,0,0,0,0,0,0,0,0,
0,0,0,0,0,0,0,0,0,0,0,0,0,0,0,0,
0,0,0,0,0,0,0,0,0,0,0,0,0,0,0,0,
0,0,0,0,0,0,0,0,0,0,0,0,0,0,0,0,
0,0,0,0,0,0,0,0,0,0,0,0,0,0,0,0,
0,0,0,0,0,0,0,0,0,0,0,0,0,0,0,0,
0,0,0,0,0,0,0,0,0,0,0,0,0,0,0,0,
0,0,0,0,0,0,0,0,0,0,0,0,0,0,0,0,
0,0,0,0,0,0,0,0,0,0,0,0,0,0,0,0,
0,0,0,0,0,0,0,0,0,0,0,0,5309,5310,5311,5312,
0,0,0,0,0,0,0,0,0,0,0,0,5346,5347,5348,5349,
0,0,0,0,0,0,0,0,0,0,0,0,0,0,0,0
</chunk>
   <chunk x="-48" y="16" width="16" height="16">
0,0,0,0,0,0,0,0,0,0,0,0,0,0,0,0,
0,0,0,0,0,0,0,0,0,0,0,0,0,0,0,0,
0,0,0,0,0,0,0,0,0,0,0,0,0,0,0,0,
0,0,0,0,0,0,0,0,0,0,0,0,0,0,0,0,
0,0,0,0,0,0,0,0,0,0,0,0,0,0,0,0,
0,0,0,0,0,0,0,0,0,0,0,0,0,0,0,0,
0,0,0,0,0,0,0,0,0,0,0,0,0,0,0,0,
0,0,0,0,0,0,0,0,0,0,0,0,0,0,0,0,
0,0,0,0,0,0,0,0,0,0,0,0,0,0,0,0,
0,0,0,0,0,0,0,0,0,0,0,0,0,0,0,0,
0,0,0,0,0,0,0,0,0,0,0,0,0,0,0,0,
0,0,0,0,0,0,0,0,0,0,0,0,0,0,0,0,
0,0,0,0,0,0,0,0,0,0,0,0,0,0,0,0,
5313,0,0,0,0,0,0,0,0,0,0,0,0,0,0,0,
5350,0,0,0,0,0,0,0,0,0,0,0,0,0,0,0,
0,0,0,0,0,0,0,0,0,0,0,0,0,0,0,0
</chunk>
   <chunk x="-16" y="16" width="16" height="16">
0,0,0,0,0,0,0,0,0,0,0,0,0,0,0,0,
0,0,0,0,0,0,0,0,0,0,0,0,0,0,0,0,
0,0,0,0,0,0,0,0,0,0,0,0,0,0,0,0,
0,0,0,0,0,0,0,0,0,0,0,0,0,0,0,0,
0,0,0,0,0,0,0,0,0,0,0,0,0,0,0,0,
0,0,0,0,0,0,0,0,0,0,0,0,0,0,0,0,
0,0,0,0,0,0,0,0,0,0,0,0,0,0,0,0,
0,0,0,0,0,0,0,0,0,0,0,0,0,0,5316,5317,
0,0,0,0,0,0,0,0,0,0,0,0,0,0,5353,5354,
0,0,0,0,0,0,0,0,0,0,0,0,8966,8967,5390,5391,
0,0,0,0,0,0,0,0,0,0,0,0,8973,8974,0,0,
0,0,0,0,0,0,0,0,0,0,0,0,5316,5317,5318,5319,
0,0,0,0,0,0,0,0,0,0,0,0,5353,5354,5355,5356,
0,0,0,0,0,5316,5317,5318,5319,5320,0,0,5390,5391,5392,5393,
0,0,0,0,0,5353,5354,5355,5356,5357,0,0,0,0,0,0,
0,0,0,0,0,5390,5391,5392,5393,5394,0,0,0,0,0,0
</chunk>
   <chunk x="0" y="16" width="16" height="16">
0,0,0,0,0,0,0,0,0,0,0,0,0,0,0,0,
0,0,0,0,0,0,0,0,0,0,0,0,0,0,0,0,
0,0,0,0,0,0,0,0,0,0,0,0,0,0,0,0,
0,0,0,0,0,0,0,0,0,0,0,0,0,0,0,0,
0,0,0,0,0,5306,5307,5308,5309,5310,5311,5312,5313,0,0,0,
0,0,0,0,0,5343,5344,5345,5346,5347,5348,5349,5350,0,0,0,
0,0,0,0,0,0,0,0,0,0,0,0,0,0,0,0,
5318,5319,5320,0,0,0,0,0,0,0,0,0,0,0,0,0,
5355,5356,5357,0,0,0,0,0,0,0,0,0,0,0,0,0,
5392,5393,5394,0,0,0,0,0,0,0,0,0,0,0,0,0,
0,0,0,0,0,0,0,0,0,0,0,0,0,0,0,0,
5320,0,0,0,0,0,0,0,0,0,0,0,0,0,0,0,
5357,0,0,0,0,0,0,0,0,0,0,0,0,0,0,0,
5394,0,0,0,0,0,0,0,0,0,0,0,0,0,0,0,
0,0,0,0,0,0,0,0,0,0,0,0,0,0,0,0,
0,0,0,0,0,0,0,0,0,0,0,0,0,0,0,0
</chunk>
   <chunk x="64" y="16" width="16" height="16">
0,0,0,0,0,0,0,0,0,0,0,0,0,0,0,0,
0,0,0,0,0,0,0,0,0,0,0,0,0,0,0,0,
0,0,0,0,0,0,0,0,5048,5049,5050,5051,5052,5053,5054,5055,
0,0,0,0,0,0,0,0,5085,5086,5087,5088,5089,5090,5091,5092,
0,0,0,0,0,0,0,0,5122,5123,5124,5125,5126,5127,5128,5129,
0,0,0,0,0,0,0,0,0,0,0,0,0,0,0,0,
0,0,0,0,0,0,0,0,0,0,0,0,0,0,0,0,
0,0,0,0,0,0,0,0,0,0,0,0,0,0,0,0,
0,0,0,0,0,0,0,0,0,0,0,0,0,0,0,0,
0,0,0,0,0,0,0,0,0,0,0,0,0,0,0,0,
0,0,0,0,0,0,0,0,0,0,0,0,0,0,0,0,
0,0,0,0,0,0,0,0,0,0,0,0,0,0,0,0,
0,0,0,0,0,0,0,0,0,0,0,0,0,0,0,0,
0,0,0,0,0,0,0,0,0,0,0,0,0,0,0,0,
0,0,0,0,0,0,0,0,0,0,0,0,0,0,0,0,
0,0,0,0,0,0,0,0,0,0,0,0,0,0,0,0
</chunk>
   <chunk x="80" y="16" width="16" height="16">
0,0,0,0,0,0,0,0,0,0,0,0,0,0,0,0,
0,0,0,0,0,0,0,0,0,0,0,0,0,0,0,0,
5056,5057,5058,0,0,0,0,0,0,0,0,0,0,0,0,0,
5093,5094,5095,0,0,0,0,0,0,0,0,0,0,0,0,0,
5130,5131,5132,0,0,0,0,0,0,0,0,0,0,0,0,0,
0,0,0,0,0,0,0,0,0,0,0,0,0,0,0,0,
0,0,0,0,0,0,0,0,0,0,0,0,0,0,0,0,
0,0,0,0,0,0,0,0,0,0,0,0,0,0,0,0,
0,0,0,0,5316,5317,5318,5319,5320,0,0,0,0,0,0,0,
0,0,0,0,5353,5354,5355,5356,5357,0,0,0,0,0,0,0,
0,0,0,0,5390,5391,5392,5393,5394,0,0,0,0,0,0,0,
0,0,0,0,0,0,0,0,0,0,0,0,0,0,0,0,
0,0,0,0,0,0,0,0,0,0,0,0,0,0,0,0,
0,0,0,0,0,0,0,0,0,0,0,0,0,0,0,0,
0,0,0,0,0,0,0,0,0,0,0,0,0,0,0,0,
5306,5307,5308,5309,5310,5311,5312,5313,0,0,0,0,0,0,0,0
</chunk>
   <chunk x="-64" y="32" width="16" height="16">
0,0,0,0,0,0,0,0,0,0,0,0,0,0,0,0,
0,0,0,0,0,0,0,0,0,0,0,0,0,0,0,0,
0,0,0,0,0,0,0,0,0,0,0,0,0,0,0,0,
0,0,0,0,0,0,0,0,0,0,0,0,0,0,0,0,
0,0,0,0,0,0,0,0,0,0,0,0,0,0,0,0,
0,0,0,0,0,0,0,0,0,0,0,0,0,0,0,0,
0,0,0,0,0,0,0,0,0,0,0,0,0,0,0,0,
0,0,0,0,0,1638,1638,0,0,0,0,0,0,0,0,0,
0,0,0,0,1638,1610,0,0,0,0,0,0,0,0,0,0,
0,0,0,0,1638,0,0,0,0,0,0,0,0,0,0,0,
0,0,0,1638,5179,5180,5181,5182,5183,5184,5185,5186,5187,5188,5189,5190,
0,0,0,1638,5216,5217,5218,5219,5220,5221,5222,5223,5224,5225,5226,5227,
0,0,1638,1610,5253,5254,5255,5256,5257,5258,5259,5260,5261,5262,5263,5264,
0,0,1638,1639,0,0,0,0,0,0,0,0,0,0,0,0,
0,0,0,1669,0,0,0,0,0,0,0,0,0,0,0,0,
0,1736,1669,0,0,0,0,0,0,0,0,0,0,0,0,0
</chunk>
   <chunk x="-48" y="32" width="16" height="16">
0,0,0,0,0,0,0,0,0,0,0,0,0,0,0,0,
0,0,0,0,0,0,0,0,0,0,0,0,0,0,0,0,
0,0,0,0,0,0,0,0,0,0,0,0,0,0,0,0,
0,0,5327,5328,5329,5330,5331,5332,5333,5334,0,0,0,0,0,0,
0,0,5364,5365,5366,5367,5368,5369,5370,5371,0,0,0,0,0,0,
0,0,5401,5402,5403,5404,5405,5406,5407,5408,0,0,0,5412,5413,0,
0,0,0,0,0,0,0,0,0,0,0,0,0,0,0,0,
0,0,0,0,0,0,0,0,0,0,0,0,0,0,0,0,
0,0,0,0,0,0,0,0,0,0,0,0,0,0,0,0,
0,0,0,0,0,0,0,0,0,0,0,0,0,0,0,0,
5191,0,0,0,0,0,0,0,0,0,0,0,0,0,0,0,
5228,0,0,0,0,0,0,0,0,0,0,0,0,0,0,0,
5265,0,0,0,0,0,0,0,0,0,5306,5307,5308,5309,5310,5311,
0,0,0,0,0,0,0,0,0,0,5343,5344,5345,5346,5347,5348,
0,0,0,0,0,0,0,0,0,0,5380,5381,5382,5383,5384,5385,
0,0,0,0,0,0,0,0,0,0,0,0,0,0,0,0
</chunk>
   <chunk x="-32" y="32" width="16" height="16">
0,0,0,0,0,0,0,0,0,0,0,0,0,0,0,0,
0,0,0,0,0,0,0,0,0,0,0,0,0,0,0,0,
0,0,0,0,0,0,0,0,0,0,0,0,0,0,0,0,
0,0,0,0,0,0,0,0,0,0,0,0,0,0,0,0,
0,0,0,0,0,0,0,0,0,0,0,0,0,5316,5317,5318,
0,0,0,0,0,0,0,0,0,0,0,0,0,5353,5354,5355,
0,0,0,0,0,0,0,0,0,0,0,0,0,5390,5391,5392,
0,0,0,0,0,0,0,0,0,0,0,0,0,0,0,0,
0,0,0,0,0,0,0,0,0,0,0,0,0,0,0,0,
0,0,0,0,0,0,0,0,0,0,0,0,0,0,0,0,
0,0,0,0,0,0,0,0,0,0,0,0,0,0,0,0,
0,0,0,0,0,0,0,0,0,0,0,0,0,0,0,0,
5312,5313,5314,0,0,0,0,0,0,0,0,0,0,0,0,0,
5349,5350,5351,0,0,0,0,0,0,0,0,0,0,0,0,0,
5386,5387,5388,0,0,0,0,0,0,0,0,0,0,0,0,0,
0,0,0,0,0,0,5170,5171,5172,0,0,0,0,0,0,0
</chunk>
   <chunk x="-16" y="32" width="16" height="16">
0,0,0,0,8949,8950,0,0,0,0,0,0,0,0,0,0,
0,0,0,0,0,0,0,0,0,0,0,0,0,0,0,0,
0,0,0,0,0,0,0,0,0,0,0,0,0,0,0,0,
0,0,0,0,0,0,0,0,0,0,0,0,0,0,0,0,
5319,5320,0,0,0,0,0,0,0,0,0,0,0,0,0,0,
5356,5357,0,0,0,0,0,0,0,0,0,0,0,0,0,0,
5393,5394,0,0,0,0,0,0,0,0,0,0,0,0,0,0,
0,0,0,0,0,0,0,0,0,0,0,0,0,0,0,0,
0,0,0,0,0,0,0,0,0,0,0,0,0,0,0,0,
0,0,0,0,0,0,0,0,0,0,0,0,0,0,0,0,
0,0,0,0,0,0,0,0,0,0,0,0,0,0,0,0,
0,0,0,0,0,0,0,0,0,0,0,0,0,0,0,0,
0,0,0,0,0,0,0,0,0,0,0,0,0,0,0,0,
0,0,0,0,0,0,0,0,0,0,0,0,0,0,0,0,
0,0,0,0,0,0,0,0,0,0,0,0,0,0,0,0,
0,0,0,0,0,0,0,0,0,0,0,0,0,0,0,0
</chunk>
   <chunk x="80" y="32" width="16" height="16">
5343,5344,5345,5346,5347,5348,5349,5350,0,0,0,0,0,0,0,0,
0,0,0,0,0,0,0,0,0,0,0,0,0,0,0,0,
0,0,0,0,0,0,0,0,0,0,0,0,0,0,0,0,
0,0,0,0,0,0,0,0,0,0,0,0,0,0,0,0,
0,0,0,0,0,0,0,0,0,0,0,0,0,0,0,0,
0,0,0,0,0,0,0,0,0,0,0,0,0,0,0,0,
0,0,0,0,0,0,0,0,0,0,0,0,0,0,0,0,
0,0,0,0,0,0,0,0,0,0,0,0,0,0,0,0,
0,0,0,0,0,0,0,0,0,0,0,0,0,0,0,0,
0,0,0,0,0,0,0,0,0,0,0,0,0,0,0,0,
0,0,0,0,0,0,0,0,0,0,0,0,0,0,0,0,
0,0,0,0,0,0,0,0,0,0,0,0,0,0,0,0,
0,0,0,0,0,0,0,0,0,0,0,0,0,0,0,0,
0,0,0,0,0,0,0,0,0,0,0,0,0,0,0,0,
0,0,0,0,0,0,0,0,0,0,0,0,0,0,0,0,
0,0,0,0,0,0,0,0,0,0,0,0,0,0,0,0
</chunk>
   <chunk x="-80" y="48" width="16" height="16">
0,0,0,0,0,0,0,0,0,0,0,0,0,0,0,0,
0,0,0,0,0,0,0,0,0,0,0,0,0,0,0,0,
0,0,0,0,0,0,0,0,0,0,0,0,0,0,0,0,
0,0,0,0,0,0,0,0,0,0,0,0,0,0,0,0,
0,0,0,0,0,0,0,0,0,0,0,0,0,0,0,0,
0,0,0,0,0,0,0,0,0,0,0,0,0,0,0,0,
0,0,0,0,0,0,0,0,0,0,1637,21,21,21,1610,1669,
0,0,0,0,0,0,0,0,0,0,1637,21,1610,1668,1669,5085,
0,0,0,0,0,0,0,0,0,0,1637,1610,1669,0,0,5122,
0,0,0,0,0,0,0,0,0,0,1644,1643,0,0,0,0,
0,0,0,0,0,0,0,0,0,0,0,0,0,1607,1608,1609,
0,0,0,0,0,0,0,0,0,0,0,0,1607,1641,21,0,
0,0,0,0,0,0,0,0,0,0,0,1607,1641,21,0,0,
0,0,0,0,0,0,0,0,0,0,0,1641,0,0,0,0,
0,0,0,0,0,0,0,0,0,0,0,21,0,0,0,0,
0,0,0,0,0,0,0,0,0,0,0,135,0,0,0,0
</chunk>
   <chunk x="-64" y="48" width="16" height="16">
0,1759,0,0,0,0,0,0,0,0,0,0,0,0,0,0,
0,1669,0,0,0,0,0,0,0,0,0,0,0,0,0,0,
0,0,0,0,0,0,0,0,0,0,0,0,0,0,0,5306,
0,0,0,0,0,0,0,0,0,0,0,0,0,0,0,5343,
0,0,0,0,0,0,0,0,0,0,0,0,0,0,0,5380,
0,0,0,0,0,0,0,0,0,0,0,0,0,0,0,0,
5049,5050,5051,5052,5053,5054,5055,5056,0,0,0,0,0,0,0,0,
5086,5087,5088,5089,5090,5091,5092,5093,5094,5095,0,0,0,0,0,0,
5123,5124,5125,5126,5127,5128,5129,5130,5131,5132,0,0,0,0,0,0,
0,0,0,0,0,0,0,0,0,0,5170,5171,5172,0,0,0,
0,0,0,0,0,0,0,0,0,0,0,0,0,0,0,0,
0,0,0,0,0,0,0,0,0,0,0,0,0,0,0,0,
0,0,0,0,0,0,0,0,0,0,0,0,0,0,0,0,
0,0,0,0,0,0,0,0,0,0,0,0,0,0,0,0,
0,0,0,0,0,0,0,0,0,0,0,0,0,0,0,0,
0,0,0,0,0,0,0,0,0,0,0,0,0,0,0,0
</chunk>
   <chunk x="-48" y="48" width="16" height="16">
0,0,0,0,0,0,0,0,0,0,0,0,0,0,0,0,
0,0,0,0,0,0,0,0,0,0,0,0,0,0,0,0,
5307,5308,5309,5310,5311,5312,5313,5314,0,0,0,0,0,0,0,0,
5344,5345,5346,5347,5348,5349,5350,5351,0,0,0,0,0,0,0,0,
5381,5382,5383,5384,5385,5386,5387,5388,0,0,0,0,0,0,0,0,
0,0,0,0,0,0,0,0,0,0,0,0,0,0,0,0,
0,0,0,0,0,0,0,0,0,0,0,0,0,0,0,0,
0,0,0,0,0,0,0,0,0,0,0,0,0,0,0,0,
0,0,0,0,0,0,0,0,0,0,0,0,0,0,0,0,
0,0,0,0,0,0,0,0,0,0,0,0,0,0,0,0,
0,0,0,0,0,0,0,0,0,0,0,0,0,0,0,0,
0,0,0,0,0,0,0,0,0,0,0,0,0,0,0,0,
0,0,0,0,0,0,0,0,0,0,0,0,0,0,0,0,
0,0,0,0,0,0,0,0,0,0,0,0,0,0,0,0,
0,0,0,0,0,0,0,0,0,0,0,0,0,0,0,0,
0,0,0,0,0,0,0,0,0,0,0,0,0,0,0,0
</chunk>
   <chunk x="-32" y="48" width="16" height="16">
0,0,0,0,0,0,0,0,0,0,0,0,0,0,0,0,
0,0,0,0,0,0,0,0,0,0,0,0,0,0,0,0,
0,0,0,0,0,0,0,0,0,0,0,0,0,0,0,0,
0,0,0,0,0,0,0,0,0,0,0,0,0,0,0,0,
0,0,0,0,0,0,0,0,0,0,0,0,0,0,0,0,
0,0,0,0,0,0,0,0,0,0,0,0,0,0,0,0,
0,0,0,0,0,0,0,0,0,0,0,0,0,0,0,0,
0,0,0,5316,5317,5318,5319,5320,0,0,0,0,0,0,0,0,
0,0,0,5353,5354,5355,5356,5357,0,0,0,0,0,0,0,0,
0,0,0,5390,5391,5392,5393,5394,0,0,0,0,0,0,0,0,
0,0,0,0,0,0,0,0,0,0,0,0,0,0,0,0,
0,0,0,0,0,0,0,0,0,0,0,0,0,0,0,0,
0,0,0,0,0,0,0,0,0,0,0,0,0,0,0,0,
0,0,0,0,0,0,0,0,0,0,0,0,0,0,0,0,
0,0,0,0,0,0,0,0,0,0,0,0,0,0,0,0,
0,0,0,0,0,0,0,0,0,0,0,0,0,0,0,0
</chunk>
   <chunk x="-80" y="64" width="16" height="16">
0,0,0,0,0,0,0,0,0,0,21,135,0,0,0,0,
0,0,0,0,0,0,0,0,0,0,21,135,0,0,0,0,
0,0,0,0,0,0,0,0,0,0,21,135,0,0,0,0,
0,0,0,0,0,0,0,0,0,0,21,135,0,0,0,0,
0,0,0,0,0,0,0,0,0,0,21,135,21,0,0,0,
0,0,0,0,0,0,0,0,0,0,21,21,0,0,0,0,
0,0,0,0,0,0,0,0,0,0,0,0,0,0,0,0,
0,0,0,0,0,0,0,0,0,0,0,0,0,0,0,0,
0,0,0,0,0,0,0,0,0,0,0,0,0,0,0,0,
0,0,0,0,0,0,0,0,0,0,0,0,0,0,0,0,
0,0,0,0,0,0,0,0,0,0,0,0,0,0,0,0,
0,0,0,0,0,0,0,0,0,0,0,0,0,0,0,0,
0,0,0,0,0,0,0,0,0,0,0,0,0,0,0,0,
0,0,0,0,0,0,0,0,0,0,0,0,0,0,0,0,
0,0,0,0,0,0,0,0,0,0,0,0,0,0,0,0,
0,0,0,0,0,0,0,0,0,0,0,0,0,0,0,0
</chunk>
   <chunk x="80" y="64" width="16" height="16">
0,0,0,0,0,0,0,0,0,0,0,0,0,0,0,0,
0,0,0,0,0,0,5209,0,0,0,0,0,0,0,0,0,
0,0,0,0,0,0,5246,0,0,0,0,0,0,0,0,0,
0,0,0,0,0,0,0,0,0,0,0,0,0,0,0,0,
0,0,0,0,0,0,0,0,0,0,0,0,0,0,0,0,
0,0,0,0,0,0,0,0,0,0,0,0,0,0,0,0,
0,0,0,0,0,0,0,0,0,0,0,0,0,0,0,0,
0,0,0,0,0,0,0,0,0,0,0,0,0,0,0,0,
0,0,0,0,0,0,0,0,0,0,0,0,0,0,0,0,
0,0,0,0,0,0,0,0,0,0,0,0,0,0,0,0,
0,0,0,0,0,0,0,0,0,0,0,0,0,0,0,0,
0,0,0,0,0,0,0,0,0,0,0,0,0,0,0,0,
0,0,0,0,0,0,0,0,0,0,0,0,0,0,0,0,
0,0,0,0,0,0,0,0,0,0,0,0,0,0,0,0,
0,0,0,0,0,0,0,0,0,0,0,0,0,0,0,0,
0,0,0,0,0,0,0,0,0,0,0,0,0,0,0,0
</chunk>
  </data>
 </layer>
 <layer id="16" name="Üst Zemin" width="30" height="20">
  <data encoding="csv">
   <chunk x="-80" y="-64" width="16" height="16">
0,0,0,0,0,0,0,0,0,0,0,0,0,0,0,0,
0,0,0,0,0,0,0,0,0,0,0,0,0,0,0,0,
0,0,0,0,0,0,0,0,0,0,0,0,0,0,0,0,
0,0,0,0,0,0,0,0,0,0,0,0,0,0,0,0,
0,0,0,0,0,0,0,0,0,0,0,0,0,0,0,0,
0,0,0,0,0,0,0,0,0,0,0,0,0,0,0,0,
0,0,0,0,0,0,0,0,0,0,0,0,0,0,0,0,
0,0,0,0,0,0,0,0,0,0,0,0,0,0,0,0,
0,0,0,0,0,0,0,0,0,0,0,0,0,0,0,0,
0,0,0,0,0,0,0,0,0,0,0,0,0,0,0,0,
0,0,0,0,0,0,0,0,0,0,0,0,0,0,0,0,
0,0,0,0,0,0,0,0,0,0,1727,0,0,0,0,0,
0,0,0,0,0,0,0,0,0,0,1757,0,0,0,0,0,
0,0,0,0,0,0,0,0,0,0,1757,0,0,0,0,0,
0,0,0,0,0,0,0,0,0,0,1757,0,0,0,0,0,
0,0,0,0,0,0,0,0,0,0,1757,0,0,0,0,0
</chunk>
   <chunk x="-80" y="-48" width="16" height="16">
0,0,0,0,0,0,0,0,0,0,1757,0,0,0,0,0,
0,0,0,0,0,0,0,0,0,0,1757,0,0,0,0,0,
0,0,0,0,0,0,0,0,0,0,1757,0,0,0,0,0,
0,0,0,0,0,0,0,0,0,0,1757,0,0,0,0,0,
0,0,0,0,0,0,0,0,0,0,1757,0,0,0,0,0,
0,0,0,0,0,0,0,0,0,0,1757,0,0,0,0,0,
0,0,0,0,0,0,0,0,0,0,1757,0,0,0,0,0,
0,0,0,0,0,0,0,0,0,0,1757,0,0,0,0,0,
0,0,0,0,0,0,0,0,0,0,1757,0,0,0,0,0,
0,0,0,0,0,0,0,0,0,0,1757,0,0,0,0,0,
0,0,0,0,0,0,0,0,0,0,1757,0,0,0,0,0,
0,0,0,0,0,0,0,0,0,0,1757,0,0,0,0,0,
0,0,0,0,0,0,0,0,0,0,1757,0,0,0,0,0,
0,0,0,0,0,0,0,0,0,0,1757,0,0,0,0,0,
0,0,0,0,0,0,0,0,0,0,1757,0,0,0,0,0,
0,0,0,0,0,0,0,0,0,0,1757,0,0,0,0,0
</chunk>
   <chunk x="-32" y="-48" width="16" height="16">
0,0,0,0,0,0,0,0,0,0,0,0,0,0,0,0,
0,0,0,0,0,0,0,0,0,0,0,0,0,0,0,0,
0,0,0,0,0,0,0,0,0,0,0,0,0,0,0,0,
0,0,0,0,0,0,0,0,0,0,0,0,0,0,0,0,
0,0,0,0,0,0,0,0,0,0,0,0,0,0,0,0,
0,0,0,0,0,0,0,0,0,0,0,0,0,0,0,0,
0,0,0,0,0,0,0,0,0,0,0,0,0,0,0,0,
0,0,0,0,0,0,0,0,0,0,0,0,0,0,0,0,
0,0,0,0,0,0,0,0,0,0,0,0,0,0,0,0,
0,0,0,0,0,0,0,0,0,0,0,0,0,0,0,0,
0,0,0,0,0,0,0,0,0,0,0,0,0,0,0,0,
0,0,0,0,0,0,0,0,0,0,0,0,0,0,0,0,
0,0,0,0,0,0,0,0,0,0,0,0,0,0,0,0,
0,0,0,0,0,0,0,0,0,0,0,0,0,0,0,0,
0,0,0,0,0,0,0,0,0,0,0,0,0,0,0,0,
0,0,0,0,0,0,4935,4936,0,0,0,0,0,0,0,0
</chunk>
   <chunk x="0" y="-48" width="16" height="16">
0,0,0,0,0,0,0,0,0,0,0,0,0,0,0,0,
0,0,0,0,0,0,0,0,0,0,0,0,0,0,0,0,
0,0,0,0,0,0,0,0,0,0,0,0,0,0,0,0,
0,0,0,0,0,0,0,0,0,0,0,0,0,0,0,0,
0,0,0,0,0,4860,4861,4862,0,0,0,0,0,0,0,0,
0,0,0,0,0,4881,4882,4883,0,0,0,0,0,0,0,0,
0,0,0,0,0,4902,4903,4904,0,0,0,0,0,0,0,0,
0,0,0,0,0,0,0,0,0,0,0,0,0,0,0,0,
0,0,0,0,0,0,0,0,0,0,0,0,0,0,0,0,
0,0,0,0,0,0,0,0,0,0,0,0,0,0,0,0,
0,0,0,0,0,0,0,0,0,0,0,0,0,0,0,0,
0,0,0,0,0,0,0,0,0,0,0,0,0,0,0,0,
0,0,0,0,0,0,0,0,0,0,0,0,0,0,0,0,
0,0,0,0,0,0,0,0,0,0,0,0,0,0,0,0,
0,0,0,0,0,0,0,0,0,0,0,0,0,0,0,0,
0,0,0,0,0,0,0,0,0,0,0,0,0,0,0,0
</chunk>
   <chunk x="32" y="-48" width="16" height="16">
0,0,0,0,0,0,0,0,0,0,0,0,0,0,0,0,
0,0,0,0,0,0,0,0,0,0,0,0,0,0,4923,4924,
0,0,0,0,0,0,0,0,0,0,0,0,0,0,4944,4945,
0,0,0,0,0,0,0,0,0,0,0,0,0,0,0,0,
0,0,0,0,0,0,0,0,0,0,0,0,0,0,0,0,
0,0,0,4860,4861,4862,0,0,0,0,0,0,0,0,0,0,
0,0,0,4881,4882,4883,0,0,0,0,0,0,0,0,0,0,
0,0,0,4902,4903,4904,0,0,0,0,0,0,0,0,0,0,
0,0,0,0,0,0,0,0,0,0,0,0,0,0,0,0,
0,0,0,0,0,0,0,0,0,0,0,0,0,0,0,0,
0,0,0,0,0,0,0,0,0,0,0,0,0,0,0,0,
0,0,0,0,0,0,0,0,0,0,0,0,0,0,0,0,
0,0,0,0,0,0,0,0,0,0,0,0,0,0,0,0,
0,0,0,0,0,0,0,0,0,0,0,0,0,0,0,0,
0,0,0,0,0,0,0,0,0,0,0,0,0,0,0,0,
0,0,0,0,0,0,0,0,0,0,0,0,0,0,0,0
</chunk>
   <chunk x="-80" y="-32" width="16" height="16">
0,0,0,0,0,0,0,0,0,0,1757,0,0,0,0,0,
0,0,0,0,0,0,0,0,0,0,1757,0,0,0,0,0,
0,0,0,0,0,0,0,0,0,0,1757,0,0,0,0,0,
0,0,0,0,0,0,0,0,0,0,1757,0,0,0,0,0,
0,0,0,0,0,0,0,0,0,0,1757,0,0,0,0,0,
0,0,0,0,0,0,0,0,0,0,1757,0,0,0,0,0,
0,0,0,0,0,0,0,0,0,0,1757,0,0,0,0,0,
0,0,0,0,0,0,0,0,0,0,1757,0,0,0,0,0,
0,0,0,0,0,0,0,0,0,0,1757,0,0,0,0,0,
0,0,0,0,0,0,0,0,0,0,1757,0,0,0,0,0,
0,0,0,0,0,0,0,0,0,0,1757,0,0,0,0,0,
0,0,0,0,0,0,0,0,0,0,1757,0,0,0,0,0,
0,0,0,0,0,0,0,0,0,0,1757,0,0,0,0,0,
0,0,0,0,0,0,0,0,0,0,1757,0,0,0,0,0,
0,0,0,0,0,0,0,0,0,0,248,249,250,0,0,0,
0,0,0,0,0,0,0,0,0,0,286,287,288,0,0,0
</chunk>
   <chunk x="-64" y="-32" width="16" height="16">
0,0,0,0,0,0,0,0,0,0,0,0,0,0,0,0,
0,0,0,0,0,0,0,0,0,0,0,0,0,0,0,0,
0,0,0,0,0,0,0,0,0,0,0,0,0,0,0,0,
0,0,0,0,0,0,0,0,0,0,0,0,0,0,0,0,
0,0,0,0,0,0,0,0,0,0,0,0,0,0,0,0,
0,0,0,0,0,0,0,0,0,0,0,0,0,0,0,0,
0,0,0,0,0,4935,4936,0,0,0,0,0,0,0,0,0,
0,0,0,0,0,4956,4957,0,0,0,0,0,0,0,0,0,
0,0,0,0,0,0,0,0,0,0,0,0,0,0,0,0,
0,0,0,0,0,0,0,0,0,0,0,0,0,0,0,0,
0,0,0,0,0,0,0,0,0,0,0,0,0,0,0,0,
0,0,0,0,0,0,0,0,0,0,0,0,0,0,0,0,
0,0,0,0,0,0,0,0,0,0,0,0,0,0,0,0,
0,0,0,0,0,0,0,0,0,0,0,0,0,0,0,0,
0,0,0,0,0,0,0,0,0,0,0,0,0,0,0,0,
0,0,0,0,0,0,0,0,0,0,0,0,0,0,0,0
</chunk>
   <chunk x="-48" y="-32" width="16" height="16">
0,0,0,0,0,0,0,0,0,0,0,0,0,0,0,0,
4935,4935,4936,0,0,0,0,0,0,0,0,0,0,0,0,0,
4956,4956,4957,0,0,0,0,0,0,0,0,0,0,0,0,0,
0,0,0,0,0,0,0,0,0,0,0,0,0,0,0,0,
0,0,0,0,0,0,0,0,0,0,0,0,0,0,0,0,
0,0,0,0,0,0,0,0,0,0,0,0,0,0,0,0,
0,0,0,0,0,0,0,0,0,0,0,0,0,0,0,0,
0,0,0,0,0,0,0,0,0,0,0,0,0,0,0,0,
0,0,0,0,0,0,0,0,0,0,0,0,0,0,0,0,
0,0,0,4935,4936,0,0,0,0,0,0,0,0,0,0,0,
0,0,0,4956,4957,0,0,0,0,0,4873,4874,4875,0,0,0,
0,0,0,0,0,0,0,0,0,0,4894,4895,4896,0,0,0,
0,0,0,0,0,0,0,0,0,0,4915,4916,4917,0,0,0,
0,0,0,0,0,0,0,0,0,0,0,0,0,0,0,0,
4873,4874,4875,0,0,0,0,0,0,0,0,0,0,0,0,0,
4894,4895,4896,0,0,0,0,0,0,0,0,0,0,0,0,0
</chunk>
   <chunk x="-32" y="-32" width="16" height="16">
0,0,0,0,0,0,4956,4957,0,0,0,0,0,0,0,0,
0,0,0,0,0,0,0,0,0,0,0,0,0,0,0,0,
0,0,0,0,0,0,0,0,0,0,0,0,0,0,0,0,
0,0,0,0,0,0,0,0,0,0,0,0,0,0,0,0,
0,0,0,0,0,0,0,0,0,0,0,0,0,0,0,0,
0,0,0,0,0,0,0,0,0,0,0,0,0,0,0,0,
0,0,0,0,0,0,0,0,0,0,0,0,0,0,0,0,
0,0,0,0,0,0,0,0,0,0,0,0,0,0,0,0,
0,0,0,0,0,0,0,0,0,0,0,0,0,0,0,0,
0,0,0,0,0,0,0,0,0,0,0,0,0,0,0,0,
0,0,0,0,0,0,0,0,0,0,0,0,0,0,0,0,
0,0,0,0,0,0,0,0,0,0,0,0,0,0,0,0,
0,0,0,0,0,0,0,0,0,0,0,0,0,0,0,0,
0,0,0,0,0,0,0,0,0,0,0,0,0,0,0,0,
0,0,0,0,0,0,0,0,0,0,0,0,0,0,0,0,
0,0,0,0,0,0,0,0,0,0,0,0,0,0,0,0
</chunk>
   <chunk x="-16" y="-32" width="16" height="16">
0,0,0,0,0,0,0,0,0,0,0,0,0,0,0,0,
0,0,0,0,0,0,0,0,0,0,0,0,0,0,0,0,
0,0,0,0,0,0,0,0,0,0,0,0,0,0,0,0,
0,0,0,0,0,0,0,0,0,0,0,0,0,0,0,0,
0,0,0,0,0,0,0,0,0,0,0,0,0,0,0,0,
0,0,0,0,0,0,0,0,0,0,0,0,0,0,0,0,
0,0,0,0,0,0,0,0,0,0,0,0,0,0,0,0,
0,0,0,0,0,0,0,0,0,0,0,0,0,0,0,0,
0,0,0,0,0,0,0,0,0,0,0,0,0,0,0,0,
0,0,0,0,0,0,0,0,0,0,0,0,0,0,0,0,
0,0,0,0,0,0,0,0,0,4937,0,0,0,0,0,0,
0,0,0,0,0,0,0,0,0,4958,0,0,0,0,0,0,
0,0,0,0,0,0,0,0,0,0,0,0,0,0,0,0,
0,0,0,0,0,0,0,0,0,0,0,0,0,0,0,0,
0,0,4935,4936,0,0,0,0,0,0,0,0,0,0,0,0,
0,0,4956,4957,0,0,0,0,0,0,0,0,0,0,0,0
</chunk>
   <chunk x="0" y="-32" width="16" height="16">
0,0,0,0,0,0,0,0,0,0,0,0,0,0,0,0,
0,0,0,0,0,0,0,0,0,0,0,0,0,0,0,0,
0,0,0,0,0,0,0,0,0,0,0,0,0,0,0,0,
0,0,0,0,0,0,0,0,0,0,0,0,0,0,0,0,
0,0,0,0,0,0,0,0,0,0,0,0,0,0,0,0,
0,0,0,0,0,0,0,0,0,0,0,0,0,0,0,0,
0,0,4833,4834,0,0,0,0,0,0,0,0,0,0,0,0,
0,0,4854,4855,0,0,0,0,0,0,0,0,0,0,0,0,
0,0,0,0,0,0,0,0,0,0,0,0,0,0,0,0,
0,0,0,0,0,0,0,0,0,0,0,0,0,0,0,0,
0,0,0,0,0,0,0,0,0,0,0,0,0,0,0,0,
0,0,0,0,0,0,0,0,0,0,0,0,0,0,0,0,
0,0,0,0,0,0,0,0,0,0,0,0,0,0,0,0,
0,0,0,0,0,0,0,0,0,0,0,0,0,0,0,0,
0,0,0,0,0,0,0,0,0,0,0,0,0,0,0,0,
0,0,0,0,0,0,0,0,0,0,0,0,0,0,0,0
</chunk>
   <chunk x="16" y="-32" width="16" height="16">
0,0,0,0,0,0,0,0,0,0,0,0,0,0,0,0,
0,0,0,0,0,0,0,0,0,0,0,0,0,0,0,0,
0,0,0,0,0,0,0,0,0,0,0,0,0,0,0,0,
0,0,0,4860,4861,4862,0,0,0,0,0,0,0,0,0,0,
0,0,0,4881,4882,4883,0,0,0,0,0,0,0,0,0,0,
0,0,0,4902,4903,4904,0,0,0,0,0,0,0,0,0,0,
0,0,0,0,0,0,0,0,0,0,0,0,0,0,0,0,
0,0,0,0,0,0,0,0,0,0,0,0,0,0,0,0,
0,0,0,0,0,0,0,0,0,0,0,0,0,0,0,0,
0,0,0,0,0,0,0,0,0,0,0,0,0,0,0,0,
0,0,0,0,0,0,0,0,0,0,0,0,0,0,0,0,
0,0,0,0,0,0,0,0,0,0,0,0,0,0,0,0,
0,0,0,0,0,0,0,0,0,0,0,0,0,0,0,0,
0,0,0,0,0,0,0,0,0,0,0,0,0,0,0,0,
0,0,0,0,0,0,0,0,0,0,0,0,0,0,0,0,
0,0,0,0,0,0,0,0,0,0,4921,4922,0,0,0,0
</chunk>
   <chunk x="32" y="-32" width="16" height="16">
0,0,0,0,0,0,0,0,0,0,0,0,0,0,0,0,
0,0,0,0,0,0,0,0,0,0,0,0,0,0,0,0,
0,0,0,0,0,0,0,0,0,0,0,0,0,0,0,0,
0,0,0,0,0,0,0,0,0,0,0,0,0,0,0,0,
0,0,0,0,0,0,0,0,0,0,0,0,0,0,0,0,
0,0,0,0,0,0,0,0,0,0,0,0,4833,4834,0,0,
0,0,0,0,0,0,0,0,0,0,0,0,4854,4855,0,0,
0,0,0,0,0,0,0,0,0,0,0,0,0,0,0,0,
0,0,0,0,0,0,0,0,0,0,0,0,0,0,0,0,
0,0,0,0,0,0,0,0,0,0,0,0,0,0,0,0,
0,0,0,0,0,0,0,0,0,0,0,0,0,0,0,0,
0,0,0,0,0,0,0,0,0,0,0,0,0,0,0,0,
0,0,0,0,0,0,0,0,0,0,0,0,0,0,0,0,
0,0,0,0,0,0,0,0,0,0,0,0,0,0,0,0,
0,0,0,0,0,0,0,0,0,0,0,0,0,0,0,0,
0,0,0,0,0,0,0,0,0,0,0,0,0,0,0,0
</chunk>
   <chunk x="48" y="-32" width="16" height="16">
0,0,0,0,0,0,0,0,0,0,0,0,4923,4924,0,0,
0,0,0,0,0,0,0,0,0,0,0,0,4944,4945,0,0,
0,0,0,0,0,0,0,0,0,0,0,0,0,0,0,0,
0,0,0,0,0,0,0,0,0,0,0,0,0,0,0,0,
0,0,0,0,0,0,0,0,0,0,0,0,0,0,0,0,
0,0,0,0,0,0,0,0,0,0,0,0,0,0,0,0,
0,0,0,0,0,0,0,0,0,0,0,0,0,0,0,0,
0,0,0,0,0,0,0,0,0,0,4833,4834,0,0,0,0,
0,0,0,0,0,0,0,0,0,0,4854,4855,0,0,0,0,
0,0,0,0,0,0,0,0,0,0,0,0,0,0,0,0,
0,0,0,0,0,0,0,0,0,0,0,0,0,0,0,0,
0,0,0,0,0,0,0,0,0,0,0,0,0,0,0,0,
0,0,0,0,0,0,0,0,0,0,0,0,0,0,0,0,
0,0,0,0,0,0,0,0,0,0,0,0,0,0,0,0,
0,0,0,0,0,0,0,0,0,0,0,0,0,0,0,0,
0,0,0,0,0,0,0,0,0,0,0,0,0,0,0,0
</chunk>
   <chunk x="64" y="-32" width="16" height="16">
0,0,0,0,0,0,0,0,0,0,0,0,0,0,0,0,
0,0,0,0,0,0,0,0,0,0,0,0,0,0,0,0,
0,0,0,0,0,0,0,0,0,0,0,0,0,0,0,0,
0,0,0,0,0,0,0,0,0,0,0,0,0,0,0,0,
0,0,0,0,0,0,0,0,0,0,0,0,0,0,0,0,
0,0,0,0,0,0,0,0,0,0,0,0,0,0,0,0,
0,0,0,0,0,0,0,0,0,0,0,0,0,0,0,0,
0,0,0,0,0,0,0,0,0,0,0,0,0,0,0,0,
0,0,0,0,0,0,0,0,0,0,0,0,0,0,0,0,
0,0,0,0,0,0,0,0,0,0,0,0,0,0,0,0,
0,0,0,0,0,0,0,0,0,0,0,0,0,0,0,0,
0,0,0,0,0,0,0,0,0,0,0,0,0,0,0,0,
0,0,1736,1788,1788,1788,1789,0,0,0,0,0,0,0,0,0,
0,1736,1789,0,0,0,0,0,0,0,0,0,0,0,0,0,
0,1759,0,0,0,0,0,0,0,0,0,0,0,0,0,0,
1730,1789,0,0,0,0,0,0,0,0,0,0,0,0,0,0
</chunk>
   <chunk x="-80" y="-16" width="16" height="16">
0,0,0,0,0,0,0,0,0,0,1758,0,0,0,0,0,
0,0,0,0,0,0,0,0,0,0,1758,0,0,0,0,0,
0,0,0,0,0,0,0,0,0,1758,1758,0,0,0,0,0,
0,0,0,0,0,0,0,0,0,1758,1758,0,0,0,0,0,
0,0,0,0,0,0,0,0,0,1758,1758,0,0,0,0,0,
0,0,0,0,0,0,0,0,0,1758,1758,0,0,0,0,0,
0,0,0,0,0,0,0,0,0,1758,1758,0,0,0,0,0,
0,0,0,0,0,0,0,0,0,1758,1758,0,0,0,0,0,
0,0,0,0,0,0,0,0,0,1758,1758,0,0,0,0,0,
0,0,0,0,0,0,0,0,0,1758,1758,0,0,0,0,0,
0,0,0,0,0,0,0,0,0,1758,1758,0,0,0,0,0,
0,0,0,0,0,0,0,0,0,0,1758,0,0,0,0,0,
0,0,0,0,0,0,0,0,0,0,1758,0,0,0,0,0,
0,0,0,0,0,0,0,0,0,0,1758,0,0,0,0,0,
0,0,0,0,0,0,0,0,0,0,1758,0,0,0,0,0,
0,0,0,0,0,0,0,0,0,0,1758,0,0,0,0,0
</chunk>
   <chunk x="-48" y="-16" width="16" height="16">
4915,4916,4917,0,0,0,0,0,0,0,0,0,0,0,0,0,
0,0,0,0,4935,4936,0,0,0,0,0,0,0,0,0,0,
0,0,0,0,4956,4957,0,0,0,0,0,0,0,0,0,0,
0,0,0,0,0,0,0,0,0,0,0,0,0,0,0,0,
0,0,0,0,0,0,0,0,0,0,0,0,0,0,0,0,
0,0,0,0,0,0,0,0,0,0,0,0,0,0,0,0,
0,0,0,0,0,0,0,0,0,0,0,0,0,0,0,0,
0,0,0,0,0,0,0,0,0,0,0,0,0,0,0,0,
0,0,0,0,0,0,0,0,0,0,0,0,0,0,0,0,
0,0,0,0,0,0,0,0,0,0,0,0,0,0,0,0,
0,0,0,0,0,0,0,0,4846,4847,0,0,0,0,0,0,
0,0,0,0,0,0,0,0,4867,4868,0,0,0,0,0,0,
0,0,0,0,0,0,0,0,0,0,0,0,0,0,0,0,
0,0,0,0,0,0,0,0,0,0,0,0,0,0,0,0,
0,0,0,0,0,0,0,0,0,0,0,0,0,0,0,0,
0,0,0,0,0,0,0,0,0,0,0,0,0,0,0,0
</chunk>
   <chunk x="-32" y="-16" width="16" height="16">
0,0,0,0,0,0,0,0,0,0,0,0,0,0,0,0,
0,0,0,0,0,0,0,0,0,0,0,0,0,0,0,0,
0,0,0,0,0,0,0,0,0,0,0,0,0,0,0,0,
0,0,0,0,0,0,0,0,0,0,0,0,0,0,0,0,
0,0,0,0,0,0,0,0,0,0,0,0,0,0,0,0,
0,0,0,0,0,0,0,0,0,0,0,0,0,0,0,0,
0,0,0,0,0,0,0,0,0,0,4833,4834,0,0,0,0,
0,0,0,0,0,0,0,0,0,0,4854,4855,0,0,0,0,
0,0,0,0,0,0,0,0,0,0,0,0,0,0,0,0,
0,0,0,0,0,0,0,0,0,0,0,0,0,0,0,0,
0,0,0,0,0,0,0,0,0,0,0,0,0,0,0,0,
0,0,0,0,0,0,0,0,0,0,0,0,0,0,0,0,
0,0,0,0,0,0,0,0,0,0,0,0,0,0,0,0,
0,0,0,0,0,0,0,0,0,0,0,0,0,0,0,0,
4873,4874,4875,0,0,0,0,0,0,0,0,0,0,0,0,0,
4894,4895,4896,0,0,0,0,0,0,0,0,0,0,0,0,0
</chunk>
   <chunk x="-16" y="-16" width="16" height="16">
0,0,0,0,0,0,0,0,0,0,0,0,0,0,0,0,
0,0,0,0,0,0,0,0,0,0,0,0,0,4833,4834,0,
0,0,0,0,0,0,0,0,0,0,0,0,0,4854,4855,0,
0,0,0,0,0,0,0,0,0,0,0,0,0,0,0,0,
0,0,0,0,0,4833,4834,0,0,0,0,0,0,0,0,0,
0,0,0,0,0,4854,4855,0,0,0,0,0,0,0,0,0,
0,0,0,0,0,0,0,0,0,0,0,0,0,0,0,0,
0,0,0,0,0,0,0,0,0,0,0,0,0,0,0,1,
0,0,0,0,0,0,0,0,0,0,0,0,0,0,1,43,
0,0,0,0,0,0,0,0,0,0,0,0,1,2,43,21,
0,0,0,0,0,0,0,0,0,0,0,0,20,21,21,21,
0,0,0,0,0,0,0,0,0,0,0,0,20,21,21,21,
0,0,0,0,0,0,0,0,0,0,0,0,267,40,40,40,
0,0,0,0,0,0,0,0,0,0,0,248,249,0,0,0,
0,0,0,0,0,0,0,0,0,0,0,267,268,249,0,0,
0,0,0,0,0,0,0,0,0,0,0,267,268,268,0,0
</chunk>
   <chunk x="0" y="-16" width="16" height="16">
0,0,0,0,0,0,0,0,0,0,0,0,0,0,0,0,
0,0,0,0,0,0,0,0,0,0,0,0,0,0,0,0,
0,0,0,0,0,0,0,0,0,0,0,0,0,0,0,0,
0,0,0,0,0,0,0,0,0,0,0,0,0,0,0,0,
0,0,0,0,0,0,0,0,0,0,0,0,0,0,0,0,
0,0,0,0,0,0,0,0,0,0,0,0,0,0,0,0,
0,0,1,2,2,3,0,0,0,0,0,4873,4874,4875,0,0,
2,2,43,21,21,22,0,0,0,0,0,4894,4895,4896,0,0,
21,21,21,21,21,42,2,3,0,0,0,4915,4916,4917,0,0,
21,21,21,21,21,21,21,22,0,0,0,0,0,0,0,0,
21,21,21,21,21,21,21,42,3,0,0,0,0,0,0,0,
21,21,21,21,21,21,21,21,22,0,0,0,0,0,0,0,
40,40,40,40,40,40,40,40,41,0,0,0,0,0,0,0,
0,0,4873,4874,4875,0,0,249,249,250,0,0,0,4739,4740,0,
0,0,4894,4895,4896,249,249,268,268,269,135,0,0,4760,4761,0,
0,0,4915,4916,4917,0,0,0,268,269,135,0,0,0,0,0
</chunk>
   <chunk x="16" y="-16" width="16" height="16">
0,0,0,0,0,0,0,0,0,0,4942,4943,0,0,0,0,
0,0,0,0,0,0,0,0,0,0,0,0,0,0,0,0,
0,0,0,0,0,0,0,0,0,0,0,0,0,0,0,0,
0,0,0,0,0,0,0,0,0,0,0,0,0,0,0,0,
0,0,0,0,0,0,0,0,0,0,0,0,0,0,0,0,
0,0,0,0,0,0,0,0,0,0,0,0,0,0,0,0,
0,0,0,0,0,0,0,0,0,0,0,0,0,0,0,0,
0,0,0,0,0,0,0,0,0,0,0,0,0,0,0,0,
0,0,0,0,0,0,0,0,0,0,0,0,0,0,0,0,
0,0,0,0,0,0,0,0,0,0,0,0,0,0,0,0,
0,0,0,0,0,0,0,0,0,0,0,0,0,0,0,0,
0,0,0,0,0,0,0,0,0,0,0,0,0,0,0,0,
0,0,0,0,0,0,0,0,0,0,0,0,0,0,0,0,
0,4873,4874,4875,0,0,0,0,0,0,0,0,0,0,1767,0,
0,4894,4895,4896,0,0,0,0,0,0,0,0,0,0,1787,1788,
0,4915,4916,4917,0,0,0,0,0,0,0,0,0,0,0,0
</chunk>
   <chunk x="32" y="-16" width="16" height="16">
0,0,0,0,0,0,0,0,0,0,0,0,0,0,0,0,
0,0,0,0,0,0,0,0,0,0,0,0,0,0,0,0,
0,0,0,0,0,0,0,0,0,0,0,0,0,0,0,0,
0,0,0,0,0,0,0,0,0,0,0,0,0,0,0,0,
0,0,0,0,0,0,0,0,0,0,0,0,0,0,0,0,
0,0,0,0,0,0,0,0,0,0,0,0,0,0,0,0,
0,0,0,0,0,0,0,0,0,0,0,0,0,0,0,0,
0,0,0,0,0,0,0,0,0,0,0,0,0,0,0,4833,
0,0,0,0,0,0,0,0,0,0,0,0,0,0,0,4854,
0,0,0,0,0,0,0,0,0,0,0,0,0,0,0,0,
0,0,0,0,0,0,0,0,0,0,0,0,0,0,0,0,
0,0,0,0,0,0,0,0,0,0,0,0,0,0,0,0,
0,0,0,0,0,0,0,0,0,0,0,0,0,0,0,0,
0,0,0,0,0,0,0,0,0,0,0,0,0,0,0,0,
1731,0,0,0,0,0,0,0,0,0,0,0,0,0,0,0,
1767,0,0,0,0,0,0,0,0,0,0,0,0,0,0,0
</chunk>
   <chunk x="48" y="-16" width="16" height="16">
0,0,0,0,0,0,0,0,0,0,0,0,0,0,0,1730,
0,0,0,0,0,0,0,0,0,0,0,0,0,0,0,1766,
0,0,0,0,0,0,0,0,0,0,0,0,0,0,0,1766,
0,0,0,0,0,0,0,0,0,0,0,0,0,0,0,1766,
0,0,0,4873,4874,4875,0,0,0,0,0,0,0,0,0,1766,
0,0,0,4894,4895,4896,0,0,0,0,0,0,0,0,1736,1789,
0,0,0,4915,4916,4917,0,0,0,0,0,0,0,1736,1789,0,
4834,0,0,0,0,0,0,0,0,0,0,0,1736,1789,0,0,
4855,0,0,0,0,0,0,0,0,0,0,1736,1789,0,0,0,
0,0,0,0,0,0,0,0,0,0,1736,1789,0,0,0,0,
0,0,0,0,0,0,0,0,0,1736,1789,0,0,0,0,1727,
0,0,0,0,0,0,0,0,1736,1789,0,0,0,0,1727,1761,
0,0,0,0,0,0,0,1736,1789,0,0,0,0,1727,1761,1758,
0,0,0,0,0,0,0,1766,0,0,0,1727,1728,1761,1758,1758,
0,0,0,0,0,0,0,1766,0,0,0,1767,0,0,4854,4855,
0,0,0,0,0,0,0,1766,0,0,0,1767,0,0,0,0
</chunk>
   <chunk x="64" y="-16" width="16" height="16">
1789,0,0,1727,1728,1728,1729,0,0,0,0,0,0,0,0,0,
0,0,0,1767,0,0,0,0,0,0,0,0,0,0,0,0,
0,0,0,1767,0,0,0,0,0,0,0,0,0,0,0,0,
0,0,0,1767,0,0,0,0,0,0,0,0,0,0,0,0,
0,0,0,1767,0,0,0,0,0,0,0,0,0,0,0,0,
0,0,0,1767,0,0,0,0,0,0,0,0,0,0,0,0,
0,0,0,1767,0,0,0,0,0,0,0,0,0,0,0,0,
0,0,1727,1797,0,0,0,0,0,0,0,0,0,0,0,0,
0,1727,1761,0,0,0,0,0,0,0,0,0,0,0,0,0,
1727,1761,1758,0,0,0,0,0,0,0,0,0,0,0,0,0,
1761,1758,1758,0,0,0,0,0,0,0,0,0,0,0,0,0,
1758,0,0,0,0,0,0,0,0,0,0,0,0,0,0,0,
1758,0,0,0,0,0,0,0,0,0,0,0,0,0,0,0,
1758,0,0,0,0,0,0,0,0,0,0,0,0,0,0,0,
0,0,0,0,0,0,0,0,0,0,0,0,0,0,0,0,
0,0,0,0,0,0,0,0,0,0,0,0,0,0,0,0
</chunk>
   <chunk x="-80" y="0" width="16" height="16">
0,0,0,0,0,0,0,0,0,0,1758,0,0,0,0,0,
0,0,0,0,0,0,0,0,0,0,1758,0,0,0,0,0,
0,0,0,0,0,0,0,0,0,0,1758,0,248,249,250,0,
0,0,0,0,0,0,0,0,0,0,1758,0,267,268,269,0,
0,0,0,0,0,0,0,0,0,0,1758,0,267,268,269,0,
0,0,0,0,0,0,0,0,0,0,1758,0,286,252,269,0,
0,0,0,0,0,0,0,0,0,0,1758,0,248,271,269,0,
0,0,0,0,0,0,0,0,0,0,1758,248,271,268,269,0,
0,0,0,0,0,0,0,0,0,0,1758,286,252,268,269,0,
0,0,0,0,0,0,0,0,0,1758,1758,0,267,268,269,0,
0,0,0,0,0,0,0,0,0,1758,1758,0,267,268,269,0,
0,0,0,0,0,0,0,0,0,1758,0,249,271,268,269,0,
0,0,0,0,0,0,0,0,0,0,0,252,268,251,288,0,
0,0,0,0,0,0,0,0,0,0,0,271,268,269,0,0,
0,0,0,0,0,0,0,0,0,0,0,252,268,269,0,0,
0,0,0,0,0,0,0,0,0,0,1758,286,287,288,0,0
</chunk>
   <chunk x="-64" y="0" width="16" height="16">
0,0,0,0,0,0,0,0,0,0,0,0,0,0,0,0,
0,0,0,0,0,0,0,0,0,0,0,0,0,0,0,0,
0,0,0,0,0,0,0,0,0,0,0,0,0,0,0,0,
0,0,0,0,0,0,0,0,0,0,0,0,4833,4834,0,0,
0,0,0,0,0,0,0,0,0,0,0,0,4854,4855,0,0,
0,0,0,0,0,0,0,0,0,0,0,0,0,0,0,0,
0,0,0,0,0,0,0,0,0,0,0,0,0,0,0,0,
0,0,0,0,0,0,0,0,0,0,0,0,0,0,0,0,
0,0,0,0,0,0,0,0,0,0,0,0,0,0,0,0,
0,0,0,0,0,0,0,0,0,0,0,0,0,0,0,0,
0,0,0,0,0,0,0,0,0,0,0,0,0,0,0,0,
0,0,0,0,0,0,0,0,0,0,0,0,0,0,0,0,
0,0,0,0,0,0,0,0,0,0,0,0,0,0,0,0,
0,0,0,0,0,0,0,0,0,0,0,0,0,0,0,0,
0,0,0,0,0,0,0,0,0,0,0,0,0,0,0,0,
0,0,0,0,0,0,0,0,0,0,0,0,0,0,0,0
</chunk>
   <chunk x="-48" y="0" width="16" height="16">
0,0,0,0,0,0,0,0,0,0,0,0,0,0,0,0,
0,0,0,0,0,0,0,0,0,0,0,0,0,0,0,0,
0,0,0,0,0,0,0,0,0,0,0,0,0,0,0,0,
0,0,0,0,0,0,0,0,0,0,0,0,0,0,0,0,
0,0,0,0,0,0,0,0,0,0,0,0,0,0,0,0,
0,0,0,0,0,0,0,0,0,0,0,0,0,0,0,0,
0,0,0,0,0,0,0,0,0,0,0,0,0,0,0,0,
0,0,0,0,0,0,0,0,0,0,0,0,0,0,0,0,
0,0,0,0,0,0,0,0,0,0,0,0,0,0,0,0,
0,0,0,0,0,0,0,0,0,0,0,0,0,0,0,0,
0,0,0,0,4888,4889,0,0,0,0,0,0,0,0,0,0,
0,0,0,0,4909,4910,0,4873,4874,4875,0,0,0,0,0,0,
0,0,0,0,0,0,0,4894,4895,4896,0,0,0,0,0,0,
0,0,0,0,0,0,0,4915,4916,4917,0,0,0,0,0,0,
0,0,0,0,0,0,0,0,0,0,0,0,0,0,0,0,
0,0,0,0,0,0,0,0,0,0,0,0,0,0,0,0
</chunk>
   <chunk x="-32" y="0" width="16" height="16">
4915,4916,4917,0,0,0,0,0,0,0,0,0,0,0,0,0,
0,0,0,0,0,0,0,0,0,0,0,0,0,0,0,0,
0,0,0,0,0,0,0,0,0,0,0,0,0,0,0,0,
0,0,0,0,0,0,0,0,0,0,0,0,4873,4874,4875,0,
0,0,0,0,0,0,0,0,0,0,0,0,4894,4895,4896,0,
0,0,0,0,0,0,0,0,0,0,0,0,4915,4916,4917,0,
0,0,0,0,0,0,0,0,0,0,0,0,0,0,0,0,
0,0,0,0,0,0,0,0,0,0,0,0,0,0,0,0,
0,0,0,0,0,0,0,0,0,0,0,0,0,0,0,0,
0,0,0,0,0,0,0,0,0,0,0,0,0,0,0,0,
0,0,0,0,0,0,0,0,0,0,0,0,0,0,0,0,
0,4833,4834,4936,0,0,0,0,0,0,0,0,0,0,0,0,
0,4854,4855,4935,4936,0,0,0,0,0,0,0,0,0,0,0,
0,0,4956,4956,4957,0,0,0,0,0,0,0,0,0,4833,4834,
0,0,0,0,0,0,0,0,0,0,0,0,0,0,4854,4855,
0,0,0,0,0,0,0,0,0,0,0,0,0,0,0,0
</chunk>
   <chunk x="-16" y="0" width="16" height="16">
0,0,0,0,0,0,0,0,0,0,0,267,268,268,0,268,
0,0,0,0,0,0,0,0,0,0,0,267,268,268,268,268,
0,0,0,0,0,0,0,0,0,0,0,286,287,287,287,287,
0,0,0,0,0,0,0,0,0,0,0,0,0,0,0,0,
0,0,0,0,0,0,0,0,0,0,0,0,0,0,0,0,
0,0,0,0,0,0,0,0,0,0,0,0,0,0,0,0,
0,0,0,0,0,0,0,0,0,0,0,0,0,0,0,0,
0,0,0,0,0,0,0,0,0,0,0,0,0,0,0,0,
0,0,0,0,0,0,0,0,0,0,0,0,0,0,0,0,
0,0,0,0,0,0,0,0,0,0,0,0,0,0,0,0,
0,0,0,0,0,0,0,0,0,0,0,0,0,0,0,0,
0,0,0,0,0,0,0,0,0,0,0,0,4781,4782,0,0,
0,0,0,0,0,0,0,0,0,0,0,0,4802,4803,0,0,
0,0,0,0,0,0,0,0,0,0,0,0,0,0,0,0,
0,0,0,0,0,0,0,0,0,0,0,0,0,0,0,0,
0,0,0,0,0,0,0,0,0,0,0,0,0,0,0,0
</chunk>
   <chunk x="0" y="0" width="16" height="16">
268,268,268,268,268,268,0,0,268,269,135,0,0,0,0,0,
268,268,268,268,268,268,268,268,268,269,135,0,0,0,0,0,
287,287,287,287,287,287,287,287,287,288,135,0,0,0,0,0,
0,0,0,0,0,0,0,0,0,0,0,0,0,0,0,0,
0,0,0,0,0,0,0,0,0,0,0,0,0,0,0,0,
0,0,0,0,0,0,0,0,0,0,0,0,0,0,0,0,
0,0,0,0,0,0,0,0,0,0,0,0,0,0,0,0,
0,0,0,0,0,0,0,0,0,0,0,0,0,0,0,0,
0,0,0,0,0,0,0,0,0,0,0,0,0,0,0,0,
0,0,0,0,0,0,0,0,0,0,0,0,0,0,0,0,
0,4935,4936,0,0,0,0,0,0,0,0,0,0,0,0,0,
0,4956,4957,0,0,0,0,0,0,0,0,0,0,0,0,0,
0,0,0,0,0,0,0,0,0,0,0,0,0,0,0,0,
0,0,0,0,0,0,0,0,0,0,0,0,0,0,0,0,
0,0,0,0,0,0,0,0,0,0,0,0,0,0,0,0,
0,0,0,0,0,0,0,0,0,0,0,0,0,0,0,0
</chunk>
   <chunk x="16" y="0" width="16" height="16">
0,0,0,0,0,0,0,0,0,0,0,0,0,0,0,0,
0,0,0,0,0,0,0,0,0,0,0,1727,1729,0,0,0,
0,0,0,0,0,0,0,0,0,1727,1728,1761,1760,1729,0,0,
0,0,0,0,1730,0,0,0,1727,1761,0,0,0,1760,1729,0,
0,0,0,0,1759,0,0,1727,1797,0,0,0,0,0,1766,0,
0,0,0,1736,1789,0,0,1767,0,0,0,0,0,0,1766,0,
0,0,0,1766,0,0,0,1767,0,0,0,0,0,0,1796,1728,
0,0,0,1766,0,0,1727,1761,0,0,0,0,0,0,0,0,
0,0,0,1766,0,0,1767,0,0,0,0,0,0,0,0,0,
0,0,0,1766,0,0,1767,0,0,0,0,0,0,0,0,0,
0,0,0,1766,0,0,1767,0,0,1759,0,0,0,0,0,0,
0,0,0,1766,0,0,1767,0,0,0,0,0,0,0,0,0,
0,0,0,1766,0,0,1767,0,0,0,0,0,0,0,0,0,
0,0,1730,1789,4873,0,1767,0,0,0,0,0,0,0,0,0,
0,0,1766,0,0,0,1767,0,0,0,0,0,0,0,0,0,
0,1730,1789,0,0,0,1757,0,0,0,0,0,0,0,0,0
</chunk>
   <chunk x="32" y="0" width="16" height="16">
1787,1737,0,0,0,0,0,0,0,0,0,0,0,0,0,0,
0,1787,1737,0,0,0,0,0,0,0,0,0,0,0,0,0,
0,0,1787,1737,0,0,0,0,0,0,0,0,0,0,0,0,
0,0,0,1787,1737,0,0,0,0,0,0,0,0,0,0,0,
0,0,0,0,1787,1737,0,0,0,0,0,0,0,0,0,0,
0,0,0,0,0,1787,1737,0,0,0,0,0,0,0,0,0,
1729,0,0,0,0,0,1787,1788,1737,0,0,0,0,0,0,0,
1760,1729,0,0,0,0,0,0,1787,1737,0,0,0,0,0,0,
0,1766,0,0,0,0,0,0,0,1787,1737,0,0,0,0,1758,
0,1760,1728,1729,0,0,0,0,0,0,1787,1788,1631,1632,1788,1788,
0,0,0,1760,1728,1728,1729,0,0,0,0,0,1661,1662,0,0,
0,0,0,0,0,0,1796,1729,0,0,0,0,1691,1692,0,0,
0,0,0,0,0,0,0,1796,1729,0,0,0,1721,1722,0,0,
0,0,0,0,0,0,0,0,1796,1728,1728,1728,1751,1752,1728,1728,
0,0,0,0,0,0,0,0,0,0,0,0,0,0,0,0,
0,0,0,0,0,0,0,0,0,0,0,0,0,0,0,0
</chunk>
   <chunk x="48" y="0" width="16" height="16">
0,0,0,0,0,0,0,1766,0,0,1727,1761,0,0,0,0,
0,0,0,0,0,0,0,1766,0,0,1767,0,0,0,0,0,
0,0,0,0,0,0,1736,1789,0,0,1767,0,0,0,0,0,
0,0,0,0,0,1736,1789,0,0,0,1767,0,0,0,0,0,
0,0,0,0,1736,1789,0,0,0,1727,1797,0,0,0,0,0,
0,0,0,1736,1789,0,0,0,0,1767,0,0,0,0,0,0,
0,0,1736,1789,0,0,0,1727,1728,1797,0,0,0,0,0,0,
0,1736,1789,0,0,1727,1728,1797,4874,4875,0,0,0,0,0,0,
1736,1789,0,0,1727,1761,1758,4894,4895,4896,0,0,0,0,0,0,
1789,0,0,1727,1797,1758,1758,4915,4916,4917,0,0,0,0,0,0,
0,0,1727,1761,1758,1758,1758,0,0,0,0,0,0,0,0,0,
0,1727,1761,1758,1758,0,0,0,0,0,0,0,0,0,0,0,
1727,1761,1758,0,0,0,0,0,0,0,0,0,0,0,0,0,
1797,1758,0,0,0,0,0,0,0,0,0,0,0,0,0,0,
0,0,0,0,0,0,0,0,0,0,0,0,0,0,0,0,
0,0,0,0,0,0,0,0,0,0,0,0,0,0,0,0
</chunk>
   <chunk x="-80" y="16" width="16" height="16">
0,0,0,0,0,0,0,0,0,0,1758,0,0,0,0,0,
0,0,0,0,0,0,0,0,0,0,1758,0,0,0,0,0,
0,0,0,0,0,0,0,0,0,0,1758,0,0,0,0,0,
0,0,0,0,0,0,0,0,0,0,1758,0,0,0,0,0,
0,0,0,0,0,0,0,0,0,0,1758,0,0,0,0,0,
0,0,0,0,0,0,0,0,0,0,1758,0,0,0,0,0,
0,0,0,0,0,0,0,0,0,0,1758,0,0,0,0,0,
0,0,0,0,0,0,0,0,0,0,1758,0,0,0,0,0,
0,0,0,0,0,0,0,0,0,0,1758,0,0,0,0,0,
0,0,0,0,0,0,0,0,0,0,1758,0,0,0,0,0,
0,0,0,0,0,0,0,0,0,0,1758,0,0,0,0,0,
0,0,0,0,0,0,0,0,0,0,1758,0,0,0,0,0,
0,0,0,0,0,0,0,0,0,1758,1758,0,0,0,0,0,
0,0,0,0,0,0,0,0,0,1758,1758,0,0,0,0,0,
0,0,0,0,0,0,0,0,0,1758,1758,0,0,0,0,0,
0,0,0,0,0,0,0,0,0,1758,1758,0,0,0,0,0
</chunk>
   <chunk x="-64" y="16" width="16" height="16">
0,0,0,0,0,0,0,0,0,0,0,0,0,0,0,0,
0,0,0,0,0,0,0,0,0,0,0,0,0,0,0,0,
0,0,0,0,0,0,0,0,0,0,0,0,0,0,0,0,
0,0,0,0,0,0,0,0,0,0,0,0,0,0,0,0,
0,0,0,0,0,0,0,0,0,0,0,0,0,0,0,0,
0,0,0,0,0,0,0,0,0,0,0,0,0,0,0,0,
0,0,0,0,0,0,0,0,0,0,0,0,0,0,0,0,
0,0,0,0,0,0,0,0,0,0,0,0,0,0,0,0,
0,0,0,0,0,0,0,0,0,0,0,0,0,0,0,0,
0,0,0,0,0,0,0,0,0,0,0,0,0,0,0,0,
0,0,0,0,0,0,0,0,0,0,0,0,0,0,0,0,
0,0,0,0,0,0,0,0,0,0,0,0,1758,1758,1758,1758,
0,0,0,0,0,0,0,0,0,0,0,0,1758,1758,1758,1758,
0,0,0,0,0,0,0,0,0,0,0,0,1758,1758,1730,1788,
0,0,0,0,0,0,0,0,0,0,0,0,1758,1730,1789,0,
0,0,0,0,0,0,0,0,0,0,0,0,1730,1789,0,0
</chunk>
   <chunk x="-48" y="16" width="16" height="16">
0,0,0,0,0,0,0,0,0,0,0,0,0,0,0,0,
0,0,0,0,0,0,0,0,0,0,0,0,0,0,0,0,
0,0,0,0,0,0,0,0,0,0,0,0,0,0,0,0,
0,0,0,0,0,0,0,0,0,0,0,0,0,0,0,0,
0,0,0,0,0,0,0,0,0,0,0,0,0,0,0,0,
0,0,0,0,0,0,0,0,0,0,0,0,0,0,0,0,
0,0,0,0,0,0,0,0,0,0,0,0,0,0,0,0,
0,0,0,0,0,0,0,0,0,0,0,0,0,0,0,0,
0,0,0,0,0,0,0,0,0,0,0,0,0,0,0,0,
0,0,0,0,0,0,0,0,0,0,0,0,0,0,0,0,
0,0,0,0,0,0,0,0,0,0,0,0,0,0,0,0,
1758,1758,1758,1758,1758,1758,1758,1758,1758,1758,0,0,0,0,0,0,
1758,1758,1758,1758,1758,1758,1758,1758,1758,1758,0,0,0,0,0,0,
1788,1788,1788,1731,1758,1758,1758,1758,1758,1758,0,0,0,0,0,0,
0,0,0,1787,1731,1758,1758,1758,1758,1758,0,0,0,4930,4931,0,
0,0,0,0,1787,1731,1758,1758,1758,1758,0,0,0,4951,4952,0
</chunk>
   <chunk x="-32" y="16" width="16" height="16">
0,0,0,0,0,0,0,0,0,0,0,0,0,0,0,0,
0,0,0,0,0,0,0,0,0,0,0,0,0,0,0,0,
0,0,0,0,0,0,0,0,0,0,0,0,0,0,0,0,
0,0,0,0,0,0,0,0,0,0,0,0,0,0,0,0,
0,0,0,0,0,0,0,0,0,0,0,0,0,0,0,0,
0,0,0,0,0,0,0,0,0,0,0,0,0,0,0,0,
0,0,0,0,4833,4834,0,0,0,0,0,0,0,0,0,0,
0,0,0,0,4854,4855,0,0,0,0,0,0,0,0,0,0,
0,0,0,0,0,0,0,0,0,0,0,0,0,0,0,0,
0,0,0,0,0,0,0,0,0,0,0,0,0,0,0,0,
0,0,0,0,0,0,0,0,0,0,0,0,0,0,0,0,
0,0,0,0,0,0,0,0,0,0,0,0,0,0,0,0,
0,0,0,0,0,0,0,0,0,0,0,0,0,0,0,0,
0,0,0,0,0,0,0,0,0,0,0,0,0,0,0,0,
0,0,0,0,0,0,0,0,0,0,0,0,0,0,0,0,
0,0,0,0,0,0,0,0,0,0,0,0,0,0,0,0
</chunk>
   <chunk x="-16" y="16" width="16" height="16">
0,0,0,0,0,0,0,0,0,0,0,0,0,0,0,0,
0,0,0,0,0,0,0,0,0,0,0,0,0,0,0,0,
0,0,0,0,4860,4861,4862,0,0,0,0,0,0,0,0,0,
0,0,0,0,4881,4882,4883,0,0,0,0,0,0,0,0,0,
0,0,0,0,4902,4903,4904,0,0,0,0,0,0,0,0,0,
0,0,0,0,0,0,0,0,0,0,0,0,0,0,0,1730,
0,0,0,0,0,0,0,0,0,0,0,0,0,1730,1788,1789,
0,0,0,0,0,0,0,0,0,0,0,0,1730,1789,0,0,
0,0,0,0,0,0,0,0,0,0,0,1730,1789,0,0,0,
0,0,0,0,0,0,0,0,0,0,1730,1789,0,0,0,0,
0,0,0,0,0,0,0,0,1730,1788,1789,0,0,0,0,0,
0,0,0,0,0,0,0,1730,1789,0,0,0,0,0,0,1727,
0,0,0,0,0,0,1730,1789,0,0,0,0,0,0,1727,1761,
0,0,0,0,0,1730,1789,0,0,0,0,0,0,1727,1761,0,
0,4823,4824,1730,1788,1789,0,0,0,0,0,1727,1728,1761,0,0,
0,4844,1730,1789,0,0,0,0,0,0,1727,1761,0,0,0,0
</chunk>
   <chunk x="0" y="16" width="16" height="16">
0,0,0,0,0,0,0,4923,4924,0,0,0,0,0,0,0,
0,0,0,0,0,0,0,4944,4945,0,0,0,0,0,0,1730,
0,0,0,0,0,0,0,0,0,0,0,0,1730,1788,1788,1789,
0,1730,1788,1788,1788,1788,1631,1632,1788,1788,1788,1788,1789,0,0,0,
1730,1789,0,0,0,0,1661,1662,0,0,0,0,0,0,0,0,
1789,0,0,0,0,0,1691,1692,0,0,0,0,0,0,0,0,
0,0,0,0,0,0,1721,1722,0,0,0,0,0,0,0,1727,
0,0,0,0,0,1727,256,258,1728,1728,1728,1728,1728,1728,1728,1761,
0,0,0,0,1727,1761,275,277,0,0,0,0,0,0,0,0,
0,0,1727,1728,1761,0,275,277,0,0,0,0,0,0,0,0,
1727,1728,1761,0,0,0,275,278,258,0,0,0,0,0,0,0,
1761,4854,4855,0,0,0,294,260,277,0,0,0,0,0,0,0,
0,0,0,0,0,0,0,275,277,0,0,0,0,0,0,0,
0,0,0,0,0,0,0,275,277,0,0,0,0,0,0,0,
0,0,0,0,0,0,0,275,278,258,0,0,0,0,0,0,
0,0,0,0,0,0,0,294,260,278,258,0,0,0,0,0
</chunk>
   <chunk x="16" y="16" width="16" height="16">
1730,1789,0,0,0,1727,1761,0,0,0,0,0,0,0,0,0,
1789,0,0,0,0,1757,0,0,0,0,0,0,0,0,0,0,
0,0,0,0,1727,1761,0,0,0,0,0,0,0,0,0,0,
0,0,0,0,1757,0,0,0,0,0,0,0,0,0,0,0,
0,0,0,0,1757,0,0,0,0,0,4795,4796,0,0,0,0,
0,1727,1728,1728,1761,0,0,0,0,0,0,0,0,0,0,0,
1728,1761,0,0,0,0,0,0,0,0,0,0,0,0,0,0,
0,0,0,0,0,0,0,0,0,0,0,0,0,0,0,0,
0,0,0,0,0,0,0,0,0,0,0,0,0,0,0,0,
0,0,0,0,0,0,0,0,0,0,0,0,0,0,0,0,
0,0,0,0,0,0,0,0,0,0,0,0,0,0,0,0,
0,0,0,0,0,0,0,0,0,0,0,0,0,0,0,0,
0,0,0,4797,4798,0,0,0,0,0,0,0,0,0,0,0,
0,0,0,0,0,0,0,0,0,0,0,0,0,0,0,0,
0,0,0,0,0,0,0,0,0,0,0,0,0,0,0,0,
0,0,0,0,0,0,0,0,0,0,0,0,0,0,0,0
</chunk>
   <chunk x="32" y="16" width="16" height="16">
0,0,0,0,0,0,0,0,0,0,0,0,4860,4861,4862,0,
0,0,0,0,0,0,0,0,0,0,0,0,4881,4882,4883,0,
0,0,0,0,0,0,0,0,0,0,0,0,4902,4903,4904,0,
0,0,0,0,0,0,0,0,0,0,0,0,0,0,0,0,
0,0,0,0,0,0,0,0,0,0,0,0,0,0,0,0,
0,0,0,0,0,0,0,0,0,0,0,0,0,0,0,0,
0,0,0,0,0,0,0,0,0,0,0,0,0,0,0,0,
0,0,0,0,0,0,0,0,0,0,0,0,0,0,0,0,
0,0,0,0,0,0,0,0,0,0,0,0,0,0,0,0,
0,0,0,0,0,0,0,0,0,0,0,0,0,0,0,0,
0,0,0,0,0,0,0,0,0,0,0,0,0,0,0,0,
0,0,0,0,0,0,0,0,0,0,0,0,0,0,0,0,
0,0,0,0,0,0,0,0,0,0,0,0,0,0,0,0,
0,0,0,0,0,0,0,0,0,0,0,0,0,0,0,0,
0,0,0,0,0,0,0,0,0,0,0,0,0,0,0,0,
0,0,0,0,0,0,0,0,0,0,0,0,0,0,0,0
</chunk>
   <chunk x="48" y="16" width="16" height="16">
0,0,0,0,0,0,0,0,0,0,0,0,0,0,0,0,
0,0,0,0,0,0,0,0,0,0,0,0,0,0,0,0,
0,0,0,0,0,0,0,0,0,0,0,0,0,0,0,0,
0,0,0,0,0,0,0,0,0,0,0,0,0,0,0,0,
0,0,0,0,0,0,0,0,0,0,0,0,0,0,0,0,
0,0,0,0,0,0,0,0,0,0,0,0,0,0,0,0,
0,0,0,0,0,0,0,0,0,0,0,0,0,0,0,0,
0,0,0,0,0,0,0,0,0,0,0,0,0,0,0,0,
0,0,0,0,0,0,0,0,0,0,0,0,0,0,0,0,
0,0,0,0,0,0,0,0,0,0,0,0,0,0,0,0,
0,0,0,0,0,0,0,0,0,0,0,0,0,0,0,0,
0,0,0,0,4968,4969,0,0,0,0,0,0,0,0,0,0,
0,0,0,0,4989,4990,0,0,0,0,0,0,0,0,0,0,
0,0,0,0,0,0,0,0,0,0,0,0,0,0,0,0,
0,0,0,0,0,0,0,0,0,0,0,0,0,0,0,0,
0,0,0,0,0,0,0,0,0,0,0,0,0,0,0,0
</chunk>
   <chunk x="-80" y="32" width="16" height="16">
0,0,0,0,0,0,0,0,0,1758,1758,0,0,0,0,0,
0,0,0,0,0,0,0,0,0,1758,1758,0,0,0,0,0,
0,0,0,0,0,0,0,0,0,1758,1758,0,0,0,0,0,
0,0,0,0,0,0,0,0,0,1758,1758,0,0,0,0,0,
0,0,0,0,0,0,0,0,0,1758,1758,0,0,0,0,0,
0,0,0,0,0,0,0,0,0,1758,1758,0,0,0,0,0,
0,0,0,0,0,0,0,0,0,1758,1758,0,0,0,0,0,
0,0,0,0,0,0,0,0,0,1758,1758,0,0,0,0,0,
0,0,0,0,0,0,0,0,0,1758,1758,0,0,0,0,0,
0,0,0,0,0,0,0,0,0,1758,1758,0,0,0,0,0,
0,0,0,0,0,0,0,0,0,0,1758,0,0,0,0,0,
0,0,0,0,0,0,0,0,0,0,1758,0,0,0,0,0,
0,0,0,0,0,0,0,0,0,0,1758,0,0,0,0,0,
0,0,0,0,0,0,0,0,0,0,1758,0,0,0,0,0,
0,0,0,0,0,0,0,0,0,0,1758,0,0,0,0,0,
0,0,0,0,0,0,0,0,0,0,1758,0,0,0,0,1758
</chunk>
   <chunk x="-64" y="32" width="16" height="16">
0,0,0,0,0,0,0,0,0,0,0,0,1766,0,0,0,
0,0,0,0,0,0,0,0,0,0,0,0,1766,0,0,0,
0,0,0,0,0,0,0,0,0,0,0,0,1766,0,0,0,
0,0,0,0,0,0,0,0,0,0,0,0,1766,0,0,0,
0,0,0,0,0,0,0,0,0,0,0,0,1766,0,0,0,
0,0,0,0,0,0,0,0,0,0,0,0,1766,0,0,0,
0,0,0,0,0,0,0,0,0,0,0,1758,1766,0,0,0,
0,0,0,0,0,1758,1758,1736,1788,1631,1632,1788,1789,0,0,0,
0,0,0,0,1758,1736,1788,1789,0,1661,1662,0,0,0,0,0,
0,0,0,1758,1758,1766,0,0,0,1661,1662,0,0,0,0,0,
0,0,0,1758,1736,1789,0,0,0,1691,1692,0,0,0,0,0,
0,0,1758,1758,1766,0,0,0,0,1661,1662,0,0,0,0,0,
0,0,1758,1736,1789,0,0,0,0,1691,1692,0,0,0,0,0,
0,0,1758,1766,0,0,0,0,1727,1751,1752,1729,0,0,0,0,
0,1758,1736,1789,0,0,0,0,1757,1758,1758,1760,1728,1728,1728,1728,
1758,1736,1789,0,0,0,0,0,1757,1758,1758,1758,1758,1758,1758,1758
</chunk>
   <chunk x="-48" y="32" width="16" height="16">
0,0,0,0,0,1787,1731,1758,1758,1758,0,0,0,0,0,0,
0,0,0,0,0,0,1787,1731,1758,1758,0,0,0,0,0,0,
0,0,0,0,0,0,0,1787,1731,1758,0,0,0,0,0,0,
0,0,0,0,0,0,0,0,1787,1731,0,0,0,0,0,0,
0,0,0,0,0,0,0,0,0,1767,0,0,0,0,0,0,
0,0,0,0,0,0,0,0,0,1767,0,0,0,0,0,0,
0,0,0,0,0,0,0,0,0,1767,0,0,0,0,0,0,
0,0,0,0,0,0,0,0,0,1767,0,0,0,0,0,0,
0,0,0,0,0,0,0,0,0,1767,0,0,0,1730,1788,1788,
0,0,0,0,0,0,0,0,0,1767,0,0,0,1759,0,0,
0,0,0,0,0,0,0,0,0,1787,1788,1788,1788,1789,0,0,
0,0,0,0,0,0,0,0,0,0,0,0,0,0,0,0,
0,0,0,0,0,0,0,0,0,0,0,0,0,0,0,0,
0,0,0,0,0,0,0,0,0,0,0,0,0,0,0,0,
1728,1729,0,0,0,0,0,0,0,0,0,0,0,0,0,0,
1758,1766,0,0,0,0,0,0,0,0,0,0,0,0,0,0
</chunk>
   <chunk x="-32" y="32" width="16" height="16">
0,0,0,0,0,0,0,0,0,0,0,0,0,0,0,1736,
0,0,0,0,0,0,0,0,0,0,0,0,0,0,0,1759,
0,0,0,0,0,0,0,0,0,0,0,0,0,0,1730,1789,
0,0,0,0,0,0,0,0,0,0,0,0,0,1730,1789,0,
0,0,0,0,0,0,0,0,0,0,0,0,1730,1789,0,0,
0,0,0,0,0,0,0,0,0,0,0,1730,1789,0,0,0,
0,0,0,0,0,0,0,0,1736,1788,1788,1789,0,0,0,1727,
0,0,0,0,0,0,0,0,1766,0,0,0,0,1727,1728,1797,
1788,1788,1788,1788,1788,1788,1788,1788,1789,0,0,0,0,1761,0,0,
0,0,0,0,0,0,0,0,0,0,0,0,0,0,0,0,
0,0,0,0,0,0,0,0,0,0,0,0,0,0,0,0,
0,0,0,0,0,0,0,0,0,0,1737,0,0,0,0,0,
0,0,0,0,0,0,0,0,0,0,1767,0,0,0,0,0,
0,0,0,0,0,0,0,0,0,0,1767,0,0,0,0,0,
0,0,0,0,0,0,0,0,0,0,1767,0,0,0,0,0,
0,0,0,0,0,0,0,0,0,0,1767,0,0,0,0,0
</chunk>
   <chunk x="-16" y="32" width="16" height="16">
1628,1629,1789,0,0,0,0,0,1727,1728,1761,0,0,0,0,0,
1658,1659,0,0,0,0,1727,1728,1761,0,0,0,0,0,0,0,
1688,1689,0,0,0,1727,1761,0,0,0,0,0,0,0,0,0,
1718,1719,0,0,1727,1761,0,0,0,0,0,0,0,0,0,0,
1688,1689,0,1727,1761,0,0,0,0,0,0,0,0,0,0,0,
1718,1719,1728,1761,0,0,0,0,0,0,0,0,0,0,0,0,
1748,1749,0,0,0,0,0,0,0,0,0,0,0,0,0,0,
1758,0,0,0,0,0,0,0,0,0,0,0,0,0,0,0,
0,0,0,0,0,0,0,0,0,0,0,0,0,0,0,0,
0,0,0,0,0,0,0,0,0,0,0,0,0,0,0,0,
0,0,0,0,0,0,0,0,0,0,0,0,0,0,0,0,
0,0,0,0,0,0,0,0,0,0,0,0,0,0,0,0,
0,0,0,0,0,0,0,0,0,0,0,0,0,0,0,4921,
0,0,4881,4882,4883,0,0,0,0,0,0,0,0,0,0,4942,
0,0,4902,4903,4904,0,0,0,0,0,0,0,0,0,0,0,
0,0,0,0,0,0,0,0,0,0,0,0,0,0,0,0
</chunk>
   <chunk x="0" y="32" width="16" height="16">
0,0,0,0,0,0,0,0,294,260,277,0,0,0,0,0,
0,0,1758,0,0,0,0,0,0,275,278,258,0,0,0,0,
0,0,0,0,0,0,0,0,0,294,260,277,0,0,0,0,
0,0,0,0,0,0,0,0,0,256,279,277,0,0,0,0,
0,0,0,0,0,0,0,0,0,275,259,296,0,0,0,0,
0,0,0,0,0,0,0,0,0,275,277,0,0,0,0,0,
0,0,0,0,0,0,0,0,256,279,277,0,0,0,0,0,
0,0,0,0,0,0,0,0,275,259,296,0,0,0,0,0,
0,0,0,0,0,0,0,0,275,277,0,0,0,0,0,0,
0,0,0,0,0,0,0,0,275,277,0,0,0,0,0,0,
0,0,0,0,0,0,0,0,275,277,0,0,0,0,0,0,
0,0,0,0,0,0,0,0,275,277,0,0,0,0,0,0,
4922,256,0,0,0,0,0,0,275,277,0,0,0,0,0,0,
4943,0,0,0,0,0,0,0,275,277,0,0,0,0,0,0,
0,0,0,0,0,0,0,0,275,277,0,0,0,0,0,0,
256,257,258,0,0,0,0,0,275,277,0,0,0,0,0,0
</chunk>
   <chunk x="16" y="32" width="16" height="16">
0,0,0,0,0,0,0,0,0,0,0,0,0,0,0,0,
0,0,0,0,0,0,0,0,0,0,0,0,0,0,0,0,
0,0,0,0,0,0,0,0,0,0,0,0,0,0,0,0,
0,0,0,0,0,0,0,0,0,0,0,0,0,0,0,0,
0,0,0,0,0,0,0,0,0,0,0,0,0,0,0,0,
0,0,0,0,0,0,0,0,0,0,0,0,0,0,0,0,
0,0,0,0,0,0,0,0,0,0,0,0,0,0,0,0,
0,0,0,0,0,0,0,0,0,0,0,0,0,0,0,0,
0,0,0,0,0,0,0,0,0,0,0,0,0,0,0,0,
0,0,0,0,0,0,0,0,0,0,0,0,0,0,0,0,
0,0,0,0,0,0,0,0,0,0,0,0,0,0,0,0,
0,0,0,0,0,0,0,0,0,0,0,0,0,0,0,0,
0,0,0,0,0,0,0,0,0,0,0,0,0,0,0,0,
0,0,0,0,0,256,257,257,257,257,257,257,258,0,0,0,
0,0,0,0,0,294,295,295,295,295,295,260,278,257,257,257,
0,0,0,0,0,0,0,0,0,0,0,294,295,295,295,295
</chunk>
   <chunk x="32" y="32" width="16" height="16">
0,0,0,0,0,0,0,0,0,0,0,0,0,0,0,0,
0,0,0,0,0,0,0,0,0,0,0,0,0,0,0,0,
0,0,0,0,0,0,0,0,0,0,0,0,0,0,0,0,
0,0,0,0,0,0,0,0,0,0,0,0,0,0,0,0,
0,0,0,0,0,0,0,0,0,0,0,0,0,0,0,0,
0,0,0,0,0,0,0,0,0,0,0,0,0,0,0,0,
0,0,0,0,0,0,0,0,0,0,0,0,4940,4941,0,0,
0,0,0,0,0,0,0,0,0,0,0,0,4961,4962,0,0,
0,0,0,0,0,0,0,0,0,0,0,0,0,0,0,0,
0,0,0,0,0,0,0,0,0,0,0,0,0,0,0,0,
0,0,0,0,0,0,0,0,0,0,0,0,0,0,0,0,
0,0,0,0,256,258,0,0,0,0,0,0,0,0,0,0,
0,0,0,256,279,277,0,0,0,0,0,0,0,0,0,0,
0,256,257,279,259,296,0,0,0,0,0,0,0,0,0,0,
257,279,259,295,296,0,0,0,0,0,0,0,0,0,4935,4936,
260,259,296,0,0,0,0,0,0,0,0,0,0,0,4956,4957
</chunk>
   <chunk x="48" y="32" width="16" height="16">
0,0,0,0,0,0,0,0,0,0,0,0,0,0,0,0,
0,0,0,0,0,0,0,0,0,0,0,0,0,0,0,0,
0,0,0,0,0,0,0,0,0,0,0,0,0,0,0,0,
0,0,0,0,0,0,0,0,0,0,0,0,0,0,0,0,
0,0,0,0,0,0,0,0,0,0,0,0,0,0,0,0,
0,0,0,0,0,0,0,0,0,0,0,0,0,0,0,0,
0,0,0,0,0,0,0,0,0,0,0,0,0,0,0,0,
0,0,0,0,0,0,0,0,0,0,0,0,0,0,0,0,
0,0,0,0,0,0,0,0,0,0,0,0,0,0,0,0,
0,0,0,0,0,0,0,0,0,0,0,0,0,0,0,0,
0,0,0,0,0,0,0,0,0,0,0,0,0,0,0,0,
0,0,0,0,0,0,0,0,0,0,0,0,0,0,0,0,
0,0,0,0,0,0,0,0,0,4923,4924,0,0,0,0,0,
0,0,0,0,0,0,0,0,0,4944,4945,0,0,0,0,0,
0,0,0,0,0,0,0,0,0,0,0,0,0,0,4935,4936,
0,0,0,0,0,0,0,0,0,0,0,0,0,0,4956,4957
</chunk>
   <chunk x="-96" y="48" width="16" height="16">
0,0,0,0,0,0,0,0,0,0,0,0,0,0,0,0,
0,0,0,0,0,0,0,0,0,0,0,0,0,0,0,0,
0,0,0,0,0,0,0,0,0,0,0,0,0,0,0,0,
0,0,0,0,0,0,0,0,0,0,0,0,0,0,0,0,
0,0,0,0,0,0,0,0,0,0,0,0,0,0,0,0,
0,0,0,0,0,0,0,0,0,0,0,0,0,0,0,0,
0,0,0,0,0,0,0,0,0,0,0,0,0,0,0,0,
0,0,0,0,0,0,0,0,0,0,0,0,0,0,0,0,
0,0,0,0,0,0,0,0,0,0,0,0,0,0,0,0,
0,0,0,0,0,0,0,0,0,0,0,0,0,0,0,0,
0,0,0,0,0,0,0,0,0,0,0,0,0,0,0,0,
0,0,0,0,0,0,0,0,0,0,0,0,0,0,0,0,
0,0,0,0,0,0,0,0,0,0,0,0,0,0,0,0,
0,0,0,0,0,0,0,0,0,0,0,0,0,0,0,1730,
0,0,0,0,0,0,0,0,0,0,0,0,0,0,0,1759,
0,0,0,0,0,0,0,0,0,0,0,0,0,1730,1788,1789
</chunk>
   <chunk x="-80" y="48" width="16" height="16">
0,0,0,0,0,0,0,0,0,0,1758,0,0,0,0,1758,
0,0,0,0,0,0,0,0,0,0,1758,0,0,0,0,1736,
0,0,0,0,0,0,0,0,0,0,1758,0,0,0,0,1759,
0,0,0,0,0,0,0,0,0,0,1758,0,0,0,0,1759,
0,0,0,0,0,0,0,0,0,0,1758,0,0,0,0,1759,
0,0,0,0,0,0,0,0,0,0,1758,0,0,0,0,1759,
0,0,0,0,0,0,0,0,0,0,1758,0,0,0,1730,1789,
0,0,0,0,0,0,0,0,0,0,1758,0,1730,1788,1789,0,
0,0,0,0,0,0,0,0,0,0,1758,1730,1789,0,0,0,
0,0,0,0,0,0,0,0,0,1730,1788,1789,0,0,0,0,
0,0,0,0,0,0,0,0,1730,1789,0,0,0,1967,1968,1969,
0,0,0,0,0,0,0,1730,1789,0,0,0,1967,2001,0,1999,
1730,1788,1788,1788,1788,1788,1788,1763,0,0,0,1967,2001,0,0,1999,
1789,0,0,0,0,0,0,0,0,0,1967,2001,0,0,0,2000,
0,0,0,0,0,0,0,0,0,0,1997,0,0,0,0,1998,
0,0,0,0,0,0,0,0,1727,1728,1761,0,0,0,0,0
</chunk>
   <chunk x="-64" y="48" width="16" height="16">
1758,0,0,0,0,0,0,0,1757,1758,1758,1758,1758,1758,1758,1758,
1788,1789,0,0,0,0,0,0,1787,1788,1788,1788,1788,1788,1788,1788,
0,0,0,0,0,0,0,0,0,0,0,0,0,0,1661,1662,
0,0,0,0,0,0,0,0,0,0,0,0,0,0,1691,1692,
0,0,0,0,0,0,0,0,0,0,0,0,0,0,1721,1722,
0,0,0,0,0,0,0,0,0,0,0,0,0,0,1661,1662,
0,0,0,0,0,0,0,0,0,0,0,0,0,0,1691,1692,
0,0,0,0,0,0,0,0,0,0,0,0,1727,1728,1751,1752,
0,0,0,0,0,0,0,0,0,0,0,0,1997,0,0,0,
0,0,0,0,0,0,0,0,0,0,0,0,1997,0,0,0,
0,0,0,0,0,0,0,0,0,0,0,0,1997,0,0,0,
0,0,0,0,0,0,0,0,0,0,0,0,1997,0,0,0,
0,0,0,0,0,0,0,0,0,0,0,0,1997,0,0,0,
1969,0,0,0,0,0,0,0,0,0,0,1967,2001,0,0,0,
2000,1968,1968,1968,1968,1968,1968,1968,1968,1968,1968,2001,1998,0,0,0,
0,0,0,0,0,0,0,0,0,0,0,0,0,0,0,0
</chunk>
   <chunk x="-48" y="48" width="16" height="16">
1758,1766,0,0,0,0,0,0,0,0,0,0,0,0,0,0,
1788,1789,0,0,0,0,0,0,0,0,0,0,0,0,0,0,
0,0,0,0,0,0,0,0,0,0,0,0,0,0,0,0,
0,0,0,0,0,0,0,0,0,0,0,0,0,0,0,0,
0,0,0,0,0,0,0,0,0,0,0,0,0,0,4916,4917,
0,0,0,0,0,0,0,0,0,0,0,0,0,0,0,0,
0,0,0,0,0,0,0,0,0,0,0,0,0,0,0,0,
1729,0,0,0,0,0,0,0,0,0,0,0,0,0,0,0,
1759,0,0,0,0,0,0,0,0,0,0,0,0,0,0,0,
1760,1728,1728,1728,1728,1728,1728,1728,1728,1728,1728,1728,1729,0,0,0,
0,0,0,4873,4874,4875,0,0,0,0,0,1758,1760,1728,1728,1728,
0,0,0,4894,4895,4896,0,0,0,0,0,1758,1758,0,0,0,
0,0,0,4915,4916,4917,0,0,0,0,0,1758,1758,0,0,0,
0,0,0,0,0,0,0,0,0,0,0,1758,1758,0,0,0,
0,0,0,0,0,0,0,0,0,0,0,1758,1758,0,0,0,
0,0,0,0,0,0,0,0,0,0,0,1758,1758,1758,1758,1758
</chunk>
   <chunk x="-32" y="48" width="16" height="16">
0,0,0,0,0,0,0,0,0,0,1767,0,0,0,0,0,
0,0,0,0,0,0,0,0,0,0,1767,0,0,0,0,0,
0,0,0,0,0,0,0,0,0,0,1767,0,0,0,0,0,
0,0,0,0,0,0,0,0,0,0,1787,1788,1788,1731,1758,1758,
0,0,0,0,0,0,0,0,0,0,0,0,0,1787,1731,1758,
0,0,0,0,0,0,0,0,0,0,0,0,0,0,1787,1731,
0,0,0,0,0,0,0,0,0,0,0,0,0,0,0,1757,
0,0,0,0,0,0,0,0,0,0,0,0,0,0,0,1757,
0,0,0,0,0,0,0,0,0,0,0,0,0,0,1727,1761,
0,0,0,0,0,0,0,0,0,0,0,0,0,1727,1761,1758,
1728,1728,1728,1728,1728,1728,1728,1728,1728,1728,1728,1728,1728,1761,1758,1758,
0,0,0,0,0,0,0,0,0,0,0,0,0,0,0,0,
0,0,0,0,0,0,0,0,1758,0,0,0,0,0,0,0,
0,0,0,0,0,0,0,0,1758,0,0,0,0,0,0,4873,
0,0,0,0,0,0,0,0,1758,0,0,0,0,0,0,4894,
1758,1758,1758,1758,1758,1758,1758,1758,1758,0,0,0,0,0,0,4915
</chunk>
   <chunk x="-16" y="48" width="16" height="16">
0,0,0,0,0,0,0,0,0,0,0,0,0,0,0,0,
0,0,0,0,0,0,0,0,0,0,0,0,0,0,0,0,
0,0,0,0,0,0,0,0,0,0,0,0,0,0,0,0,
0,0,0,0,0,0,0,0,0,0,0,0,0,0,0,0,
0,0,0,0,0,0,0,0,0,0,0,0,0,0,0,0,
0,0,0,0,0,0,0,0,0,0,0,0,0,0,0,0,
0,0,0,0,0,0,0,0,0,0,0,0,0,0,0,0,
0,0,0,0,0,0,0,0,0,0,0,0,0,0,0,0,
0,0,0,0,0,0,0,0,0,0,0,0,0,0,0,0,
0,0,4935,4936,0,0,0,0,0,0,0,0,0,0,0,0,
0,0,4956,4957,0,0,0,0,0,0,0,0,0,0,0,0,
0,0,0,0,0,0,0,0,0,0,0,0,0,0,0,0,
0,0,0,0,0,0,0,0,0,0,0,0,0,0,0,0,
4874,4875,0,0,0,0,0,0,0,0,0,0,0,0,0,0,
4895,4896,0,0,0,0,0,0,0,0,0,0,0,0,0,0,
4916,4917,0,0,0,0,0,0,0,0,0,0,0,4935,4936,0
</chunk>
   <chunk x="0" y="48" width="16" height="16">
294,260,277,0,0,0,0,256,279,277,0,0,0,0,0,0,
0,275,277,0,0,0,0,275,259,296,0,0,0,0,0,0,
0,294,296,0,0,0,256,279,277,0,0,0,0,0,0,0,
0,0,0,0,0,256,279,259,296,0,4935,4936,0,0,0,0,
0,0,0,0,256,279,259,296,0,0,4956,4957,0,0,0,0,
0,0,0,0,294,295,296,0,0,0,0,0,0,0,0,0,
0,0,0,0,0,0,256,258,0,4873,4874,4875,0,0,0,0,
0,0,0,0,0,0,294,296,0,4894,4895,4896,0,0,0,0,
0,0,0,0,0,0,0,0,0,4915,4916,4917,0,0,0,0,
0,0,0,0,0,0,0,0,0,0,0,0,0,0,0,0,
0,0,0,0,0,0,0,0,0,0,0,0,0,0,0,0,
0,0,4935,4936,0,0,0,0,0,0,0,0,0,0,0,0,
0,0,4956,4957,0,0,0,0,0,0,0,0,0,0,0,0,
0,0,0,0,0,0,0,0,0,0,0,0,0,0,0,0,
0,0,0,0,0,0,0,0,0,0,0,0,0,0,0,0,
0,0,0,0,0,0,0,0,0,0,0,0,0,0,0,0
</chunk>
   <chunk x="16" y="48" width="16" height="16">
0,0,0,0,0,0,0,0,0,0,0,0,0,0,0,256,
0,0,0,0,0,0,0,0,0,0,0,0,0,0,0,275,
0,0,0,0,0,0,0,0,0,0,0,0,0,0,0,275,
0,0,0,0,0,0,0,0,0,0,0,0,0,0,0,294,
0,0,0,0,0,0,0,0,0,0,0,0,0,0,0,0,
0,0,0,0,0,0,0,0,0,0,0,0,0,0,0,0,
0,0,0,0,0,0,0,0,0,0,0,0,0,0,0,0,
0,0,0,0,0,0,0,0,0,0,0,0,4873,4874,4875,0,
0,0,0,0,0,0,0,0,0,0,0,0,4894,4895,4896,0,
0,0,0,0,0,0,0,0,0,0,0,0,4915,4916,4917,0,
0,0,0,0,0,0,0,0,0,0,0,0,0,0,0,0,
0,0,0,0,0,0,0,0,0,0,0,0,0,0,0,0,
0,0,0,0,0,0,0,0,0,0,0,0,0,0,0,0,
0,0,0,0,0,0,4935,4935,4936,0,0,0,0,0,0,0,
0,0,0,0,0,0,4956,4956,4957,0,0,0,0,0,0,0,
0,0,0,0,0,0,0,0,0,0,0,0,0,0,0,0
</chunk>
   <chunk x="32" y="48" width="16" height="16">
279,277,0,0,0,0,0,0,0,0,0,0,0,0,0,0,
259,296,0,0,0,0,0,0,0,0,0,0,0,0,0,0,
277,0,0,0,0,0,0,0,0,0,0,0,0,0,0,0,
296,0,0,0,0,0,0,0,0,0,0,0,0,0,0,0,
0,0,0,0,4935,4936,0,0,0,0,0,0,0,0,0,0,
0,0,0,0,4956,4957,0,0,0,0,0,0,0,0,0,0,
0,0,0,0,0,0,0,0,0,0,0,0,0,0,0,0,
0,0,0,0,0,0,0,0,0,0,0,0,0,0,0,0,
0,0,0,0,0,0,0,0,0,0,0,0,0,0,0,0,
0,4935,4936,0,0,0,0,0,0,0,0,0,0,0,0,0,
0,4956,4957,0,0,0,0,0,0,0,0,0,0,0,0,0,
0,4956,4957,0,0,0,0,0,0,0,0,0,0,0,0,0,
0,0,0,0,0,0,0,0,0,0,0,0,0,0,0,0,
0,0,0,0,0,0,0,0,0,0,0,0,0,0,4835,4836,
0,0,0,0,0,0,0,0,0,0,0,0,0,0,4856,4857,
0,0,0,0,0,0,0,0,0,0,0,0,0,0,0,0
</chunk>
   <chunk x="48" y="48" width="16" height="16">
0,0,0,0,0,0,0,0,0,0,0,0,0,0,0,0,
0,0,0,0,0,0,0,0,0,0,0,0,0,0,0,0,
0,0,0,0,0,0,0,0,0,0,0,0,0,0,0,0,
0,0,0,0,0,0,0,0,0,0,0,0,4935,4936,0,0,
0,0,0,0,0,0,0,0,0,0,0,0,4956,4957,0,0,
0,0,0,0,0,0,0,0,0,0,0,0,0,0,0,0,
0,0,0,0,0,0,0,0,0,0,0,0,0,0,0,0,
0,0,0,0,0,0,0,4860,4861,4862,0,0,0,0,0,0,
0,0,0,0,0,0,0,4881,4882,4883,0,0,0,0,0,0,
0,0,0,0,0,0,0,4902,4903,4904,0,0,0,0,0,0,
0,0,0,0,0,0,0,0,0,0,0,0,0,0,0,0,
0,0,0,0,0,0,0,0,0,0,0,0,0,0,0,0,
0,0,0,0,0,0,0,4935,4936,0,0,0,0,0,0,0,
0,0,0,0,0,0,0,4956,4957,0,0,0,0,0,0,0,
0,0,0,0,0,0,0,0,0,0,0,0,0,0,0,0,
0,0,0,0,0,0,0,0,0,0,0,0,0,0,0,0
</chunk>
   <chunk x="64" y="48" width="16" height="16">
0,0,0,0,0,0,0,0,0,0,0,0,0,0,0,0,
0,0,0,0,0,0,0,0,0,0,0,0,0,0,0,0,
0,0,0,0,0,0,0,0,0,0,0,0,0,0,0,0,
0,0,0,0,0,0,0,0,0,0,0,0,0,0,0,0,
0,0,0,0,0,0,0,0,0,0,0,0,0,0,0,0,
0,0,0,0,0,0,0,0,0,0,0,0,0,0,0,0,
0,0,0,0,0,0,0,0,0,0,0,0,0,0,0,0,
0,0,0,0,0,0,0,0,0,0,0,0,0,0,0,0,
0,0,0,0,0,0,0,0,0,0,0,0,0,0,0,0,
0,0,0,0,0,0,0,0,0,0,0,0,0,0,0,0,
0,0,0,0,0,0,0,0,0,0,0,0,0,0,0,0,
0,0,0,0,0,0,0,0,0,0,0,0,0,0,0,0,
0,0,0,0,0,0,0,0,0,0,0,0,0,0,0,0,
0,0,0,0,0,0,0,0,0,0,0,0,0,0,0,0,
0,0,0,0,0,0,0,0,0,0,0,0,0,0,0,0,
4935,4936,0,0,0,0,0,0,0,0,0,0,0,0,0,0
</chunk>
   <chunk x="-128" y="64" width="16" height="16">
0,0,0,0,0,0,0,0,0,0,0,0,0,0,0,0,
0,0,0,0,0,0,0,0,0,0,0,0,0,0,0,0,
0,0,0,0,0,0,0,0,0,0,0,0,0,0,0,0,
0,0,0,0,0,0,0,0,0,0,0,0,0,0,0,0,
0,0,0,0,0,0,0,0,0,0,0,0,0,0,0,0,
0,0,0,0,0,0,0,0,0,0,0,0,0,0,0,0,
0,0,0,0,0,0,0,0,0,0,0,0,0,0,0,0,
0,0,0,0,0,0,0,0,0,0,0,0,0,0,1730,1788,
0,0,0,0,0,0,0,0,0,0,0,1730,1788,1788,1789,0,
0,0,0,0,0,0,0,1730,1788,1788,1788,1789,0,0,0,0,
0,0,0,0,0,0,0,1759,0,0,0,0,0,0,0,0,
0,0,0,0,0,0,0,1759,0,0,0,0,0,1727,1728,1728,
0,0,0,0,0,0,0,1760,1728,1728,1728,1728,1728,1761,0,0,
0,0,0,0,0,0,0,0,0,0,0,0,0,0,0,0,
0,0,0,0,0,0,0,0,0,0,0,0,0,0,0,0,
0,0,0,0,0,0,0,0,0,0,0,0,0,0,0,0
</chunk>
   <chunk x="-112" y="64" width="16" height="16">
0,0,0,0,0,0,0,0,0,0,0,0,0,0,0,0,
0,0,0,0,0,0,0,0,0,0,0,0,0,0,0,0,
0,0,0,0,0,0,0,0,0,0,0,0,0,0,0,0,
0,0,0,0,0,0,0,0,0,0,0,0,0,0,0,0,
0,0,0,0,0,0,0,0,0,0,0,0,0,0,0,0,
0,0,0,0,0,0,0,0,0,0,0,0,0,0,0,0,
0,0,1730,1788,1788,1788,1788,1788,1788,1788,1788,1788,1788,1788,1788,1788,
1788,1788,1789,0,0,0,0,0,0,0,0,0,0,0,0,0,
0,0,0,0,0,0,0,0,0,0,0,0,0,0,0,0,
0,0,0,0,1727,1728,1728,1728,1728,1728,1728,1728,1728,1728,1728,1728,
1727,1728,1728,1728,1761,0,0,0,0,0,0,0,0,0,0,0,
1761,0,0,0,0,0,0,0,0,0,0,0,0,0,0,0,
0,0,0,0,0,0,0,0,0,0,0,0,0,0,0,0,
0,0,0,0,0,0,0,0,0,0,0,0,0,0,0,0,
0,0,0,0,0,0,0,0,0,0,0,0,0,0,0,0,
0,0,0,0,0,0,0,0,0,0,0,0,0,0,0,0
</chunk>
   <chunk x="-96" y="64" width="16" height="16">
0,0,0,0,0,0,0,0,0,0,0,0,1730,1789,0,0,
0,0,0,0,0,0,0,0,0,0,0,1730,1789,0,0,0,
0,0,0,0,0,0,0,0,0,0,1730,1789,0,0,0,0,
0,0,0,0,0,0,0,0,1730,1788,1789,0,0,0,0,1727,
0,0,0,0,0,1730,1788,1788,1789,0,0,0,0,1727,1728,1761,
0,1730,1788,1788,1788,1789,0,0,0,0,0,0,1727,1761,0,0,
1788,1789,0,0,0,0,0,0,0,0,0,1727,1761,0,0,0,
0,0,0,0,0,0,0,0,1727,1728,1728,1761,0,0,0,0,
0,0,0,1727,1728,1728,1728,1728,1761,0,0,0,0,0,0,0,
1728,1728,1728,1761,0,0,0,0,0,0,0,0,0,0,0,0,
0,0,0,0,0,0,0,0,0,0,0,0,0,0,0,0,
0,0,0,0,0,0,0,0,0,0,0,0,0,0,0,0,
0,0,0,0,0,0,0,0,0,0,0,0,0,0,0,0,
0,0,0,0,0,0,0,0,0,0,0,0,0,0,0,0,
0,0,0,0,0,0,0,0,0,0,0,0,0,0,0,0,
0,0,0,0,0,0,0,0,0,0,0,0,0,0,0,0
</chunk>
   <chunk x="-80" y="64" width="16" height="16">
0,0,1727,1728,1728,1728,1728,1728,1761,0,21,0,0,0,0,0,
0,1727,1761,0,0,0,0,0,0,0,21,0,0,0,0,0,
1727,1761,0,0,0,0,0,0,0,0,21,0,0,0,0,0,
1761,0,0,0,0,0,0,0,0,0,21,0,0,0,0,0,
0,0,0,0,0,0,0,0,0,0,21,0,0,0,0,0,
0,0,0,0,0,0,0,0,0,0,21,0,0,0,0,0,
0,0,0,0,0,0,0,0,0,0,135,0,0,0,0,0,
0,0,0,0,0,0,0,0,0,0,0,0,0,0,0,0,
0,0,0,0,0,0,0,0,0,0,0,0,0,0,0,0,
0,0,0,0,0,0,0,0,0,0,0,0,0,0,0,0,
0,0,0,0,0,0,0,0,0,0,0,0,0,0,0,0,
0,0,0,0,0,0,0,0,0,0,0,0,0,0,0,0,
0,0,0,0,0,0,0,0,0,0,0,0,0,0,0,0,
0,0,0,0,0,0,0,0,0,0,0,0,0,0,0,0,
0,0,0,0,0,0,0,0,0,0,0,0,0,0,0,0,
0,0,0,0,0,0,0,0,0,0,0,0,0,0,0,0
</chunk>
   <chunk x="-16" y="64" width="16" height="16">
0,0,0,0,0,0,0,0,0,0,0,0,0,4956,4957,0,
0,0,0,0,0,0,0,0,0,0,0,0,0,0,0,0,
0,0,0,0,0,0,0,0,0,0,0,0,0,0,0,0,
0,0,0,0,0,0,0,0,0,0,0,0,0,0,0,0,
0,0,0,0,0,0,0,0,0,0,0,0,0,0,0,0,
0,0,0,0,0,0,0,0,0,0,0,0,0,0,0,0,
0,0,0,0,0,0,0,0,0,0,0,0,0,0,0,0,
0,0,0,0,0,0,0,0,0,0,0,0,0,0,0,0,
0,0,0,0,0,0,0,0,0,0,0,0,0,0,0,0,
0,0,0,0,0,0,0,0,0,0,0,0,0,0,0,0,
0,0,0,0,0,0,0,0,0,0,0,0,0,0,0,0,
0,0,0,0,0,0,0,0,0,0,0,0,0,0,0,0,
0,0,0,0,0,0,0,0,0,0,0,0,0,0,0,0,
0,0,0,0,0,0,0,0,0,0,0,0,0,0,0,0,
0,0,0,0,0,0,0,0,0,0,0,0,0,0,0,0,
0,0,0,0,0,0,0,0,0,0,0,0,0,0,0,0
</chunk>
   <chunk x="0" y="64" width="16" height="16">
0,0,0,0,0,0,0,0,0,0,0,0,0,0,4873,4874,
0,0,0,0,0,0,0,0,0,0,0,0,0,0,4894,4895,
0,0,0,0,0,0,0,0,0,0,0,0,0,0,4915,4916,
0,0,0,0,0,0,0,0,0,0,0,0,0,0,0,0,
0,0,0,0,0,0,0,0,0,0,0,0,0,0,0,0,
0,0,0,0,0,0,0,0,0,0,0,0,0,0,0,0,
0,0,0,0,0,0,0,0,0,0,0,0,0,0,0,0,
0,0,0,0,0,0,0,0,0,0,0,0,0,0,0,0,
0,0,0,0,0,0,0,0,0,0,0,0,0,0,0,0,
0,0,0,0,0,0,0,0,0,0,0,0,0,0,0,0,
0,0,0,0,0,0,0,0,0,0,0,0,0,0,0,0,
0,0,0,0,0,0,0,0,0,0,0,0,0,0,0,0,
0,0,0,0,0,0,0,0,0,0,0,0,0,0,0,0,
0,0,0,0,0,0,0,0,0,0,0,0,0,0,0,0,
0,0,0,0,0,0,0,0,0,0,0,0,0,0,0,0,
0,0,0,0,0,0,0,0,0,0,0,0,0,0,0,0
</chunk>
   <chunk x="16" y="64" width="16" height="16">
4875,0,0,0,0,0,0,0,0,0,0,0,0,0,0,0,
4896,0,0,0,0,0,0,0,0,4935,4936,0,0,0,0,0,
4917,0,0,0,0,0,0,0,0,4956,4957,0,0,0,0,0,
0,0,0,0,0,0,0,0,0,0,0,0,0,0,0,0,
0,0,0,0,0,0,0,0,0,0,0,0,0,0,0,0,
0,0,0,0,0,0,0,0,0,0,0,0,0,0,0,0,
0,0,0,0,0,0,0,0,0,0,0,0,0,0,0,0,
0,0,0,0,0,0,0,0,0,0,0,0,0,0,0,0,
0,0,0,0,0,0,0,0,0,0,0,0,0,0,0,0,
0,0,0,0,0,0,0,0,0,0,0,0,0,0,0,0,
0,0,0,0,0,0,0,0,0,0,0,0,0,0,0,0,
0,0,0,0,0,0,0,0,0,0,0,0,0,0,0,0,
0,0,0,0,0,0,0,0,0,0,0,0,0,0,0,0,
0,0,0,0,0,0,0,0,0,0,0,0,0,0,0,0,
0,0,0,0,0,0,0,0,0,0,0,0,0,0,0,0,
0,0,0,0,0,0,0,0,0,0,0,0,0,0,0,0
</chunk>
   <chunk x="48" y="64" width="16" height="16">
0,0,0,0,0,0,0,0,0,0,0,0,0,0,0,0,
0,0,0,0,0,0,0,0,0,0,0,0,0,0,0,0,
4935,4936,4936,0,0,0,0,0,0,0,0,0,0,0,0,0,
4956,4957,4957,0,0,0,0,0,0,0,0,0,0,0,0,0,
0,0,0,0,0,0,0,0,4797,4798,0,0,0,0,0,0,
0,0,0,0,0,0,0,0,0,0,0,0,0,0,0,0,
0,0,0,0,0,0,0,0,0,0,0,0,0,0,0,0,
0,0,0,0,0,0,0,0,0,0,0,0,0,0,0,0,
0,0,0,0,0,0,0,0,0,0,0,0,0,0,0,0,
0,0,0,0,0,0,0,0,0,0,0,0,0,0,0,0,
0,0,0,0,0,0,0,0,0,0,0,0,0,0,0,0,
0,0,0,0,0,0,0,0,0,0,0,0,0,0,0,0,
0,0,0,0,0,0,0,0,0,0,0,0,0,0,0,0,
0,0,0,0,0,0,0,0,0,0,0,0,0,0,0,0,
0,0,0,0,0,0,0,0,0,0,0,0,0,0,0,0,
0,0,0,0,0,0,0,0,0,0,0,0,0,0,0,0
</chunk>
   <chunk x="64" y="64" width="16" height="16">
4956,4935,4936,0,0,0,0,0,0,0,0,0,0,0,0,0,
0,4956,4957,0,0,0,0,0,0,0,0,0,0,0,0,0,
0,0,0,0,0,0,0,0,0,0,0,0,0,0,0,0,
0,0,0,0,0,0,0,0,0,0,0,0,0,0,0,0,
0,0,0,0,0,0,0,0,0,0,0,0,0,0,0,0,
0,0,0,0,0,0,0,0,0,0,0,0,0,0,0,0,
0,0,0,0,0,0,0,0,0,0,0,0,0,0,0,0,
0,0,0,0,0,0,0,0,0,0,0,0,0,0,0,0,
0,0,0,0,0,0,0,0,0,0,0,0,0,0,0,0,
0,0,0,0,0,0,0,0,0,0,0,0,0,0,0,0,
0,0,0,0,0,0,0,0,0,0,0,0,0,0,0,0,
0,0,0,0,0,0,0,0,0,0,0,0,0,0,0,0,
0,0,0,0,0,0,0,0,0,0,0,0,0,0,0,0,
0,0,0,0,0,0,0,0,0,0,0,0,0,0,0,0,
0,0,0,0,0,0,0,0,0,0,0,0,0,0,0,0,
0,0,0,0,0,0,0,0,0,0,0,0,0,0,0,0
</chunk>
  </data>
 </layer>
 <layer id="21" name="Orman parçaları" width="30" height="20">
  <data encoding="csv">
   <chunk x="-64" y="-48" width="16" height="16">
0,0,0,0,0,0,0,0,0,0,0,0,0,0,0,0,
0,0,0,0,0,0,0,0,0,0,0,0,0,0,0,0,
0,0,0,0,0,0,0,0,0,0,0,0,0,0,0,0,
0,0,0,0,0,0,0,0,0,0,0,0,0,0,0,0,
0,0,0,0,0,0,0,0,0,0,0,0,0,0,0,0,
0,0,0,0,0,0,0,0,0,0,0,0,0,0,0,0,
0,0,0,0,0,0,0,0,0,0,0,0,0,0,0,0,
0,0,0,0,0,0,0,0,0,0,0,0,0,0,0,0,
0,0,0,0,0,0,0,0,0,0,0,0,0,0,0,0,
0,0,0,0,0,0,0,0,0,0,0,0,0,0,0,0,
0,0,0,0,0,0,0,0,0,0,0,0,0,0,0,0,
0,0,0,0,0,0,0,0,0,0,0,0,0,0,0,8296,
0,0,0,0,0,0,0,0,0,0,0,0,0,0,0,8328,
0,0,0,0,0,0,0,0,0,0,0,0,0,0,0,8360,
0,0,0,0,0,0,0,0,0,0,0,0,0,0,0,8392,
0,0,0,0,0,0,0,0,0,0,0,0,0,0,0,8424
</chunk>
   <chunk x="-48" y="-48" width="16" height="16">
0,0,0,0,0,0,0,0,0,0,0,0,0,0,0,0,
0,0,0,0,0,0,0,0,0,0,0,0,0,0,0,0,
0,0,0,0,0,0,0,0,0,0,0,0,0,0,0,0,
0,0,0,0,0,0,0,0,0,0,0,0,0,0,0,0,
0,0,0,0,0,0,0,0,0,0,0,0,0,0,0,0,
0,0,0,0,0,0,0,0,0,0,0,0,0,0,0,0,
0,0,0,0,0,0,0,0,0,0,0,0,0,0,0,0,
0,0,0,0,0,0,0,0,0,0,0,0,0,0,0,0,
0,0,0,0,0,0,0,0,0,0,0,0,0,0,0,0,
0,0,0,0,0,0,0,0,0,0,0,0,0,0,0,0,
0,0,8267,8268,8269,0,0,0,0,0,0,0,0,0,0,0,
8297,8298,8299,8300,8301,8302,0,0,0,0,0,0,0,0,0,0,
8329,8330,8331,8332,8333,8334,0,0,0,0,0,0,0,0,0,0,
8361,8362,8363,8364,8365,8366,0,0,0,0,0,0,0,0,0,0,
8393,8394,8395,8396,8397,8398,0,0,0,0,0,0,0,0,0,0,
8425,8426,8427,8428,8429,8430,0,0,0,0,0,0,0,0,0,0
</chunk>
   <chunk x="-80" y="-32" width="16" height="16">
0,0,0,0,0,0,0,0,0,0,0,0,0,0,0,0,
0,0,0,0,0,0,0,0,0,0,0,0,0,0,0,0,
0,0,0,0,0,0,0,0,0,0,0,0,0,0,0,0,
0,0,0,0,0,0,0,0,0,0,0,0,0,0,0,0,
0,0,0,0,0,0,0,0,0,0,0,0,0,0,0,0,
0,0,0,0,0,0,0,0,0,0,0,0,0,0,0,0,
0,0,0,0,0,0,0,0,0,0,0,0,0,0,0,0,
0,0,0,0,0,0,0,0,0,0,0,0,0,0,0,0,
0,0,0,0,0,0,0,0,0,0,0,0,0,0,0,0,
0,0,0,0,0,0,0,0,0,0,0,0,0,0,0,0,
0,0,0,0,0,0,0,0,0,0,0,0,0,0,0,0,
0,0,0,0,0,0,0,0,0,0,0,0,0,0,0,0,
0,0,0,0,0,0,0,0,0,0,0,0,0,0,0,0,
0,0,0,0,0,0,0,0,0,0,0,0,0,0,0,0,
0,0,0,0,0,0,0,0,0,0,0,249,249,250,0,0,
0,0,0,0,0,0,0,0,0,0,0,0,252,269,0,0
</chunk>
   <chunk x="-64" y="-32" width="16" height="16">
0,0,0,0,0,0,0,0,0,0,0,0,0,0,0,8456,
0,0,0,0,0,0,0,0,0,0,0,0,0,0,0,0,
0,0,0,0,0,0,0,0,0,0,0,0,0,0,0,0,
0,0,0,0,0,0,0,0,0,0,0,0,0,0,0,0,
0,0,0,0,0,0,0,0,0,0,0,0,0,0,0,0,
0,0,0,0,0,0,0,0,0,0,0,0,0,0,0,0,
0,0,0,0,0,0,0,0,0,0,0,0,0,0,0,0,
0,0,0,0,0,0,0,0,0,0,0,0,0,0,0,0,
0,0,0,0,0,0,0,0,0,0,0,0,0,0,0,0,
0,0,0,0,0,0,0,0,0,0,0,0,0,0,0,0,
0,0,0,0,0,0,0,0,0,0,0,0,0,0,0,0,
0,0,0,0,0,0,0,0,0,0,0,0,0,0,0,0,
0,0,0,0,0,0,0,0,0,0,0,0,0,0,0,0,
0,0,0,0,0,0,0,0,0,0,0,0,0,0,0,0,
0,0,0,0,0,0,0,0,0,0,0,0,0,0,0,0,
0,0,0,0,0,0,0,0,0,0,0,0,0,0,0,0
</chunk>
   <chunk x="-48" y="-32" width="16" height="16">
8457,8458,8459,8460,8461,8462,0,0,0,0,0,0,0,0,0,0,
0,0,0,0,0,0,0,0,0,0,0,0,0,0,0,0,
0,0,0,0,0,0,0,0,0,0,0,0,0,0,0,0,
0,0,0,0,0,0,0,0,0,0,0,0,0,0,0,0,
0,0,0,0,0,0,0,0,0,0,0,0,0,0,0,0,
0,0,0,0,0,0,0,0,0,0,0,0,0,0,0,0,
0,0,0,0,0,0,0,0,0,0,0,0,0,0,0,0,
0,0,0,0,0,0,0,0,0,0,0,0,0,0,0,0,
0,0,0,0,0,0,0,0,0,0,0,0,0,0,0,0,
0,0,0,0,0,0,0,0,0,0,0,0,0,0,0,0,
0,0,0,0,0,0,0,0,0,0,0,0,0,0,0,0,
0,0,0,0,0,0,0,0,0,0,0,0,0,0,0,0,
0,0,0,0,0,0,0,0,0,0,0,0,0,0,0,0,
0,0,0,0,0,0,0,0,0,0,0,0,0,0,0,0,
0,0,0,0,0,0,0,0,0,0,0,0,0,0,0,0,
0,0,0,0,0,0,0,0,0,0,0,0,0,0,0,0
</chunk>
   <chunk x="-16" y="-32" width="16" height="16">
0,0,0,0,0,0,0,0,0,0,0,0,0,0,0,0,
0,0,0,0,0,0,0,0,0,0,0,0,0,0,0,0,
0,0,0,0,0,0,0,0,0,0,0,0,0,0,0,0,
0,0,0,0,0,0,0,0,0,0,0,0,0,0,0,0,
0,0,0,0,0,0,0,0,0,0,0,0,0,0,0,0,
0,0,0,0,0,0,0,0,0,0,0,0,0,0,0,0,
0,0,0,0,0,0,0,0,0,0,0,0,0,0,0,0,
0,0,0,0,0,0,0,0,0,0,0,0,0,0,0,0,
0,0,0,0,0,0,0,0,0,0,0,0,0,0,0,0,
0,0,0,0,0,0,0,0,0,0,0,0,0,0,0,0,
0,0,0,0,0,0,0,0,0,0,0,0,0,0,0,0,
0,0,0,0,0,0,0,0,0,0,0,0,0,0,0,0,
0,0,0,0,0,0,0,0,0,0,0,0,0,0,0,0,
0,0,0,0,0,0,0,0,0,0,0,0,0,0,8431,8432,
0,0,0,0,0,0,0,0,0,0,0,0,0,0,8463,8464,
0,0,0,0,0,0,0,0,0,0,0,0,0,0,0,0
</chunk>
   <chunk x="0" y="-32" width="16" height="16">
0,0,0,0,0,0,0,0,0,0,0,0,0,0,0,0,
0,0,0,0,0,0,0,0,0,0,0,0,0,0,0,0,
0,0,0,0,0,0,0,0,0,0,0,0,0,0,0,0,
0,0,0,0,0,0,0,0,0,0,0,0,0,0,0,0,
0,0,0,0,0,0,0,0,0,0,0,0,0,0,0,0,
0,0,0,0,0,0,0,0,0,0,0,0,0,0,0,0,
0,0,0,0,0,0,0,0,0,0,0,0,0,0,0,0,
0,0,0,0,0,0,0,0,0,0,0,0,0,0,0,0,
0,0,0,0,0,0,0,0,0,0,0,0,0,0,0,0,
0,0,0,0,0,0,0,0,0,0,0,0,0,0,0,0,
0,0,0,0,0,0,0,0,0,0,0,0,0,0,0,0,
0,0,0,0,0,0,0,0,0,0,0,0,0,0,0,0,
0,0,0,0,0,0,0,0,0,0,0,0,0,0,0,0,
0,0,0,0,0,0,0,0,0,0,0,0,0,0,0,0,
0,0,0,0,0,0,0,0,0,0,0,0,0,0,0,0,
0,8434,8435,0,0,0,0,0,0,0,0,0,0,0,0,0
</chunk>
   <chunk x="32" y="-32" width="16" height="16">
0,0,0,0,0,0,0,0,0,0,0,0,0,0,0,0,
0,0,0,0,0,0,0,0,0,0,0,0,0,0,0,0,
0,0,0,0,0,0,0,0,0,0,0,0,0,0,0,0,
0,0,0,0,0,0,0,0,0,0,0,0,0,0,0,0,
0,0,0,0,0,0,0,0,0,0,0,0,0,0,0,0,
0,0,0,0,0,0,0,0,0,0,0,0,0,0,0,0,
0,0,0,0,0,0,0,0,0,0,0,0,0,0,0,0,
0,0,0,0,0,0,0,0,0,0,0,0,0,0,0,0,
0,0,0,0,0,0,0,0,0,0,0,0,0,0,0,0,
0,0,0,0,0,0,0,0,0,0,0,0,0,0,0,0,
0,0,0,0,0,0,0,0,0,0,0,0,0,0,0,0,
0,0,0,0,0,0,0,0,0,0,0,0,0,0,0,0,
0,0,0,0,0,0,0,0,0,0,0,0,0,0,0,0,
0,0,0,0,0,0,0,0,0,0,0,0,0,0,0,0,
0,0,0,0,0,0,0,0,0,8174,8175,8176,0,0,0,0,
0,0,0,0,0,0,0,0,0,8206,8207,8208,0,0,0,0
</chunk>
   <chunk x="48" y="-32" width="16" height="16">
0,0,0,0,0,0,0,0,0,0,0,0,0,0,0,0,
0,0,0,0,0,0,0,0,0,0,0,0,0,0,0,0,
0,0,0,0,0,0,0,0,0,0,0,0,0,0,0,0,
0,0,0,0,0,0,0,0,0,0,0,0,0,0,0,0,
0,0,0,0,0,0,0,0,0,0,0,0,0,0,0,0,
0,0,0,0,0,0,0,0,0,0,0,0,0,0,0,0,
0,0,0,0,0,0,0,0,0,0,0,0,0,0,0,0,
0,0,0,0,0,0,0,0,7902,7903,7904,7905,0,0,0,0,
0,0,0,0,0,0,0,0,7934,7935,7936,7937,0,0,0,0,
0,0,0,0,0,0,0,0,7966,7967,7968,7969,0,0,0,0,
0,0,0,0,0,0,0,0,7998,7999,8000,8001,0,0,0,0,
0,0,0,0,0,0,0,0,8030,8031,8032,8033,8124,0,0,0,
0,0,0,0,0,8058,8059,8060,0,0,0,0,0,0,0,0,
0,0,0,0,0,8090,8091,8092,0,0,0,0,0,0,0,0,
0,0,0,0,0,0,0,0,0,0,0,0,0,0,0,0,
0,0,0,0,0,0,0,0,0,0,0,0,0,0,0,0
</chunk>
   <chunk x="-80" y="-16" width="16" height="16">
0,0,0,0,0,0,0,0,0,0,0,0,267,269,0,0,
0,0,0,0,0,0,0,0,0,0,0,135,267,269,0,0,
0,0,0,0,0,0,0,0,0,0,0,135,267,269,0,0,
0,0,0,0,0,0,0,0,0,0,0,135,267,269,0,0,
0,0,0,0,0,0,0,0,0,0,0,135,267,269,0,0,
0,0,0,0,0,0,0,0,0,0,0,135,267,269,0,0,
0,0,0,0,0,0,0,0,0,0,0,135,267,269,0,0,
0,0,0,0,0,0,0,0,0,0,0,135,267,269,0,0,
0,0,0,0,0,0,0,0,0,0,0,135,267,269,0,0,
0,0,0,0,0,0,0,0,0,0,0,135,267,269,0,0,
0,0,0,0,0,0,0,0,0,0,0,135,267,269,0,0,
0,0,0,0,0,0,0,0,0,0,0,135,267,269,0,0,
0,0,0,0,0,0,0,0,0,0,0,135,267,269,0,0,
0,0,0,0,0,0,0,0,0,0,0,21,267,269,0,0,
0,0,0,0,0,0,0,0,0,0,0,21,267,269,0,0,
0,0,0,0,0,0,0,0,0,0,0,21,267,269,0,0
</chunk>
   <chunk x="-16" y="-16" width="16" height="16">
0,0,0,0,0,0,0,0,0,0,0,0,0,0,0,0,
0,0,0,0,0,0,0,0,0,0,0,0,0,0,0,0,
0,0,0,0,0,0,0,0,0,0,0,0,0,0,0,0,
0,0,0,0,0,0,0,0,0,0,0,0,0,0,0,0,
0,0,0,0,0,0,0,0,0,0,0,0,0,0,0,0,
0,0,0,0,0,0,0,0,0,0,0,0,0,0,0,0,
0,0,0,0,0,0,0,0,0,0,0,0,0,0,0,0,
0,0,0,0,0,0,0,0,0,0,0,0,0,0,0,0,
0,0,0,0,0,0,0,0,0,0,0,0,0,0,0,0,
0,0,0,0,0,0,0,0,0,0,0,0,0,0,0,0,
0,0,0,0,0,0,0,0,0,0,0,0,0,0,8602,8603,
0,0,0,0,0,0,0,0,0,0,0,0,0,0,8634,8635,
0,0,0,0,0,0,0,0,0,0,0,0,0,174,175,175,
0,0,0,0,0,0,0,0,0,0,0,0,0,243,10,11,
0,0,0,0,0,0,0,0,0,0,0,0,0,243,10,168,
0,0,0,0,0,0,0,0,0,0,0,0,0,243,10,11
</chunk>
   <chunk x="0" y="-16" width="16" height="16">
0,8466,8467,0,0,0,0,0,0,0,0,0,0,0,0,0,
0,0,0,0,0,0,0,0,0,0,0,0,0,0,0,0,
0,0,0,0,0,0,0,0,0,0,0,0,0,0,0,0,
0,7896,7897,7898,7899,7900,0,0,0,0,0,0,0,0,0,0,
0,7928,7929,7930,7931,7932,7933,0,0,0,0,0,0,0,0,0,
0,7960,7961,7962,7963,7964,7965,0,0,0,0,0,0,0,0,0,
0,7992,7993,7994,7995,7996,0,0,0,0,0,0,0,0,0,0,
0,0,8025,8026,8027,8028,0,0,0,0,0,0,0,0,0,0,
8066,8277,8278,8279,0,0,0,0,0,0,0,0,0,0,0,0,
8308,8309,8310,8311,8434,8435,0,0,0,0,0,0,0,0,0,0,
8340,8341,8342,8343,8466,8467,8574,8575,0,0,0,0,0,0,0,0,
8372,8373,8374,8375,0,0,8606,8607,0,0,0,0,0,0,0,0,
175,175,175,175,175,175,175,175,176,0,0,0,0,0,0,0,
10,11,10,11,10,11,10,11,242,0,0,0,0,0,0,0,
169,11,10,11,10,166,10,11,242,0,0,0,0,0,0,0,
10,11,10,166,10,11,10,11,242,0,0,0,0,0,0,0
</chunk>
   <chunk x="32" y="-16" width="16" height="16">
0,0,0,0,0,0,0,0,0,8238,8239,8240,0,0,0,0,
0,0,0,0,0,0,0,0,0,0,0,0,0,0,0,0,
0,0,0,0,0,0,0,0,0,0,0,0,0,0,0,0,
0,0,0,0,0,0,0,0,0,0,0,0,0,0,0,0,
0,0,0,0,0,0,0,0,0,0,0,0,0,0,0,0,
0,0,0,0,0,0,0,0,0,0,0,0,0,0,0,0,
0,0,0,0,0,0,0,0,0,0,0,0,0,0,0,0,
0,0,0,0,0,0,0,0,0,0,0,0,0,0,0,0,
0,0,0,0,0,0,0,0,0,0,0,0,0,0,0,0,
0,0,0,0,0,0,0,0,0,0,0,0,0,0,0,0,
0,0,0,0,0,0,0,0,0,0,0,0,0,0,0,0,
0,0,0,0,0,0,0,0,0,0,0,0,0,0,0,0,
0,0,0,0,0,0,0,0,0,0,0,0,0,0,0,0,
0,0,0,0,0,0,0,0,0,0,0,0,0,0,0,0,
0,0,0,0,0,0,0,0,0,0,0,0,0,0,0,0,
0,0,0,0,0,0,0,0,0,0,0,0,0,0,0,0
</chunk>
   <chunk x="48" y="-16" width="16" height="16">
0,0,0,0,0,0,0,0,0,0,0,0,0,0,0,0,
0,0,0,0,0,0,0,0,0,0,0,0,0,0,0,0,
0,0,0,0,0,0,0,0,0,0,0,0,0,0,0,0,
0,0,0,0,0,0,0,0,0,0,0,0,0,8067,8068,8069,
0,0,0,0,0,0,0,0,0,0,0,0,0,8099,8100,8101,
0,0,0,0,0,0,0,0,0,0,0,0,0,8131,8132,8133,
0,0,0,0,0,0,0,0,0,0,0,0,0,0,0,0,
0,0,0,0,0,0,0,0,0,0,0,0,0,0,0,0,
0,0,0,0,0,0,0,0,0,0,0,0,0,0,0,0,
0,0,0,0,0,0,0,0,0,0,0,0,0,0,0,0,
0,0,0,0,0,0,0,0,0,0,0,0,0,0,0,0,
0,0,0,0,0,0,0,0,0,0,0,0,0,0,0,0,
0,0,0,0,0,0,0,0,0,0,0,0,0,0,0,0,
0,0,0,0,0,0,0,0,0,0,0,0,0,0,0,0,
0,0,0,0,0,0,0,0,0,0,0,0,0,0,0,0,
0,0,0,0,0,0,0,0,0,0,0,0,0,0,0,0
</chunk>
   <chunk x="-80" y="0" width="16" height="16">
0,0,0,0,0,0,0,0,0,0,0,0,267,269,0,0,
0,0,0,0,0,0,0,0,0,0,0,248,271,269,0,0,
0,0,0,0,0,0,0,0,0,0,0,267,268,269,0,0,
0,0,0,0,0,0,0,0,0,0,0,267,268,269,0,0,
0,0,0,0,0,0,0,0,0,0,0,267,268,269,269,0,
0,0,0,0,0,0,0,0,0,0,0,267,268,269,269,0,
0,0,0,0,0,0,0,0,0,0,0,267,268,269,269,0,
0,0,0,0,0,0,0,0,0,0,0,267,268,269,269,0,
0,0,0,0,0,0,0,0,0,0,0,267,2,3,269,0,
0,0,0,0,0,0,0,0,0,0,0,267,48,176,269,0,
0,0,0,0,0,0,0,0,0,0,0,69,70,214,288,0,
0,0,0,0,0,0,0,0,0,0,0,11,10,214,0,0,
0,0,0,0,0,0,0,0,0,0,0,181,123,195,0,0,
0,0,0,0,0,0,0,0,0,0,0,124,0,269,0,0,
0,0,0,0,0,0,0,0,0,0,0,0,0,269,0,0,
0,0,0,0,0,0,0,0,0,0,0,267,268,269,0,0
</chunk>
   <chunk x="-16" y="0" width="16" height="16">
0,0,0,0,0,0,0,0,0,0,0,0,324,68,10,168,
0,0,0,0,0,0,0,0,0,0,0,0,0,122,123,123,
0,0,0,0,0,0,0,0,0,0,0,0,0,0,0,0,
0,0,0,0,0,0,0,0,0,0,0,0,0,0,0,0,
0,0,0,0,0,0,0,0,0,0,0,0,0,0,0,0,
0,0,0,0,0,0,0,0,0,0,0,0,0,0,0,0,
0,0,0,0,0,0,0,0,0,0,0,0,0,0,0,0,
0,0,0,0,0,0,0,0,0,0,0,0,0,0,0,0,
0,0,0,0,0,0,0,0,0,0,0,0,0,0,0,0,
0,0,0,0,0,0,0,0,0,0,0,0,0,0,0,0,
0,0,0,0,0,0,0,0,0,0,0,0,0,0,0,0,
0,0,0,0,0,0,0,0,0,0,0,0,0,0,0,0,
0,0,0,0,0,0,0,0,0,0,0,0,0,0,0,0,
0,0,0,0,0,0,0,0,0,0,0,0,0,0,0,0,
0,0,0,0,0,0,0,0,0,0,0,0,0,0,0,0,
0,0,0,0,0,0,0,0,0,0,0,0,0,0,0,0
</chunk>
   <chunk x="0" y="0" width="16" height="16">
10,11,10,11,10,11,10,11,242,0,0,0,0,0,0,0,
123,123,123,123,123,123,123,123,124,0,0,0,0,0,0,0,
0,0,0,0,0,0,0,0,0,0,0,0,0,0,0,0,
0,0,0,0,0,0,0,0,0,0,0,0,0,0,0,0,
0,0,0,0,0,0,0,0,0,0,0,0,0,0,0,0,
0,0,0,0,0,0,0,0,0,0,0,0,0,0,0,0,
0,0,0,0,0,0,0,0,0,0,0,0,0,0,0,0,
0,0,0,0,0,0,0,0,0,0,0,0,0,0,0,0,
0,0,0,0,0,0,0,0,0,0,0,0,0,0,0,0,
0,0,0,0,0,0,0,0,0,0,0,0,0,0,0,0,
0,0,0,0,0,0,0,0,0,0,0,0,0,0,0,0,
0,0,0,0,0,0,0,0,0,0,0,0,0,0,0,0,
0,0,0,0,0,0,0,0,0,0,0,0,0,0,0,0,
0,0,0,0,0,0,0,0,0,0,0,0,0,0,0,0,
0,0,0,0,0,0,0,0,0,0,0,0,0,0,0,0,
0,0,0,0,0,0,0,0,0,0,0,0,0,0,0,0
</chunk>
   <chunk x="16" y="0" width="16" height="16">
0,0,0,0,0,0,0,0,0,0,0,0,0,0,0,0,
0,0,0,0,0,0,0,0,0,0,0,0,0,0,0,0,
0,0,0,0,0,0,0,0,0,0,0,0,0,0,0,0,
0,0,0,0,0,0,0,0,0,0,0,0,0,0,0,0,
0,0,0,0,0,0,0,0,0,0,0,0,0,0,0,0,
0,0,0,0,0,0,0,0,0,0,0,0,0,0,0,0,
0,0,0,0,0,0,0,0,0,0,0,0,0,0,0,0,
0,0,0,0,0,0,0,0,0,0,0,0,0,0,0,0,
0,0,0,0,0,0,0,0,0,0,0,0,0,0,0,0,
0,0,0,0,0,0,0,0,0,0,0,0,0,0,0,0,
0,0,0,0,0,0,0,0,0,0,0,0,0,0,0,0,
0,0,0,0,0,8954,0,0,0,0,0,0,0,0,0,0,
0,0,0,0,0,0,0,0,0,0,0,0,0,0,0,0,
0,0,0,0,0,0,0,0,0,0,0,0,0,0,0,0,
0,0,0,0,0,0,0,0,0,0,0,0,0,0,0,0,
0,0,0,0,0,0,0,0,0,0,0,0,0,0,0,0
</chunk>
   <chunk x="-80" y="16" width="16" height="16">
0,0,0,0,0,0,0,0,0,0,0,286,252,269,0,0,
0,0,0,0,0,0,0,0,0,0,0,0,267,269,0,0,
0,0,0,0,0,0,0,0,0,0,0,0,267,269,0,0,
0,0,0,0,0,0,0,0,0,0,0,248,271,269,0,0,
0,0,0,0,0,0,0,0,0,0,0,286,252,269,0,0,
0,0,0,0,0,0,0,0,0,0,0,0,267,269,0,0,
0,0,0,0,0,0,0,0,0,0,0,0,267,269,0,0,
0,0,0,0,0,0,0,0,0,0,0,248,271,269,0,0,
0,0,0,0,0,0,0,0,0,0,0,286,252,269,0,0,
0,0,0,0,0,0,0,0,0,0,0,0,267,269,0,0,
0,0,0,0,0,0,0,0,0,0,0,0,267,269,0,0,
0,0,0,0,0,0,0,0,0,0,0,0,267,269,0,0,
0,0,0,0,0,0,0,0,0,0,0,0,267,269,0,0,
0,0,0,0,0,0,0,0,0,0,0,0,267,269,0,0,
0,0,0,0,0,0,0,0,0,0,0,0,267,269,0,0,
0,0,0,0,0,0,0,0,0,0,0,248,271,269,0,0
</chunk>
   <chunk x="0" y="16" width="16" height="16">
0,0,0,0,0,0,0,0,0,0,0,0,0,0,0,0,
0,0,0,0,0,0,0,0,0,0,0,0,0,0,0,0,
0,0,0,0,0,0,0,0,0,0,0,0,0,0,0,0,
0,0,0,0,0,0,0,0,0,0,0,0,0,0,0,0,
0,0,0,0,0,0,0,0,0,0,0,0,0,0,0,0,
0,0,0,0,0,0,0,0,0,0,0,0,0,0,0,0,
0,0,8954,0,0,0,0,0,0,0,0,0,0,0,0,0,
0,0,0,0,0,0,1748,1749,0,0,0,0,0,0,0,0,
0,0,0,0,0,0,0,0,0,0,0,0,0,0,0,0,
0,0,0,0,0,0,0,0,0,0,0,0,0,0,0,0,
0,0,0,0,0,0,0,0,0,0,0,0,0,0,0,0,
0,0,0,0,0,0,0,0,0,0,0,0,0,0,0,0,
0,0,0,0,0,0,0,0,0,0,0,0,0,0,0,0,
0,0,0,0,0,0,0,0,0,0,0,0,0,0,0,0,
0,0,0,0,0,0,0,0,0,0,0,0,0,0,0,0,
0,0,0,0,0,0,0,0,0,0,0,0,0,0,0,0
</chunk>
   <chunk x="16" y="16" width="16" height="16">
0,0,0,0,0,0,0,0,0,0,0,0,0,0,0,0,
0,0,0,0,0,0,0,0,0,0,0,0,0,0,0,0,
0,0,8954,0,0,0,0,0,0,0,0,0,0,0,0,0,
0,0,0,0,0,0,0,0,0,0,0,0,0,0,0,0,
0,0,0,0,0,0,0,0,0,0,0,0,0,0,0,0,
0,0,0,0,0,0,0,0,0,0,0,0,0,0,0,0,
0,0,0,0,0,0,0,0,0,0,0,0,0,0,0,0,
0,0,0,0,0,0,0,0,0,0,0,0,0,0,0,0,
0,0,0,0,0,0,0,0,0,0,0,0,0,0,0,0,
0,0,0,0,0,0,0,0,0,0,0,0,0,0,0,0,
0,0,0,0,0,0,0,0,0,0,0,0,0,0,0,0,
0,0,0,0,0,0,0,0,0,0,0,0,0,0,0,0,
0,0,0,0,0,0,0,0,0,0,0,0,0,0,0,0,
0,0,0,0,0,0,0,0,0,0,0,0,0,0,0,0,
0,0,0,0,0,0,0,0,0,0,0,0,0,0,0,0,
0,0,0,0,0,0,0,0,0,0,0,0,0,0,0,0
</chunk>
   <chunk x="-80" y="32" width="16" height="16">
0,0,0,0,0,0,0,0,0,0,0,286,252,269,0,0,
0,0,0,0,0,0,0,0,0,0,0,0,267,269,0,0,
0,0,0,0,0,0,0,0,0,0,0,0,267,269,0,0,
0,0,0,0,0,0,0,0,0,0,0,248,271,269,0,0,
0,0,0,0,0,0,0,0,0,0,0,267,268,269,0,0,
0,0,0,0,0,0,0,0,0,0,0,267,268,269,0,0,
0,0,0,0,0,0,0,0,0,0,0,286,252,269,0,0,
0,0,0,0,0,0,0,0,0,0,0,0,267,269,0,0,
0,0,0,0,0,0,0,0,0,0,0,0,267,269,0,0,
0,0,0,0,0,0,0,0,0,0,0,0,267,269,0,0,
0,0,0,0,0,0,0,0,0,0,0,0,267,269,0,0,
0,0,0,0,0,0,0,0,0,0,0,248,271,269,0,0,
0,0,0,0,0,0,0,0,0,0,0,267,268,269,0,0,
0,0,0,0,0,0,0,0,0,0,0,267,268,269,0,0,
0,0,0,0,0,0,0,0,0,0,0,267,268,269,0,0,
0,0,0,0,0,0,0,0,0,0,0,267,268,269,0,0
</chunk>
   <chunk x="-64" y="32" width="16" height="16">
0,0,0,0,0,0,0,0,0,0,0,0,0,0,0,0,
0,0,0,0,0,0,0,0,0,0,0,0,0,0,0,0,
0,0,0,0,0,0,0,0,0,7896,7897,7898,7899,7900,7901,0,
0,0,0,0,0,0,0,0,0,7928,7929,7930,7931,7932,7933,0,
0,0,0,0,0,0,0,0,0,7960,7961,7962,7963,7964,7965,0,
0,0,0,0,0,0,0,0,0,7992,7993,7994,7995,7996,7997,0,
0,0,0,0,0,0,0,0,0,0,8025,8026,8027,8028,8029,0,
0,0,0,0,0,0,0,0,0,0,0,0,0,0,0,0,
0,0,0,0,0,0,0,0,0,0,0,0,0,0,0,0,
0,0,0,0,0,0,0,0,0,0,0,0,0,0,0,0,
0,0,0,0,0,0,0,0,0,0,0,0,0,0,0,0,
0,0,0,0,0,0,0,0,0,0,0,0,0,0,0,7902,
0,0,0,0,0,0,0,0,0,0,0,0,0,0,0,7934,
0,0,0,0,0,0,0,0,0,0,0,0,0,0,0,7966,
0,0,0,0,0,0,0,0,0,0,0,0,0,8794,8795,7998,
0,0,0,0,0,0,0,0,8128,8129,8574,8575,0,8826,8827,0
</chunk>
   <chunk x="-48" y="32" width="16" height="16">
0,0,0,0,0,0,0,0,0,0,0,0,0,0,0,0,
0,0,0,0,0,0,0,0,0,0,0,0,0,0,0,0,
0,0,0,0,0,0,0,0,0,0,0,0,0,0,0,0,
0,0,0,0,0,0,0,0,0,0,0,0,0,0,0,7879,
0,0,0,0,0,0,0,0,0,0,0,0,0,0,0,7911,
0,0,0,0,0,0,0,0,0,0,0,0,0,0,0,7943,
0,0,0,0,0,0,0,0,0,0,0,0,0,0,0,7975,
0,0,0,0,0,0,0,0,0,0,0,0,0,0,0,8007,
0,0,0,0,0,0,0,0,0,0,0,0,296,0,0,0,
0,0,0,0,0,0,0,0,0,0,0,0,0,0,0,0,
0,0,0,0,0,0,0,0,0,0,294,296,0,0,0,0,
7903,7904,7905,0,0,0,0,0,0,0,0,0,0,0,0,0,
7935,7936,7937,0,0,0,0,0,0,0,0,0,0,0,0,0,
7967,7968,7969,0,0,0,0,0,0,0,0,0,0,0,0,0,
7999,8000,8001,0,0,0,0,0,0,0,0,0,0,0,0,0,
8031,8032,8033,0,0,0,0,0,0,0,0,0,0,0,0,0
</chunk>
   <chunk x="-32" y="32" width="16" height="16">
0,0,0,0,0,0,0,0,0,0,0,0,0,0,0,0,
0,0,0,0,0,0,0,0,0,0,0,0,0,0,0,0,
0,0,0,0,0,0,0,0,0,0,0,0,0,0,0,0,
7880,7881,7882,0,0,0,0,0,0,0,0,0,0,0,0,0,
7912,7913,7914,7915,0,0,0,0,0,0,0,0,0,0,0,0,
7944,7945,7946,7947,0,0,8128,8129,0,0,0,0,0,0,0,0,
7976,7977,7978,7979,0,0,8160,8161,0,0,0,0,0,0,0,0,
8008,8009,8010,8011,0,0,0,0,0,0,0,0,0,0,0,0,
0,0,0,0,0,0,0,0,0,0,0,0,0,0,0,0,
0,0,0,0,0,0,0,0,0,0,0,0,0,0,0,0,
0,0,0,0,0,0,0,0,0,0,0,0,0,0,0,0,
0,0,0,0,0,0,0,0,0,0,0,0,0,0,0,0,
0,0,0,0,0,0,0,0,0,0,0,0,0,0,0,0,
0,0,0,0,0,0,0,0,0,0,0,0,0,0,0,0,
0,0,0,0,0,0,0,0,0,0,0,0,0,0,0,0,
0,0,0,0,0,0,0,0,0,0,256,0,0,0,0,0
</chunk>
   <chunk x="-16" y="32" width="16" height="16">
0,0,0,0,0,0,0,0,0,0,0,0,0,0,0,0,
0,0,0,0,0,0,0,0,0,0,0,0,0,0,0,0,
0,0,0,0,0,0,0,0,0,0,0,0,0,0,0,0,
0,0,0,0,0,0,0,0,0,0,0,0,0,0,0,0,
0,0,0,0,0,0,0,0,0,0,0,0,0,0,0,0,
0,0,0,0,0,0,0,0,0,0,0,0,0,0,0,0,
256,258,0,0,0,0,0,0,0,0,0,0,0,0,0,0,
275,277,0,0,0,0,0,0,0,0,0,0,0,0,0,0,
275,278,258,0,0,0,0,0,0,0,0,0,0,0,0,0,
294,260,277,0,0,0,0,0,0,0,0,0,0,0,0,0,
0,275,277,0,0,0,0,0,0,0,0,0,0,0,0,0,
0,275,277,0,0,0,0,0,0,0,0,0,0,0,0,0,
0,275,277,0,0,0,0,0,0,0,0,0,0,0,0,0,
0,275,277,0,0,0,0,0,0,0,0,0,0,0,0,0,
0,275,277,0,0,0,0,0,0,0,0,256,257,257,257,257,
0,275,278,257,257,258,0,0,256,257,257,279,259,295,295,295
</chunk>
   <chunk x="0" y="32" width="16" height="16">
0,0,0,0,0,0,0,0,0,0,0,0,0,0,0,0,
0,0,0,0,0,0,0,0,0,0,0,0,0,0,0,0,
0,0,0,0,0,0,0,0,0,0,0,0,0,0,0,0,
0,0,0,0,0,0,0,0,0,0,0,0,0,0,0,0,
0,0,0,0,0,0,0,0,0,0,0,0,0,0,0,0,
0,0,0,0,0,0,0,0,0,0,0,0,0,0,0,0,
0,0,0,0,0,0,0,0,0,0,0,0,0,0,0,0,
0,0,0,0,0,0,0,0,0,0,0,0,0,0,0,0,
0,0,0,0,0,0,0,0,0,0,0,0,0,0,0,0,
0,0,0,0,0,0,0,0,0,0,0,0,0,0,0,0,
0,0,0,0,0,0,0,0,0,0,0,0,0,0,0,0,
0,0,0,0,0,0,0,0,0,0,0,0,0,0,0,0,
0,0,7902,7903,7904,7905,0,0,0,0,0,0,0,0,0,0,
0,0,7934,7935,7936,7937,0,0,0,0,0,0,0,0,0,0,
257,258,7966,7967,7968,7969,0,0,0,0,0,0,0,0,0,0,
260,278,7998,7999,8000,8001,0,0,0,0,0,0,0,0,0,0
</chunk>
   <chunk x="-96" y="48" width="16" height="16">
0,0,0,0,0,0,0,0,0,0,0,0,0,0,0,0,
0,0,0,0,0,0,0,0,0,0,0,0,0,0,0,0,
0,0,0,0,0,0,0,0,0,0,0,0,0,0,0,0,
0,0,0,0,0,0,0,0,0,0,0,0,0,0,0,0,
0,0,0,0,0,0,0,0,0,0,0,0,0,0,0,0,
0,0,0,0,0,0,0,166,10,168,169,11,10,11,10,166,
0,0,0,0,0,0,0,166,10,11,10,11,10,166,10,11,
0,0,0,0,0,0,0,166,10,168,10,11,10,11,10,11,
0,0,0,0,0,0,0,123,123,123,123,123,123,123,123,123,
0,0,0,0,0,0,0,0,0,0,0,0,0,0,0,0,
0,0,0,0,0,0,0,0,0,0,0,0,0,0,0,0,
0,0,0,0,0,0,0,0,0,0,0,0,0,0,0,0,
0,0,0,0,0,0,0,0,0,0,0,0,0,0,0,0,
0,0,0,0,0,0,0,0,0,0,0,0,0,0,0,0,
0,0,0,0,0,0,0,0,0,0,0,0,0,0,0,0,
0,0,0,0,0,0,0,0,0,0,0,0,0,0,0,0
</chunk>
   <chunk x="-80" y="48" width="16" height="16">
0,0,0,0,0,0,0,0,0,0,0,267,268,269,0,0,
0,0,0,0,0,0,0,0,0,0,0,267,268,269,0,0,
0,0,0,0,0,0,0,0,0,0,135,271,268,269,0,0,
0,0,0,0,0,0,0,0,0,0,267,268,268,269,0,0,
0,0,0,0,0,0,0,0,0,0,267,268,268,269,0,0,
10,11,10,11,10,11,10,166,10,11,267,268,268,269,0,0,
10,11,10,11,10,166,10,11,10,11,267,251,287,288,0,0,
10,11,10,11,10,11,10,11,10,11,286,288,0,0,0,0,
123,123,12,123,123,123,123,123,123,123,124,0,0,0,0,0,
0,0,0,0,0,0,0,0,0,0,0,0,0,0,0,0,
0,0,0,0,0,0,0,0,0,0,0,0,0,0,0,0,
0,0,0,0,0,0,0,0,0,0,0,0,0,0,0,0,
0,0,0,0,0,0,0,0,0,0,0,0,0,0,0,0,
0,0,0,0,0,0,0,0,0,0,0,0,0,0,0,0,
0,0,0,0,0,0,0,0,0,0,0,0,0,0,0,0,
0,0,0,0,0,0,0,0,0,0,0,0,0,0,0,0
</chunk>
   <chunk x="-64" y="48" width="16" height="16">
0,0,0,0,0,0,0,0,8160,8161,8606,8607,0,0,0,0,
0,0,0,0,0,0,0,0,0,0,0,0,0,0,0,0,
0,0,0,0,0,0,0,0,0,0,0,0,0,0,0,0,
0,0,0,0,0,0,0,0,0,0,0,0,0,0,0,0,
0,0,0,0,0,0,0,0,0,0,0,0,0,0,0,0,
0,0,0,0,0,0,0,0,0,0,0,0,0,0,0,0,
0,0,0,0,0,0,0,0,0,0,0,0,0,0,0,0,
0,0,0,0,0,0,0,0,0,0,0,0,0,0,0,0,
0,0,0,0,0,0,0,0,0,0,0,0,0,0,0,0,
0,0,0,0,0,0,0,0,0,0,0,0,0,0,0,0,
0,0,0,0,0,0,0,0,0,0,0,0,0,0,0,0,
0,0,0,0,0,0,0,0,0,0,0,0,0,0,0,0,
0,0,0,0,0,0,0,0,0,0,0,0,0,0,0,0,
0,0,0,0,0,0,0,0,0,0,0,0,0,0,0,0,
0,0,0,0,0,0,0,0,0,0,0,0,0,0,0,0,
0,0,0,0,0,0,0,0,0,0,0,0,0,0,0,0
</chunk>
   <chunk x="-48" y="48" width="16" height="16">
0,0,0,0,0,0,0,0,0,0,0,0,0,0,0,0,
0,0,0,0,0,0,0,0,0,0,0,0,0,0,0,0,
0,0,0,0,0,0,0,0,0,0,0,0,0,0,0,0,
0,0,0,0,0,0,0,0,0,0,0,0,0,0,0,0,
0,0,0,0,0,0,0,0,0,0,0,0,0,0,0,0,
0,0,0,0,0,0,0,0,0,0,0,0,0,0,0,0,
0,0,0,0,0,0,0,0,0,0,0,0,0,0,0,0,
0,0,0,0,0,0,0,0,0,0,0,0,0,0,0,0,
0,0,0,0,0,0,0,0,0,0,0,0,0,0,0,0,
0,0,0,0,0,0,0,0,0,0,0,0,0,0,0,0,
0,0,0,0,0,0,0,0,0,8252,8253,8254,8255,0,0,0,
0,0,0,0,0,0,0,0,0,8284,8285,8286,8287,0,0,0,
0,0,0,0,0,0,0,0,0,8316,8317,8318,8319,0,0,0,
0,0,0,0,0,0,0,0,0,8348,8349,8350,8351,0,0,0,
0,0,0,0,0,0,0,0,8794,8795,0,0,0,0,0,0,
0,0,0,0,0,0,0,0,8826,8827,0,0,0,0,0,0
</chunk>
   <chunk x="-32" y="48" width="16" height="16">
0,0,0,0,0,0,0,0,0,0,0,0,0,0,0,0,
0,0,0,0,0,0,0,0,0,0,0,0,0,0,0,0,
0,0,0,0,0,0,0,0,0,0,0,0,0,0,0,0,
0,0,0,0,0,0,0,0,0,0,0,0,0,0,0,0,
0,0,0,0,0,0,0,0,0,0,0,0,0,0,0,0,
0,0,0,0,0,0,0,0,0,0,0,0,0,0,0,0,
0,0,0,0,0,0,0,0,0,0,0,0,0,0,0,0,
0,0,0,0,0,0,0,0,0,0,0,0,0,0,0,0,
0,0,0,0,0,0,0,0,0,0,0,0,0,0,0,0,
0,0,0,0,0,0,0,0,0,7884,7885,7886,7887,0,0,0,
0,0,0,0,0,0,0,0,0,7916,7917,7918,7919,0,0,0,
0,0,0,0,0,0,8638,8639,0,7948,7949,7950,7951,0,0,0,
0,0,0,0,0,0,8670,8671,0,7980,7981,7982,7983,0,0,0,
0,8169,8170,8171,8172,8173,0,0,0,8012,8013,8014,8015,0,0,0,
0,8201,8202,8203,8204,8205,0,0,0,0,0,0,0,0,0,0,
0,8233,8234,8235,8236,8237,0,0,0,0,0,0,0,0,0,0
</chunk>
   <chunk x="-16" y="48" width="16" height="16">
0,294,295,295,260,278,257,257,279,259,295,295,296,0,0,0,
0,0,0,0,294,295,295,295,295,296,0,0,0,0,0,0,
0,0,0,0,0,0,0,0,0,0,0,0,0,0,0,0,
0,0,0,0,0,0,0,0,0,0,0,0,0,0,0,0,
0,0,0,0,0,0,0,0,0,0,0,0,0,0,0,0,
0,0,0,0,0,0,0,0,0,0,0,0,0,0,0,0,
0,0,0,0,0,0,0,0,0,0,0,0,0,0,0,0,
0,0,0,0,0,0,0,0,0,0,0,0,0,0,0,0,
0,0,0,0,0,0,0,0,0,0,0,0,0,0,0,0,
0,0,0,0,0,0,0,0,0,0,0,0,0,0,0,0,
0,0,0,0,0,0,0,0,0,0,0,0,0,0,0,0,
0,0,0,0,0,0,0,0,0,0,0,0,0,0,0,0,
0,0,0,0,0,0,0,0,0,0,0,0,0,0,0,0,
0,0,0,0,0,0,0,0,0,0,0,0,0,0,0,0,
0,0,0,0,0,0,0,0,0,0,0,0,0,0,0,0,
0,0,0,0,0,0,0,0,0,0,0,0,0,0,0,0
</chunk>
   <chunk x="0" y="48" width="16" height="16">
294,295,8030,8031,8032,8033,0,0,0,0,0,0,0,0,0,0,
0,0,0,0,0,0,0,0,0,0,0,0,0,0,0,0,
0,275,278,258,0,0,0,0,0,0,0,0,0,0,0,0,
0,294,260,278,258,0,0,0,0,0,0,0,0,0,0,0,
0,0,294,260,278,258,0,0,0,0,0,0,0,0,0,0,
0,0,0,294,260,277,0,0,0,0,0,0,0,0,0,0,
0,0,0,0,275,278,257,258,0,0,0,0,0,0,0,0,
0,0,0,0,294,295,260,278,258,0,0,0,0,0,0,0,
0,0,0,0,0,0,294,260,278,257,258,0,0,0,0,0,
0,0,0,0,0,0,0,294,295,260,277,0,0,0,0,0,
0,0,0,0,0,0,0,0,0,275,278,257,257,257,257,257,
0,0,0,0,0,0,0,0,0,294,295,295,295,295,295,295,
0,0,0,0,0,0,0,0,0,0,0,0,0,0,0,0,
0,0,0,0,0,0,0,0,0,0,0,0,0,0,0,0,
0,0,0,0,0,0,0,0,0,0,0,0,0,0,0,0,
0,0,0,0,0,0,0,0,0,0,0,0,0,0,0,0
</chunk>
   <chunk x="16" y="48" width="16" height="16">
0,0,0,0,0,0,0,0,0,0,0,0,0,0,0,0,
0,0,0,0,0,0,0,0,0,0,0,0,0,0,0,0,
0,0,0,0,0,0,0,0,0,0,0,0,0,0,0,256,
0,0,0,0,0,0,0,0,0,0,0,0,0,0,0,275,
0,0,0,0,0,0,0,0,0,0,0,0,0,0,0,275,
0,0,0,0,0,0,0,0,0,0,0,0,0,0,0,275,
0,0,0,0,0,0,0,0,0,0,0,0,0,0,0,275,
0,0,0,0,0,0,0,0,0,0,0,256,257,257,257,279,
0,0,0,0,0,0,0,0,0,0,256,279,259,295,295,295,
0,0,0,0,256,257,257,257,257,257,279,259,296,0,0,0,
257,257,257,257,279,259,295,295,295,295,295,296,0,0,0,0,
295,295,295,295,295,296,0,0,0,0,0,0,0,0,0,0,
0,0,0,0,0,0,0,0,0,0,0,0,0,0,0,0,
0,0,0,0,0,0,0,0,0,0,0,0,0,0,0,0,
0,0,0,0,0,0,0,0,0,0,0,0,0,0,0,0,
0,0,0,0,0,0,0,0,0,0,0,0,0,0,0,0
</chunk>
   <chunk x="32" y="48" width="16" height="16">
0,0,0,0,0,0,0,0,0,0,0,0,0,0,0,0,
0,0,0,0,0,0,0,0,0,0,0,0,0,0,0,0,
258,0,0,0,0,0,0,0,0,0,0,0,0,0,0,0,
277,0,0,0,0,0,0,0,0,0,0,0,0,0,0,0,
277,0,0,0,0,0,0,0,0,0,0,0,0,0,0,0,
277,0,0,0,0,0,0,0,0,0,0,0,0,0,0,0,
277,0,0,0,0,0,0,0,0,0,0,0,0,0,0,0,
277,0,0,0,0,0,0,0,0,0,0,0,0,0,0,0,
296,0,0,0,0,0,0,0,0,0,0,0,0,0,0,0,
0,0,0,0,0,0,0,0,0,0,0,0,0,0,0,0,
0,0,0,0,0,0,0,0,0,0,0,0,0,0,0,0,
0,0,0,0,0,0,0,0,0,0,0,0,0,0,0,0,
0,0,0,0,0,0,0,0,0,0,0,0,0,0,0,0,
0,0,0,0,0,0,0,0,0,0,0,0,0,0,0,0,
0,0,0,0,0,0,0,0,0,0,0,0,0,0,0,0,
0,0,0,0,0,0,0,0,0,0,0,0,0,0,0,0
</chunk>
   <chunk x="-64" y="64" width="16" height="16">
0,0,0,0,0,0,0,0,0,0,0,0,0,0,0,0,
0,0,0,0,0,0,0,0,0,0,0,0,0,0,0,0,
0,0,0,8174,8175,8176,0,0,0,0,0,0,0,0,0,0,
0,0,0,8206,8207,8208,0,0,0,0,0,0,0,0,0,0,
0,0,0,8238,8239,8240,0,0,0,0,0,0,0,0,0,0,
0,0,0,0,0,0,0,0,0,0,0,0,0,0,0,0,
0,0,0,0,0,0,0,0,0,0,0,0,0,0,0,0,
0,0,0,0,0,0,0,0,0,0,0,0,0,0,0,0,
0,0,0,0,0,0,0,0,0,0,0,0,0,0,0,0,
0,0,0,0,0,0,0,0,0,0,0,0,0,0,0,0,
0,0,0,0,0,0,0,0,0,0,0,0,0,0,0,0,
0,0,0,0,0,0,0,0,0,0,0,0,0,0,0,0,
0,0,0,0,0,0,0,0,0,0,0,0,0,0,0,0,
0,0,0,0,0,0,0,0,0,0,0,0,0,0,0,0,
0,0,0,0,0,0,0,0,0,0,0,0,0,0,0,0,
0,0,0,0,0,0,0,0,0,0,0,0,0,0,0,0
</chunk>
   <chunk x="-48" y="64" width="16" height="16">
0,0,0,0,0,0,0,0,0,0,0,0,0,0,0,0,
0,8256,8257,8258,0,0,0,0,0,0,0,0,0,0,0,0,
0,8288,8289,8290,0,0,0,0,0,0,0,0,8128,8129,0,0,
0,8320,8321,8322,0,0,0,0,0,0,0,0,8160,8161,0,0,
0,0,0,0,0,0,0,0,0,0,0,0,0,0,0,0,
0,0,0,0,0,0,0,0,0,0,0,0,0,0,0,0,
0,0,0,0,0,0,0,0,0,0,0,0,0,0,0,0,
0,0,0,0,0,0,0,0,0,0,0,0,0,0,0,0,
0,0,0,0,0,0,0,0,0,0,0,0,0,0,0,0,
0,0,0,0,0,0,0,0,0,0,0,0,0,0,0,0,
0,0,0,0,0,0,0,0,0,0,0,0,0,0,0,0,
0,0,0,0,0,0,0,0,0,0,0,0,0,0,0,0,
0,0,0,0,0,0,0,0,0,0,0,0,0,0,0,0,
0,0,0,0,0,0,0,0,0,0,0,0,0,0,0,0,
0,0,0,0,0,0,0,0,0,0,0,0,0,0,0,0,
0,0,0,0,0,0,0,0,0,0,0,0,0,0,0,0
</chunk>
  </data>
 </layer>
 <layer id="22" name="Orman parçaları 2" width="30" height="20">
  <data encoding="csv">
   <chunk x="-96" y="-32" width="16" height="16">
0,0,0,0,0,0,0,0,0,0,0,0,0,0,0,0,
0,0,0,0,0,0,0,0,0,0,0,0,0,0,0,0,
0,0,0,0,0,0,0,0,0,0,0,0,0,0,0,0,
0,0,0,0,0,0,0,0,0,0,0,0,0,0,0,0,
0,0,0,0,0,0,0,0,0,0,0,0,0,0,0,0,
0,0,0,0,0,0,0,0,0,0,0,0,0,0,0,0,
0,0,0,0,0,0,0,0,0,0,0,0,0,0,0,0,
0,0,0,0,0,0,0,0,0,0,0,0,0,0,0,0,
0,0,0,0,0,0,0,0,0,0,0,0,0,0,0,0,
0,0,0,0,0,0,0,0,0,0,0,0,0,0,0,0,
0,0,0,0,0,0,0,0,0,0,0,0,0,0,0,0,
0,0,0,0,0,0,0,0,0,0,0,0,0,0,0,0,
0,0,0,0,0,0,0,0,0,0,0,0,0,0,0,0,
0,0,0,0,0,0,0,0,0,0,0,0,0,0,0,0,
0,0,0,0,0,0,0,0,0,0,0,0,0,0,0,0,
0,0,0,0,0,0,1,2,2,2,2,2,2,2,2,2
</chunk>
   <chunk x="-80" y="-32" width="16" height="16">
0,0,0,0,0,0,0,0,0,0,0,0,0,0,0,0,
0,0,0,0,0,0,0,0,0,0,0,0,0,0,0,0,
0,0,0,0,0,0,0,0,0,0,0,0,0,0,0,0,
0,0,0,0,0,0,0,0,0,0,0,0,0,0,0,0,
0,0,0,0,0,0,0,0,0,0,0,0,0,0,0,0,
0,0,0,0,0,0,0,0,0,0,0,0,0,0,0,0,
0,0,0,0,0,0,0,0,0,0,0,0,0,0,0,0,
0,0,0,0,0,0,0,0,0,0,0,0,0,0,0,0,
0,0,0,0,0,0,0,0,0,0,0,0,0,0,0,0,
0,0,0,0,0,0,0,0,0,0,0,0,0,0,0,0,
0,0,0,0,0,0,0,0,0,0,0,0,0,0,0,0,
0,0,0,0,0,0,0,0,0,0,0,0,0,0,0,0,
0,0,0,0,0,0,0,0,0,0,0,0,0,0,0,0,
0,0,0,0,0,0,0,0,0,0,0,0,0,0,0,0,
0,0,0,0,0,0,0,0,0,0,0,0,0,0,0,0,
2,2,2,2,2,2,2,2,2,2,2,2,3,0,0,0
</chunk>
   <chunk x="48" y="-32" width="16" height="16">
0,0,0,0,0,0,0,0,0,0,0,0,0,0,0,0,
0,0,0,0,0,0,0,0,0,0,0,0,0,0,0,0,
0,0,0,0,0,0,0,0,0,0,0,0,0,0,0,0,
0,0,0,0,0,0,0,0,0,0,0,0,0,0,0,0,
0,0,0,0,0,0,0,0,0,0,0,0,0,0,0,0,
0,0,0,0,0,0,0,0,0,0,0,0,0,0,0,0,
0,0,0,0,0,0,0,0,0,0,0,0,0,0,0,0,
0,0,0,0,0,0,0,0,0,0,0,0,0,0,0,0,
0,0,0,0,0,0,0,0,0,0,0,0,0,0,0,0,
0,0,0,0,0,0,0,0,0,0,0,0,0,0,0,0,
0,0,0,0,0,0,0,0,0,0,8061,8062,8063,0,0,0,
0,0,0,0,0,0,0,0,0,0,8093,8094,8095,0,0,0,
0,0,0,0,0,0,0,0,0,0,8125,8126,8127,0,0,0,
0,0,0,0,0,0,0,0,0,0,8157,8158,8159,0,0,0,
0,0,0,0,0,0,0,0,0,0,0,0,0,0,0,0,
0,0,0,0,0,0,0,0,0,0,0,0,0,0,0,0
</chunk>
   <chunk x="-96" y="-16" width="16" height="16">
0,0,0,0,0,0,20,8002,8003,21,21,4949,4950,21,21,21,
0,0,0,0,0,0,20,8034,8035,21,21,4970,4971,21,21,21,
0,0,0,0,0,0,20,21,21,21,21,21,4635,21,21,21,
0,0,0,0,0,0,20,21,21,21,21,21,4656,8717,8718,21,
0,0,0,0,0,0,20,21,4635,21,21,21,21,8749,8750,21,
0,0,0,0,0,0,20,4888,4889,21,21,21,21,21,21,21,
0,0,0,0,0,0,20,4909,4910,21,21,21,21,21,21,21,
0,0,0,0,0,0,20,21,21,4635,21,21,21,21,21,4876,
0,0,0,0,0,0,20,21,21,4656,21,8002,8003,21,21,4897,
0,0,0,0,0,0,20,21,21,21,21,8034,8035,21,21,4918,
0,0,0,0,0,0,20,21,21,21,21,21,21,21,21,21,
0,0,0,0,0,0,20,21,21,21,21,21,21,21,21,21,
0,0,0,0,0,0,20,21,21,21,21,4635,21,21,21,21,
0,0,0,0,0,0,20,21,21,21,21,4930,4931,21,21,4850,
0,0,0,0,0,0,20,21,21,21,21,4951,4952,21,21,4871,
0,0,0,0,0,0,20,21,4858,4859,21,21,21,21,21,4892
</chunk>
   <chunk x="-80" y="-16" width="16" height="16">
21,21,21,21,21,21,21,21,21,21,21,21,22,0,0,0,
21,21,21,21,21,21,21,21,21,21,21,4635,22,0,0,0,
21,21,21,21,21,21,21,21,21,21,21,4656,22,0,0,0,
21,21,21,21,21,21,21,21,21,21,21,21,22,0,0,0,
21,21,21,21,21,21,21,21,21,21,21,21,22,0,0,0,
21,21,21,21,21,21,21,21,4635,21,21,21,22,0,0,0,
21,21,21,4858,4859,21,21,21,4656,21,21,21,22,0,0,0,
4877,21,21,4879,4880,21,21,21,21,21,21,21,22,0,0,0,
4898,21,21,4900,4901,21,21,21,8124,21,21,21,22,0,0,0,
4919,21,4848,4849,21,21,21,21,21,21,21,4635,22,0,0,0,
21,21,4869,4870,21,21,21,21,21,21,21,4656,22,0,0,0,
21,21,21,21,21,4949,4950,21,21,21,21,21,22,0,0,0,
21,21,21,21,21,4970,4971,21,21,21,21,21,22,0,0,0,
4851,21,21,21,21,21,21,21,21,21,8188,8189,22,0,0,0,
4872,21,21,21,8434,8435,21,21,4863,4864,8220,8221,22,0,0,0,
4893,21,21,21,8466,8467,21,21,4884,4885,21,21,22,0,0,0
</chunk>
   <chunk x="-16" y="-16" width="16" height="16">
0,0,0,0,0,0,0,0,0,0,0,0,0,0,0,0,
0,0,0,0,0,0,0,0,0,0,0,0,0,0,0,0,
0,0,0,0,0,0,0,0,0,0,0,0,0,0,0,0,
0,0,0,0,0,0,0,0,0,0,0,0,0,0,0,0,
0,0,0,0,0,0,0,0,0,0,0,0,0,0,0,0,
0,0,0,0,0,0,0,0,0,0,0,0,0,0,0,0,
0,0,0,0,0,0,0,0,0,0,0,0,0,0,0,0,
0,0,0,0,0,0,0,0,0,0,0,0,0,0,0,0,
0,0,0,0,0,0,0,0,0,0,0,0,0,0,0,0,
0,0,0,0,0,0,0,0,0,0,0,0,0,0,0,0,
0,0,0,0,0,0,0,0,0,0,0,0,0,0,0,0,
0,0,0,0,0,0,0,0,0,0,0,0,0,0,0,0,
0,0,0,0,0,0,0,0,0,0,0,0,174,175,0,0,
0,0,0,0,0,0,0,0,0,0,0,0,212,213,0,0,
0,0,0,0,0,0,0,0,0,0,0,0,212,213,0,0,
0,0,0,0,0,0,0,0,0,0,0,0,231,213,0,0
</chunk>
   <chunk x="0" y="-16" width="16" height="16">
0,0,0,0,0,0,0,0,0,0,0,0,0,0,0,0,
0,0,0,0,0,0,0,0,0,0,0,0,0,0,0,0,
0,0,0,0,0,0,0,0,0,0,0,0,0,0,0,0,
0,0,0,0,0,0,0,0,0,0,0,0,0,0,0,0,
0,0,0,0,0,0,0,0,0,0,0,0,0,0,0,0,
0,0,0,0,0,0,0,0,0,0,0,0,0,0,0,0,
0,0,0,0,0,0,0,0,0,0,0,0,0,0,0,0,
0,0,0,0,0,0,0,0,0,0,0,0,0,0,0,0,
0,0,0,0,0,0,0,0,0,0,0,0,0,0,0,0,
0,0,0,0,0,0,0,0,0,0,0,0,0,0,0,0,
0,0,0,0,0,0,0,0,0,0,0,0,0,0,0,0,
0,0,0,0,0,0,0,0,0,0,0,0,0,0,0,0,
0,0,0,0,0,0,4619,0,0,0,0,0,0,0,0,0,
0,0,0,0,0,0,4640,0,0,0,0,0,0,0,0,0,
0,0,0,0,0,0,4661,0,0,0,0,0,0,0,0,0,
0,0,0,0,0,0,4682,0,0,0,0,0,0,0,0,0
</chunk>
   <chunk x="48" y="-16" width="16" height="16">
0,0,0,0,0,0,0,0,0,0,0,0,0,0,0,0,
0,0,0,0,0,0,0,0,0,0,0,0,0,0,0,0,
0,0,0,0,0,0,0,0,0,0,0,0,0,0,0,0,
0,0,0,0,0,0,0,0,0,0,0,0,0,0,0,0,
0,0,0,0,0,0,0,0,0,0,0,0,8067,8068,8069,0,
0,0,0,0,0,0,0,0,0,0,0,0,8099,8100,8101,0,
0,0,0,0,0,0,0,0,0,0,0,0,8131,8132,8133,0,
0,0,0,0,0,0,0,0,0,0,0,0,0,0,0,0,
0,0,0,0,0,0,0,0,0,0,0,0,0,0,0,0,
0,0,0,0,0,0,0,0,0,0,0,0,0,0,0,0,
0,0,0,0,0,0,0,0,0,0,0,0,0,0,0,0,
0,0,0,0,0,0,0,0,0,0,0,0,0,0,0,0,
0,0,0,0,0,0,0,0,0,0,0,0,0,0,0,0,
0,0,0,0,0,0,0,0,0,0,0,0,0,0,0,0,
0,0,0,0,0,0,0,0,0,0,0,0,0,0,0,0,
0,0,0,0,0,0,0,0,0,0,0,0,0,0,0,0
</chunk>
   <chunk x="-96" y="0" width="16" height="16">
0,0,0,0,0,0,20,21,4879,4880,21,21,21,21,21,21,
0,0,0,0,0,0,20,21,4900,4901,21,21,21,21,4635,21,
0,0,0,0,0,0,20,21,21,21,21,21,4850,4851,4864,21,
0,0,0,0,0,0,20,21,21,21,21,21,4871,4872,4885,21,
0,0,0,0,0,0,20,21,21,21,21,21,4892,4893,4850,4851,
0,0,0,0,0,0,20,21,21,21,21,21,21,21,4871,4872,
0,0,0,0,0,0,20,21,21,21,21,21,21,21,4892,4893,
0,0,0,0,0,0,20,8538,8539,21,21,21,21,21,21,21,
0,0,0,0,0,0,20,8570,8571,21,21,21,21,21,21,21,
0,0,0,0,0,0,20,21,4873,4874,4875,21,21,21,21,21,
0,0,0,0,0,0,20,21,4894,4895,4896,21,21,21,21,21,
0,0,0,0,0,0,20,21,4915,4916,4917,21,21,21,21,21,
0,0,0,0,0,0,20,21,21,21,21,21,21,21,4873,4874,
0,0,0,0,0,0,43,21,21,21,4863,4864,21,21,4894,4895,
0,0,0,0,0,0,21,21,4949,4950,4884,4885,21,21,4915,4916,
0,0,0,0,0,0,24,21,4970,4971,21,21,21,21,21,21
</chunk>
   <chunk x="-80" y="0" width="16" height="16">
21,21,21,21,21,21,21,21,21,21,21,21,22,0,0,0,
21,21,21,21,21,21,21,21,21,21,21,21,22,0,0,0,
4860,4861,4862,21,21,21,21,21,21,21,21,21,22,0,0,0,
4881,4882,4883,21,21,21,21,21,21,21,21,21,42,3,0,0,
4902,4903,4904,21,21,21,21,21,21,21,21,21,21,22,0,0,
21,21,21,21,21,21,21,21,21,21,21,21,21,22,0,0,
21,21,21,21,21,21,21,21,21,21,21,21,21,22,0,0,
21,21,21,21,21,21,21,21,21,21,21,21,21,22,0,0,
21,21,21,21,21,21,21,21,21,21,21,21,21,22,0,0,
21,21,4932,4933,21,21,21,21,21,21,21,21,23,41,0,0,
21,21,4953,4954,21,21,21,21,21,21,21,23,41,0,0,0,
21,21,21,21,21,21,21,21,21,21,0,136,0,0,0,0,
4875,21,21,21,21,21,21,21,21,21,0,136,0,0,0,0,
4896,21,21,21,21,21,21,21,21,21,42,136,0,0,0,0,
4917,21,21,21,21,21,21,21,21,21,21,42,3,0,0,0,
21,21,21,21,21,21,21,21,21,21,21,21,22,0,0,0
</chunk>
   <chunk x="-96" y="16" width="16" height="16">
0,0,0,0,0,0,20,21,21,21,21,21,21,21,21,21,
0,0,0,0,0,0,20,21,21,21,21,21,21,21,21,21,
0,0,0,0,0,0,43,21,4863,4864,21,21,21,21,21,21,
0,0,0,0,0,0,24,21,4884,4885,21,21,21,21,21,21,
0,0,0,0,0,0,43,21,21,21,21,21,21,4937,21,21,
0,0,0,0,0,0,24,21,21,21,21,21,21,4958,21,21,
0,0,0,0,0,0,43,21,21,21,21,21,21,21,21,21,
0,0,0,0,0,0,24,21,21,4949,4950,21,21,21,21,21,
0,0,0,0,0,0,20,21,21,4970,4971,21,21,21,21,21,
0,0,0,0,0,0,43,21,21,21,21,21,21,21,21,21,
0,0,0,0,0,0,24,21,21,21,21,21,21,21,21,21,
0,0,0,0,0,0,20,21,4938,4939,21,21,21,21,21,21,
0,0,0,0,0,0,20,21,4959,4960,21,21,21,21,21,21,
0,0,0,0,0,0,43,21,21,21,21,21,21,21,21,21,
0,0,0,0,0,0,21,21,21,21,21,21,21,21,21,21,
0,0,0,0,0,0,24,21,21,21,21,21,21,4635,21,21
</chunk>
   <chunk x="-80" y="16" width="16" height="16">
21,21,21,21,21,21,21,21,21,21,21,21,22,0,0,0,
21,21,21,21,4835,4836,21,21,21,21,21,21,22,0,0,0,
4835,4836,21,21,4856,4857,21,21,21,21,21,21,22,0,0,0,
4856,4857,21,21,21,21,21,21,21,21,4635,21,22,0,0,0,
21,21,21,21,21,21,21,21,21,21,4656,21,22,0,0,0,
21,21,21,21,21,21,21,21,4635,21,21,21,22,0,0,0,
21,21,21,21,21,21,21,21,4656,21,21,21,22,0,0,0,
21,21,21,21,21,21,21,21,21,21,21,21,22,0,0,0,
21,21,21,4635,4833,4834,21,21,21,21,21,21,22,0,0,0,
21,21,4863,4864,4854,4855,21,21,21,21,21,21,22,0,0,0,
21,21,4884,4885,21,21,21,21,21,21,21,21,22,0,0,0,
21,7906,7907,7908,21,21,21,21,21,21,21,21,22,0,0,0,
21,7938,7939,7940,21,21,21,21,21,21,21,21,22,0,0,0,
21,7970,7971,7972,21,21,21,21,21,21,21,21,22,0,0,0,
21,21,21,21,21,21,21,21,21,21,21,21,22,0,0,0,
21,21,21,21,21,21,4873,4874,4875,8717,8718,21,22,0,0,0
</chunk>
   <chunk x="-96" y="32" width="16" height="16">
0,0,0,0,0,0,43,21,21,21,4635,21,21,4656,21,21,
0,0,0,0,0,0,24,21,4635,21,4656,21,21,21,21,21,
0,0,0,0,0,0,20,21,4656,21,21,21,21,21,21,21,
0,0,0,0,0,0,20,4863,4864,4635,21,4833,4834,21,21,21,
0,0,0,0,0,0,20,4884,4885,4656,4635,4854,4855,21,21,21,
0,0,0,0,0,0,20,21,21,21,4656,21,21,21,21,21,
0,0,0,0,0,0,20,21,21,4863,4864,21,21,21,21,21,
0,0,0,0,0,0,20,21,21,4884,4885,21,21,21,21,21,
0,0,0,0,0,0,20,8431,8432,21,21,21,21,21,21,21,
0,0,0,0,0,0,20,8463,8464,21,21,21,21,21,21,21,
0,0,0,0,0,0,20,21,21,21,21,21,4635,21,21,21,
0,0,0,0,0,0,20,21,21,21,21,21,4656,21,21,21,
0,0,0,0,0,0,20,21,21,21,21,21,21,21,21,21,
0,0,0,0,0,0,20,21,21,21,21,21,21,21,21,21,
0,0,0,0,0,0,20,8002,8003,21,21,21,21,4635,21,21,
0,0,0,0,0,0,20,8034,8035,21,21,21,21,4656,21,21
</chunk>
   <chunk x="-80" y="32" width="16" height="16">
21,21,21,21,21,21,4894,4895,4896,8749,8750,21,22,0,0,0,
21,21,21,21,21,21,4915,4916,4917,4923,4924,21,22,0,0,0,
21,21,21,21,21,21,21,21,21,4944,4945,21,22,0,0,0,
21,21,21,21,21,21,21,4949,4950,21,21,21,22,0,0,0,
21,21,21,21,21,21,21,4970,4971,21,21,21,22,0,0,0,
21,21,4873,4874,4875,21,21,21,21,21,21,21,22,0,0,0,
21,21,4894,4895,4896,21,21,21,21,21,21,21,22,0,0,0,
21,21,4915,4916,4917,21,21,21,21,21,21,21,22,0,0,0,
21,21,21,21,21,21,21,21,21,21,21,21,22,0,0,0,
21,21,21,21,4921,4922,21,21,21,21,21,21,22,0,0,0,
21,21,21,21,4942,4943,21,21,21,21,21,21,22,0,0,0,
21,21,21,21,21,4587,4588,21,21,21,21,21,22,0,0,0,
21,21,21,21,21,4608,4609,21,21,21,21,21,22,0,0,0,
21,21,21,21,21,21,21,21,21,21,4635,21,22,0,0,0,
21,21,21,21,21,21,21,21,21,21,4656,21,22,0,0,0,
21,21,21,21,4833,4834,21,21,21,21,21,21,22,0,0,0
</chunk>
   <chunk x="-32" y="32" width="16" height="16">
0,0,0,0,0,0,0,0,0,0,0,0,0,0,0,0,
0,0,0,0,0,0,0,0,0,0,0,0,0,0,0,0,
0,0,0,0,0,0,0,0,0,0,0,0,0,0,0,0,
0,0,0,0,0,0,0,0,0,0,0,0,0,0,0,0,
0,0,0,0,0,0,0,0,0,0,0,0,0,0,0,0,
0,0,0,0,0,0,0,0,0,0,0,0,0,0,0,0,
0,0,0,0,0,0,0,0,0,0,0,0,0,0,0,0,
0,0,0,0,0,0,0,0,0,0,0,0,0,0,0,0,
0,0,0,0,0,0,0,0,0,0,0,0,0,0,0,0,
0,0,0,0,0,0,0,0,0,0,7902,7903,7904,7905,0,0,
0,0,0,0,0,0,0,0,0,0,7934,7935,7936,7937,0,0,
0,0,0,0,0,0,0,0,0,0,7966,7967,7968,7969,0,0,
0,0,0,0,0,0,0,0,0,0,7998,7999,8000,8001,0,0,
0,0,0,0,0,0,0,0,0,0,8030,8031,8032,8033,0,0,
0,0,0,0,0,0,0,0,0,0,0,0,0,8058,8059,8060,
0,0,0,0,0,0,0,0,0,0,0,0,0,8090,8091,8092
</chunk>
   <chunk x="-16" y="32" width="16" height="16">
0,0,0,0,0,0,0,0,0,0,0,0,0,0,0,0,
0,0,0,0,0,0,0,0,0,0,0,0,0,0,0,0,
0,0,0,0,0,0,0,0,0,0,0,0,0,0,0,0,
0,0,0,0,0,0,0,0,0,0,0,0,0,0,0,0,
0,0,0,0,0,0,0,0,0,0,0,0,0,0,0,0,
0,0,0,0,0,0,0,0,0,0,0,0,0,0,0,0,
0,0,0,0,0,0,0,0,0,0,0,0,0,0,0,0,
0,0,0,0,0,0,0,0,0,0,0,0,0,0,0,0,
0,0,0,0,0,0,0,0,0,0,0,0,0,0,0,0,
0,0,0,0,0,0,0,0,0,0,0,0,0,0,0,0,
0,0,0,0,0,0,0,0,0,0,0,0,0,0,0,0,
0,0,0,0,0,0,0,0,0,0,0,0,0,0,0,0,
0,0,0,0,0,0,0,0,0,0,0,0,0,0,0,0,
0,0,0,0,0,0,0,0,0,8128,8129,0,0,0,0,0,
0,0,0,0,8183,8184,8185,0,0,8160,8161,0,0,0,0,0,
0,0,0,0,8215,8216,8217,0,0,0,0,0,0,0,0,0
</chunk>
   <chunk x="-96" y="48" width="16" height="16">
0,0,0,0,0,0,20,21,4635,21,21,21,21,21,21,21,
0,0,0,0,0,0,20,21,4656,21,21,21,21,21,21,21,
0,0,0,0,0,0,20,21,4863,4864,21,8717,8718,4863,4864,4635,
0,0,0,0,0,0,20,21,4884,4885,21,8749,8750,4884,4885,4656,
0,0,0,0,0,0,20,21,21,21,21,21,21,21,21,21,
0,0,0,0,0,0,39,40,40,40,40,40,40,40,40,40,
0,0,0,0,0,0,0,0,0,0,0,0,0,0,0,0,
0,0,0,0,0,0,0,0,0,0,0,0,0,0,0,0,
0,0,0,0,0,0,0,0,0,0,0,0,0,0,0,0,
0,0,0,0,0,0,0,0,0,0,0,0,0,0,0,0,
0,0,0,0,0,0,0,0,0,0,0,0,0,0,0,0,
0,0,0,0,0,0,0,0,0,0,0,0,0,0,0,0,
0,0,0,0,0,0,0,0,0,0,0,0,0,0,0,0,
0,0,0,0,0,0,0,0,0,0,0,0,0,0,0,0,
0,0,0,0,0,0,0,0,0,0,0,0,0,0,0,0,
0,0,0,0,0,0,0,0,0,0,0,0,0,0,0,0
</chunk>
   <chunk x="-80" y="48" width="16" height="16">
21,21,21,21,4854,4855,21,21,21,21,21,241,41,0,0,0,
21,21,21,21,4873,4874,4875,21,4677,21,4677,241,0,0,0,0,
4863,4864,21,21,4894,4895,4896,21,21,21,4656,241,0,0,0,0,
4884,4885,21,21,4915,4916,4917,21,21,23,40,241,0,0,0,0,
21,21,21,21,21,21,21,21,21,22,241,241,0,0,0,0,
40,40,40,40,40,40,40,40,40,41,241,241,0,0,0,0,
0,0,0,0,0,0,0,0,0,0,241,241,0,0,0,0,
0,0,0,0,0,0,0,0,0,0,241,269,0,0,0,0,
0,0,0,0,0,0,0,0,0,0,286,288,0,0,0,0,
0,0,0,0,0,0,0,0,0,0,0,0,0,0,0,0,
0,0,0,0,0,0,0,0,0,0,0,0,0,0,0,0,
0,0,0,0,0,0,0,0,0,0,0,0,0,0,0,0,
0,0,0,0,0,0,0,0,0,0,0,0,0,0,0,0,
0,0,0,0,0,0,0,0,0,0,0,0,0,0,0,0,
0,0,0,0,0,0,0,0,0,0,0,0,0,0,0,0,
0,0,0,0,0,0,0,0,0,0,0,0,0,0,0,0
</chunk>
   <chunk x="-16" y="48" width="16" height="16">
0,0,0,0,0,0,0,0,0,0,0,0,0,0,0,0,
0,0,0,0,0,0,0,0,0,0,0,0,0,8186,8187,0,
0,0,7879,7880,7881,7882,7883,0,0,0,0,0,0,8218,8219,0,
0,0,7911,7912,7913,7914,7915,0,0,0,0,0,0,0,0,0,
0,0,7943,7944,7945,7946,7947,0,0,0,0,0,0,0,0,0,
0,0,7975,7976,7977,7978,7979,0,0,0,0,0,0,0,0,0,
0,0,8007,8008,8009,8010,8011,0,0,0,0,0,0,0,0,0,
0,0,0,0,0,0,0,0,0,0,0,0,0,0,0,0,
0,0,0,0,0,0,0,0,0,0,0,0,0,0,0,0,
0,0,0,0,0,0,0,0,0,0,0,0,0,0,0,0,
0,0,0,0,0,0,0,0,0,0,0,0,0,0,0,0,
0,0,0,0,0,0,0,0,0,0,0,0,0,0,0,0,
0,0,0,0,0,0,0,0,0,0,0,0,0,0,0,0,
0,0,0,0,0,0,0,0,0,0,0,0,0,0,0,0,
0,0,0,0,0,0,0,0,0,0,0,0,0,0,0,0,
0,0,0,0,0,0,0,0,0,0,0,0,0,0,0,0
</chunk>
  </data>
 </layer>
 <layer id="23" name="Orman parçaları 3" width="30" height="20">
  <data encoding="csv">
   <chunk x="-80" y="-32" width="16" height="16">
0,0,0,0,0,0,0,0,0,0,0,0,0,0,0,0,
0,0,0,0,0,0,0,0,0,0,0,0,0,0,0,0,
0,0,0,0,0,0,0,0,0,0,0,0,0,0,0,0,
0,0,0,0,0,0,0,0,0,0,0,0,0,0,0,0,
0,0,0,0,0,0,0,0,0,0,0,0,0,0,0,0,
0,0,0,0,0,0,0,0,0,0,0,0,0,0,0,0,
0,0,0,0,0,0,0,0,0,0,0,0,0,0,0,0,
0,0,0,0,0,0,0,0,0,0,0,0,0,0,0,0,
0,0,0,0,0,0,0,0,0,0,0,0,0,0,0,0,
0,0,0,0,0,0,0,0,0,0,0,0,0,0,0,0,
0,0,0,0,0,0,0,0,0,0,0,0,0,0,0,0,
0,0,0,0,0,0,0,0,0,0,0,0,0,0,0,0,
0,0,0,0,0,0,0,0,0,0,0,0,0,0,0,0,
0,0,0,0,0,0,0,0,0,0,0,0,0,0,0,0,
0,0,0,0,0,0,0,0,0,0,0,0,0,0,0,0,
0,0,0,0,0,0,0,0,0,0,0,2,0,0,0,0
</chunk>
   <chunk x="-96" y="-16" width="16" height="16">
0,0,0,0,0,0,0,0,0,8256,8257,8258,0,0,0,0,
0,0,0,0,0,0,0,0,0,8288,8289,8290,0,0,0,0,
0,0,0,0,0,0,0,0,0,8320,8321,8322,0,0,0,0,
0,0,0,0,0,0,0,0,0,0,0,0,0,0,0,0,
0,0,0,0,0,0,0,0,0,0,0,0,0,0,0,0,
0,0,0,0,0,0,0,0,0,0,0,0,8177,8178,8179,0,
0,0,0,0,0,0,0,0,0,0,8642,8643,8209,8210,8211,0,
0,0,0,0,0,0,0,0,0,0,8674,8675,8241,8242,8243,0,
0,0,0,0,0,0,0,0,0,0,0,0,0,0,0,0,
0,0,0,0,0,0,0,0,0,0,0,0,0,8044,8045,8046,
0,0,0,0,0,0,0,0,4858,4859,0,0,0,8076,8077,8078,
0,0,0,0,0,0,0,0,4879,4880,0,0,0,8108,8109,8110,
0,0,0,0,0,0,0,0,4900,4901,0,0,0,8140,8141,8142,
0,0,0,0,0,0,0,0,0,0,0,0,0,0,0,0,
0,0,0,0,0,0,0,0,0,0,0,0,0,0,0,0,
0,0,0,0,0,0,0,0,0,0,0,8480,8481,0,0,0
</chunk>
   <chunk x="-80" y="-16" width="16" height="16">
8271,8272,8273,8274,8275,7879,7880,7881,7882,7883,0,0,0,0,0,0,
8303,8304,8305,8306,8307,7911,7912,7913,7914,7915,0,0,0,0,0,0,
8335,8336,8337,8338,8339,7943,7944,7945,7946,7947,0,0,0,0,0,0,
8367,8368,8369,8370,8371,7975,7976,7977,7978,7979,0,0,0,0,0,0,
8399,8400,8401,8402,8403,8007,8008,8009,8010,8181,8182,0,0,0,0,0,
8434,8435,0,4944,4945,0,0,0,0,8213,8214,0,0,0,0,0,
8466,8467,0,0,0,0,0,0,0,8245,8246,0,0,0,0,0,
0,0,0,0,8174,8175,8176,0,0,0,0,0,0,0,0,0,
0,0,0,0,8206,8207,8208,0,0,0,0,0,0,0,0,0,
0,0,0,0,8238,8239,8240,0,4921,4922,0,0,0,0,0,0,
0,0,0,0,0,0,0,0,4942,4943,0,0,0,0,0,0,
0,0,0,0,0,0,0,0,0,0,0,0,0,0,0,0,
0,4792,4793,4794,0,0,0,0,8480,8481,0,0,0,0,0,0,
0,4813,4814,4815,0,0,0,0,8512,8513,0,0,0,0,0,0,
0,0,0,0,0,0,0,0,0,0,0,0,0,0,0,0,
0,0,8638,8639,0,0,0,0,0,0,0,0,0,0,0,0
</chunk>
   <chunk x="-16" y="-16" width="16" height="16">
0,0,0,0,0,0,0,0,0,0,0,0,0,0,0,0,
0,0,0,0,0,0,0,0,0,0,0,0,0,0,0,0,
0,0,0,0,0,0,0,0,0,0,0,0,0,0,0,0,
0,0,0,0,0,0,0,0,0,0,0,0,0,0,0,0,
0,0,0,0,0,0,0,0,0,0,0,0,0,0,0,0,
0,0,0,0,0,0,0,0,0,0,0,0,0,0,0,0,
0,0,0,0,0,0,0,0,0,0,0,0,0,0,0,0,
0,0,0,0,0,0,0,0,0,0,0,0,0,0,0,0,
0,0,0,0,0,0,0,0,0,0,0,0,0,0,0,0,
0,0,0,0,0,0,0,0,0,0,0,0,0,0,0,0,
0,0,0,0,0,0,0,0,0,0,0,0,0,4799,0,4817,
0,0,0,0,0,0,0,0,0,0,0,0,0,0,0,4838,
0,0,0,0,0,0,0,0,0,0,0,0,0,0,0,4621,
0,0,0,0,0,0,0,0,0,0,0,0,0,0,0,4642,
0,0,0,0,0,0,0,0,0,0,0,0,0,0,0,4663,
0,0,0,0,0,0,0,0,0,0,0,0,0,0,0,0
</chunk>
   <chunk x="0" y="-16" width="16" height="16">
0,0,0,0,0,0,0,0,0,0,0,0,0,0,0,0,
0,0,0,0,0,0,0,0,0,0,0,0,0,0,0,0,
0,0,0,0,0,0,0,0,0,0,0,0,0,0,0,0,
0,0,0,0,0,0,0,0,0,0,0,0,0,0,0,0,
0,0,0,0,0,0,0,0,0,0,0,0,0,0,0,0,
0,0,0,0,0,0,0,0,0,0,0,0,0,0,0,0,
0,0,0,0,0,0,0,0,0,0,0,0,0,0,0,0,
0,0,0,0,0,0,0,0,0,0,0,0,0,0,0,0,
4819,4820,0,4797,4798,0,0,0,0,0,0,0,0,0,0,0,
4840,4841,0,0,0,0,0,0,0,0,0,0,0,0,0,0,
4818,0,0,0,0,0,0,0,0,0,0,0,0,0,0,0,
4839,0,0,0,4795,4796,0,0,0,0,0,0,0,0,0,0,
4622,4623,0,0,0,0,0,0,0,0,0,0,0,0,0,0,
4643,4644,0,0,0,0,0,0,0,0,0,0,0,0,0,0,
4664,4665,0,0,0,0,0,0,0,0,0,0,0,0,0,0,
0,0,0,0,0,0,4619,0,0,0,0,0,0,0,0,0
</chunk>
   <chunk x="-96" y="0" width="16" height="16">
0,0,0,0,0,0,0,0,0,0,0,8512,8513,0,0,8721,
0,0,0,0,0,0,0,0,0,0,0,0,0,0,0,0,
0,0,0,0,0,0,0,0,0,0,0,0,0,0,0,0,
0,0,0,0,0,0,0,0,0,0,0,0,0,0,0,0,
0,0,0,0,0,0,0,0,0,8047,8048,8049,8050,0,0,0,
0,0,0,0,0,0,0,0,0,8079,8080,8081,8082,0,0,0,
0,0,0,0,0,0,0,0,0,8111,8112,8113,8114,0,0,0,
0,0,0,0,0,0,0,0,0,8143,8144,8145,8146,0,0,0,
0,0,0,0,0,0,0,0,0,0,0,0,0,0,0,0,
0,0,0,0,0,0,0,0,0,4635,0,0,8168,8169,8170,8171,
0,0,0,0,0,0,0,0,0,4656,0,0,8200,8201,8202,8203,
0,0,0,0,0,0,0,0,0,0,0,0,8232,8233,8234,8235,
0,0,0,0,0,0,0,0,0,0,0,4635,0,0,4635,0,
0,0,0,0,0,0,0,0,0,0,0,4656,0,0,4656,0,
0,0,0,0,0,0,0,0,8799,8800,8801,0,0,0,0,0,
0,0,0,0,0,0,0,0,8831,8832,8833,0,8638,8639,0,0
</chunk>
   <chunk x="-80" y="0" width="16" height="16">
0,0,8670,8671,0,0,0,8047,8048,8049,8050,0,0,0,0,0,
0,0,0,0,0,0,0,8079,8080,8081,8082,0,0,0,0,0,
0,0,0,0,0,0,0,8111,8112,8113,8114,0,0,0,0,0,
0,0,0,0,0,0,0,8143,8144,8145,8146,0,0,0,0,0,
0,0,0,0,0,0,0,0,0,0,0,0,0,0,0,0,
0,0,0,0,0,0,0,4421,4422,0,4921,4922,0,0,0,0,
0,0,0,0,0,4835,4836,4442,4443,0,4942,4943,0,0,0,0,
0,0,0,0,0,4856,4857,8706,8707,0,0,0,0,0,0,0,
0,0,0,4635,0,0,0,8738,8739,0,0,0,0,0,0,0,
8172,8173,0,4656,0,0,0,0,0,0,0,0,0,0,0,0,
8204,8205,0,0,0,0,0,4835,4836,4816,0,0,0,0,0,0,
8236,8237,0,4635,0,0,0,4856,4857,4837,0,0,0,0,0,0,
0,0,0,4656,0,0,0,0,0,4876,0,0,0,0,0,0,
4635,0,0,8040,8041,8042,8043,0,0,4897,0,0,0,0,0,0,
4656,0,0,8072,8073,8074,8075,0,0,4918,4919,0,0,0,0,0,
0,0,0,8104,8105,8106,8107,0,0,0,0,0,0,0,0,0
</chunk>
   <chunk x="0" y="0" width="16" height="16">
0,0,0,0,0,0,4640,0,0,0,0,0,0,0,0,0,
0,0,0,0,0,0,4661,0,0,0,0,0,0,0,0,0,
0,0,0,0,0,0,4682,0,0,0,0,0,0,0,0,0,
0,0,0,0,0,0,0,0,0,0,0,0,0,0,0,0,
0,0,0,0,0,0,0,0,0,0,0,0,0,0,0,0,
0,0,0,0,0,0,0,0,0,0,0,0,0,0,0,0,
0,0,0,0,0,0,0,0,0,0,0,0,0,0,0,0,
0,0,0,0,0,0,0,0,0,0,0,0,0,0,0,0,
0,0,0,0,0,0,0,0,0,0,0,0,0,0,0,0,
0,0,0,0,0,0,0,0,0,0,0,0,0,0,0,0,
0,0,0,0,0,0,0,0,0,0,0,0,0,0,0,0,
0,0,0,0,0,0,0,0,0,0,0,0,0,0,0,0,
0,0,0,0,0,0,0,0,0,0,0,0,0,0,0,0,
0,0,0,0,0,0,0,0,0,0,0,0,0,0,0,0,
0,0,0,0,0,0,0,0,0,0,0,0,0,0,0,0,
0,0,0,0,0,0,0,0,0,0,0,0,0,0,0,0
</chunk>
   <chunk x="-96" y="16" width="16" height="16">
0,0,0,0,0,0,0,0,0,0,4635,0,8670,8671,0,0,
0,0,0,0,0,0,0,0,0,0,4656,0,0,0,0,0,
0,0,0,0,0,0,0,0,0,4677,0,0,0,0,0,0,
0,0,0,0,0,0,0,0,0,0,0,0,0,0,0,0,
0,0,0,0,0,0,0,0,0,0,0,0,8122,8123,0,0,
0,0,0,0,0,0,0,0,0,8434,8435,0,8154,8155,0,0,
0,0,0,0,0,0,0,0,0,8466,8467,0,0,8124,8124,0,
0,0,0,0,0,0,0,0,0,0,0,0,0,0,8124,0,
0,0,0,0,0,0,0,0,0,0,0,0,0,0,0,8190,
0,0,0,0,0,0,0,0,0,0,0,8510,8511,0,0,8222,
0,0,0,0,0,0,0,0,0,0,0,8542,8543,0,0,0,
0,0,0,0,0,0,0,0,0,0,0,0,0,0,0,0,
0,0,0,0,0,0,0,0,0,0,0,0,0,0,8482,8483,
0,0,0,0,0,0,0,0,0,0,8067,8068,8069,0,8514,8515,
0,0,0,0,0,0,0,0,0,0,8099,8100,8101,0,8546,8547,
0,0,0,0,0,0,0,0,0,0,8131,8132,8133,0,0,0
</chunk>
   <chunk x="-80" y="16" width="16" height="16">
8083,8084,8085,8136,8137,8138,8139,0,0,0,0,0,0,0,0,0,
8115,8116,8117,0,0,0,0,0,8259,8260,8261,0,0,0,0,0,
8147,8148,8149,0,0,0,0,0,8291,8292,8293,0,0,0,0,0,
0,0,0,0,4792,4793,4794,0,8323,8324,8325,0,0,0,0,0,
0,0,0,0,4813,4814,4815,0,0,0,0,0,0,0,0,0,
0,0,0,0,0,0,0,0,0,0,0,0,0,0,0,0,
0,0,4941,0,0,8640,8641,0,0,0,0,0,0,0,0,0,
0,0,0,0,0,8672,8673,0,0,0,0,0,0,0,0,0,
8191,0,0,0,0,0,0,0,0,0,0,0,0,0,0,0,
8223,0,0,0,0,0,0,0,8572,8573,0,0,0,0,0,0,
0,0,0,0,0,0,0,0,8604,8605,0,0,0,0,0,0,
0,0,0,0,0,0,8721,0,0,0,0,0,0,0,0,0,
8484,0,0,0,0,0,0,0,0,0,0,0,0,0,0,0,
8516,0,4799,0,0,0,0,0,0,4941,0,0,0,0,0,0,
8548,0,0,0,135,135,135,0,0,0,0,0,0,0,0,0,
8488,8489,8490,8491,8492,8493,8494,0,0,0,0,0,0,0,0,0
</chunk>
   <chunk x="-96" y="32" width="16" height="16">
0,0,0,0,0,0,0,4941,0,0,0,0,0,0,0,0,
0,0,0,0,0,0,0,0,0,0,0,0,8706,8707,0,0,
0,0,0,0,0,0,0,0,0,0,0,0,8738,8739,0,0,
0,0,0,0,0,0,0,0,0,0,0,0,0,0,4799,0,
0,0,0,0,0,0,0,0,0,0,0,0,0,0,0,0,
0,0,0,0,0,0,0,0,0,0,0,0,0,0,0,0,
0,0,0,0,0,0,0,0,4799,0,0,8721,0,0,0,0,
0,0,0,0,0,0,0,0,0,0,0,0,0,0,0,0,
0,0,0,0,0,0,0,0,0,0,0,0,0,4587,4588,0,
0,0,0,0,0,0,0,0,0,0,0,0,0,4608,4609,0,
0,0,0,0,0,0,0,0,0,8044,8045,8046,0,0,0,0,
0,0,0,0,0,0,0,0,0,8076,8077,8078,0,0,0,0,
0,0,0,0,0,0,0,0,0,8108,8109,8110,0,0,0,0,
0,0,0,0,0,0,0,0,0,8140,8141,8142,0,0,0,0,
0,0,0,0,0,0,0,0,0,0,0,0,0,0,0,0,
0,0,0,0,0,0,0,0,0,0,0,8640,8641,0,0,0
</chunk>
   <chunk x="-80" y="32" width="16" height="16">
8520,8521,8522,8523,8524,8525,8526,0,0,0,0,0,0,0,0,0,
8552,8553,8554,8555,8556,8557,8558,8638,8639,0,0,0,0,0,0,0,
8584,8585,8586,8587,8588,8589,8590,8670,8671,0,0,0,0,0,0,0,
8616,8617,8618,8619,8620,8621,8622,0,0,0,0,0,0,0,0,0,
8648,8649,8650,8651,8652,8653,8654,0,0,0,0,0,0,0,0,0,
8680,8681,8682,8683,8684,8685,8686,0,0,0,0,0,0,0,0,0,
0,0,0,0,0,0,0,8044,8045,8046,0,0,0,0,0,0,
0,0,0,0,0,0,0,8076,8077,8078,0,0,0,0,0,0,
0,8510,8511,0,0,0,0,8108,8109,8110,0,0,0,0,0,0,
0,8542,8543,0,0,0,0,8140,8141,8142,0,0,0,0,0,0,
0,0,0,0,0,0,4581,4582,0,0,0,0,0,0,0,0,
0,0,0,0,0,0,4602,4603,0,0,0,0,0,0,0,0,
8252,8253,8254,8255,0,0,0,0,0,0,0,0,0,0,0,0,
8284,8285,8286,8287,0,0,0,0,0,4941,0,0,0,0,0,0,
8316,8317,8318,8319,0,0,8572,8573,0,0,0,0,0,0,0,0,
8348,8349,8350,8351,0,0,8604,8605,0,0,0,0,0,0,0,0
</chunk>
   <chunk x="-96" y="48" width="16" height="16">
0,0,0,0,0,0,0,0,0,0,0,8672,8673,0,0,0,
0,0,0,0,0,0,0,0,0,0,0,0,0,0,4941,0,
0,0,0,0,0,0,0,0,0,0,0,0,0,0,0,0,
0,0,0,0,0,0,0,0,0,0,0,0,0,0,0,0,
0,0,0,0,0,0,0,0,0,0,0,0,0,0,0,0,
0,0,0,0,0,0,0,4628,4629,4630,0,0,4624,4625,0,0,
0,0,0,0,0,0,0,4649,4650,4651,0,0,4645,4646,0,0,
0,0,0,0,0,0,0,0,4671,4672,0,0,0,0,0,0,
0,0,0,0,0,0,0,0,0,0,0,0,0,0,0,0,
0,0,0,0,0,0,0,0,0,0,0,0,0,0,0,0,
0,0,0,0,0,0,0,0,0,0,0,0,0,0,0,0,
0,0,0,0,0,0,0,0,0,0,0,0,0,0,0,0,
0,0,0,0,0,0,0,0,0,0,0,0,0,0,0,0,
0,0,0,0,0,0,0,0,0,0,0,0,0,0,0,0,
0,0,0,0,0,0,0,0,0,0,0,0,0,0,0,0,
0,0,0,0,0,0,0,0,0,0,0,0,0,0,0,0
</chunk>
   <chunk x="-80" y="48" width="16" height="16">
0,0,0,0,0,0,0,0,0,0,0,23,176,0,0,0,
0,0,0,0,0,0,0,0,0,0,0,22,214,0,0,0,
0,0,0,0,0,0,0,4585,4586,0,0,22,214,0,0,0,
0,0,0,0,0,0,0,4606,4607,135,135,136,214,0,0,0,
0,0,0,0,0,0,0,0,0,135,137,155,214,0,0,0,
4703,0,4668,4669,4670,0,0,0,0,175,41,0,214,0,0,0,
4724,0,4689,4690,4691,0,0,0,0,0,10,0,214,0,0,0,
4745,0,0,0,0,0,0,0,0,0,10,185,195,0,0,0,
4766,0,0,0,0,0,0,0,0,0,330,0,0,0,0,0,
0,0,0,0,0,0,0,0,0,0,0,0,0,0,0,0,
0,0,0,0,0,0,0,0,0,0,0,0,0,0,0,0,
0,0,0,0,0,0,0,0,0,0,0,0,0,0,0,0,
0,0,0,0,0,0,0,0,0,0,0,0,0,0,0,0,
0,0,0,0,0,0,0,0,0,0,0,0,0,0,0,0,
0,0,0,0,0,0,0,0,0,0,0,0,0,0,0,0,
0,0,0,0,0,0,0,0,0,0,0,0,0,0,0,0
</chunk>
  </data>
 </layer>
 <layer id="31" name="Orman parçaları 4" width="30" height="20">
  <data encoding="csv">
   <chunk x="-96" y="-16" width="16" height="16">
0,0,0,0,0,0,0,0,0,0,0,0,0,0,4906,4907,
0,0,0,0,0,0,0,0,0,0,0,0,0,0,4927,4928,
0,0,0,0,0,0,0,0,0,0,0,0,0,0,0,0,
0,0,0,0,0,0,0,4968,4969,0,0,0,0,0,0,0,
0,0,0,0,0,0,0,4989,4990,0,0,0,0,0,0,0,
0,0,0,0,0,0,0,0,0,0,0,0,0,0,0,0,
0,0,0,0,0,0,0,0,0,0,0,0,0,0,0,0,
0,0,0,0,0,0,0,0,0,0,0,0,0,0,0,0,
0,0,0,0,0,0,0,0,0,0,0,0,0,0,0,0,
0,0,0,0,0,0,0,7897,7898,7899,7900,7901,0,0,0,0,
0,0,0,0,0,0,7928,7929,7930,7931,7932,7933,0,0,0,0,
0,0,0,0,0,0,7960,7961,7962,7963,7964,7965,0,0,0,0,
0,0,0,0,0,0,7992,7993,7994,7995,7996,7997,0,0,0,0,
0,0,0,0,0,0,0,8025,8026,8027,8028,8029,0,0,0,0,
0,0,0,0,0,0,0,0,0,0,0,0,0,0,0,0,
0,0,0,0,0,0,0,0,0,0,0,0,0,0,0,0
</chunk>
   <chunk x="-80" y="-16" width="16" height="16">
4908,0,0,0,0,0,0,0,0,0,4739,4740,0,0,0,0,
4929,0,0,0,0,0,0,0,0,0,4760,4761,0,0,0,0,
0,0,0,0,0,0,0,0,0,0,0,0,0,0,0,0,
0,0,0,0,0,0,0,0,0,0,0,0,0,0,0,0,
0,0,0,0,0,0,0,0,0,0,0,0,0,0,0,0,
0,0,0,0,0,0,0,0,0,0,0,0,0,0,0,0,
0,0,0,0,0,0,0,0,0,0,0,0,0,0,0,0,
0,0,0,0,0,0,0,0,0,0,0,0,0,0,0,0,
0,0,0,0,0,0,0,0,0,0,0,0,0,0,0,0,
0,0,0,0,0,0,0,0,0,0,0,0,0,0,0,0,
0,0,0,0,0,0,4858,4859,0,0,0,0,0,0,0,0,
0,4835,4836,0,0,0,4879,4880,0,0,0,0,0,0,0,0,
0,4856,4857,0,0,0,4900,4901,0,0,0,0,0,0,0,0,
0,0,0,0,0,0,0,0,0,0,0,0,0,0,0,0,
0,0,0,0,0,0,0,0,0,0,0,0,0,0,0,0,
0,0,0,0,0,0,0,0,0,0,0,0,0,0,0,0
</chunk>
   <chunk x="-80" y="0" width="16" height="16">
0,0,0,0,0,0,0,0,0,0,0,0,0,0,0,0,
0,0,7884,7885,7886,7887,0,0,0,0,0,0,0,0,0,0,
0,0,7916,7917,7918,7919,0,0,0,0,0,0,0,0,0,0,
0,0,7948,7949,7950,7951,0,0,0,0,0,0,0,0,0,0,
0,0,7980,7981,7982,7983,0,0,4587,4588,0,0,0,0,0,0,
0,0,8012,8013,8014,8015,0,0,4608,4609,0,0,0,0,0,0,
0,4925,4926,0,0,0,0,0,0,0,0,0,0,0,0,0,
0,4946,4947,0,0,0,0,0,0,0,0,0,0,0,0,0,
0,0,0,0,0,0,0,0,0,0,0,0,0,0,0,0,
0,0,0,0,0,4419,4420,0,0,0,0,0,0,0,0,0,
0,0,0,0,0,4440,4441,0,0,0,0,0,0,0,0,0,
0,0,0,0,0,0,0,0,0,0,0,0,0,0,0,0,
0,0,0,0,0,0,0,0,0,0,0,0,0,0,0,0,
0,0,0,0,0,0,0,0,0,0,0,0,0,0,0,0,
0,0,0,0,0,0,0,0,0,0,0,0,0,0,0,0,
0,0,0,0,0,0,0,0,0,0,0,0,0,0,0,0
</chunk>
   <chunk x="-96" y="16" width="16" height="16">
0,0,0,0,0,0,0,0,0,0,0,0,0,0,0,0,
0,0,0,0,0,0,0,0,0,0,0,0,0,0,0,0,
0,0,0,0,0,0,0,0,0,0,0,0,0,0,0,0,
0,0,0,0,0,0,0,0,0,0,0,0,0,0,0,0,
0,0,0,0,0,0,0,0,0,0,0,0,0,0,0,0,
0,0,0,0,0,0,0,0,0,0,0,0,0,0,0,0,
0,0,0,0,0,0,0,0,0,0,0,0,0,0,0,0,
0,0,0,0,0,0,0,0,0,0,0,0,0,0,0,0,
0,0,0,0,0,0,0,0,0,0,0,0,0,0,0,0,
0,0,0,0,0,0,0,7888,7889,7890,7891,0,0,0,0,0,
0,0,0,0,0,0,0,7920,7921,7922,7923,0,0,0,0,0,
0,0,0,0,0,0,0,7952,7953,7954,7955,0,0,0,0,0,
0,0,0,0,0,0,0,7984,7985,7986,7987,0,0,0,0,0,
0,0,0,0,0,0,0,8016,8017,8018,8019,0,0,0,0,0,
0,0,0,0,0,0,0,0,0,0,0,0,0,0,0,0,
0,0,0,0,0,0,0,0,0,0,0,0,0,0,0,0
</chunk>
   <chunk x="-80" y="16" width="16" height="16">
0,0,0,0,0,0,0,0,0,0,0,0,0,0,0,0,
0,0,0,0,0,0,0,0,0,0,0,0,0,0,0,0,
0,0,0,4940,0,0,0,0,0,0,0,0,0,0,0,0,
0,0,0,4961,0,0,0,0,0,0,0,0,0,0,0,0,
0,0,0,0,0,0,0,0,0,0,0,0,0,0,0,0,
0,0,0,0,0,0,0,0,0,0,0,0,0,0,0,0,
0,0,0,0,0,0,0,0,0,4921,4922,0,0,0,0,0,
0,0,0,0,0,0,0,0,0,4942,4943,0,0,0,0,0,
0,0,0,0,0,0,0,0,0,0,0,0,0,0,0,0,
0,0,0,0,0,0,0,0,0,0,0,0,0,0,0,0,
0,0,0,0,0,0,0,0,0,0,0,0,0,0,0,0,
0,0,0,0,0,0,0,0,0,0,0,0,0,0,0,0,
0,0,0,0,0,0,0,0,0,0,0,0,0,0,0,0,
0,0,0,0,0,0,0,0,0,0,0,0,0,0,0,0,
0,0,0,0,0,0,0,0,0,0,0,0,0,0,0,0,
0,0,0,0,0,0,0,0,0,0,0,0,0,0,0,0
</chunk>
   <chunk x="-96" y="32" width="16" height="16">
0,0,0,0,0,0,0,0,0,0,0,0,0,0,0,0,
0,0,0,0,0,0,0,0,0,0,0,0,0,0,0,0,
0,0,0,0,0,0,0,0,0,0,0,0,0,0,0,0,
0,0,0,0,0,0,0,0,0,0,0,0,0,0,0,0,
0,0,0,0,0,0,0,0,0,0,0,0,0,0,8058,8059,
0,0,0,0,0,0,0,0,0,0,0,0,0,0,8090,8091,
0,0,0,0,0,0,0,0,0,0,0,0,0,0,0,0,
0,0,0,0,0,0,0,0,0,0,0,0,0,0,0,0,
0,0,0,0,0,0,0,0,0,0,0,0,0,0,0,0,
0,0,0,0,0,0,0,0,0,0,0,0,0,0,0,0,
0,0,0,0,0,0,0,0,0,0,0,0,0,0,0,0,
0,0,0,0,0,0,0,0,0,0,0,0,0,0,0,0,
0,0,0,0,0,0,0,0,0,0,0,0,0,0,0,0,
0,0,0,0,0,0,0,0,0,0,0,0,0,0,0,0,
0,0,0,0,0,0,0,0,0,0,0,0,0,0,0,0,
0,0,0,0,0,0,0,0,0,0,0,0,0,0,0,0
</chunk>
   <chunk x="-80" y="32" width="16" height="16">
0,0,0,0,0,0,0,0,0,0,0,0,0,0,0,0,
0,0,0,0,0,0,0,0,0,0,0,0,0,0,0,0,
0,0,0,0,0,0,0,0,0,0,0,0,0,0,0,0,
0,0,0,0,0,0,0,0,0,0,0,0,0,0,0,0,
8060,0,0,0,0,0,0,0,0,0,0,0,0,0,0,0,
8092,0,0,0,0,0,0,0,0,0,0,0,0,0,0,0,
0,0,0,0,0,0,0,0,0,0,0,0,0,0,0,0,
0,0,0,0,0,0,0,0,0,0,0,0,0,0,0,0,
0,0,0,0,0,0,0,0,0,0,0,0,0,0,0,0,
0,0,0,0,0,0,0,0,0,0,0,0,0,0,0,0,
0,0,0,0,0,0,0,0,0,0,0,0,0,0,0,0,
0,0,0,0,4591,4592,0,0,0,0,0,0,0,0,0,0,
0,0,0,0,4612,4613,0,0,0,0,0,0,0,0,0,0,
0,0,0,0,0,0,0,0,0,0,0,0,0,0,0,0,
0,0,0,0,0,0,0,0,0,0,0,0,0,0,0,0,
0,0,0,0,0,0,0,0,0,0,0,0,0,0,0,0
</chunk>
   <chunk x="-96" y="48" width="16" height="16">
0,0,0,0,0,0,0,0,0,0,0,0,0,0,0,0,
0,0,0,0,0,0,0,0,0,0,0,0,0,0,0,0,
0,0,0,0,0,0,0,0,0,0,0,0,0,0,0,0,
0,0,0,0,0,0,0,0,0,0,0,0,0,0,0,0,
0,0,0,0,0,0,0,0,0,0,0,0,0,0,0,0,
0,0,0,0,0,0,0,0,0,0,0,0,0,0,0,0,
0,0,0,0,0,0,0,0,4680,0,0,0,0,0,0,0,
0,0,0,0,0,0,0,0,4701,0,0,0,0,0,0,0,
0,0,0,0,0,0,0,0,4722,0,0,0,0,0,0,0,
0,0,0,0,0,0,0,0,0,0,0,0,0,0,0,0,
0,0,0,0,0,0,0,0,0,0,0,0,0,0,0,0,
0,0,0,0,0,0,0,0,0,0,0,0,0,0,0,0,
0,0,0,0,0,0,0,0,0,0,0,0,0,0,0,0,
0,0,0,0,0,0,0,0,0,0,0,0,0,0,0,0,
0,0,0,0,0,0,0,0,0,0,0,0,0,0,0,0,
0,0,0,0,0,0,0,0,0,0,0,0,0,0,0,0
</chunk>
   <chunk x="-80" y="48" width="16" height="16">
0,0,0,0,0,0,0,0,0,0,0,0,0,0,0,0,
0,0,0,0,0,0,0,0,0,0,0,0,0,0,0,0,
0,0,0,0,0,0,0,0,0,0,0,0,0,0,0,0,
0,0,0,0,0,0,0,0,0,0,0,0,0,0,0,0,
0,0,0,0,0,0,0,0,0,0,0,0,0,0,0,0,
0,0,4790,4791,0,0,4626,0,0,0,0,0,0,0,0,0,
0,0,4811,4812,0,0,4647,0,0,0,0,0,0,0,0,0,
0,0,0,0,0,0,0,0,0,0,0,0,0,0,0,0,
0,0,0,0,0,0,0,0,0,0,0,0,0,0,0,0,
0,0,0,0,0,0,0,0,0,0,0,0,0,0,0,0,
0,0,0,0,0,0,0,0,0,0,0,0,0,0,0,0,
0,0,0,0,0,0,0,0,0,0,0,0,0,0,0,0,
0,0,0,0,0,0,0,0,0,0,0,0,0,0,0,0,
0,0,0,0,0,0,0,0,0,0,0,0,0,0,0,0,
0,0,0,0,0,0,0,0,0,0,0,0,0,0,0,0,
0,0,0,0,0,0,0,0,0,0,0,0,0,0,0,0
</chunk>
  </data>
 </layer>
 <group id="20" name="Ev">
  <layer id="4" name="Ev çit" width="30" height="20">
   <data encoding="csv">
    <chunk x="0" y="32" width="16" height="16">
0,0,0,0,0,0,0,0,0,0,0,0,0,0,0,0,
0,0,0,0,0,0,0,0,0,0,0,0,0,0,0,0,
0,0,0,0,0,0,0,0,0,0,0,0,0,0,0,0,
0,0,0,0,0,0,0,0,0,0,0,0,0,0,0,0,
0,0,0,0,0,0,0,0,0,0,0,0,0,0,0,653,
0,0,0,0,0,0,0,0,0,0,0,0,0,0,0,670,
0,0,0,0,0,0,0,0,0,0,0,0,0,0,0,670,
0,0,0,0,0,0,0,0,0,0,0,0,0,0,0,670,
0,0,0,0,0,0,0,0,0,0,0,0,0,0,0,670,
0,0,0,0,0,0,0,0,0,0,0,0,0,0,0,670,
0,0,0,0,0,0,0,0,0,0,0,0,0,0,0,670,
0,0,0,0,0,0,0,0,0,0,0,0,0,0,0,670,
0,0,0,0,0,0,0,0,0,0,0,0,0,0,0,670,
0,0,0,0,0,0,0,0,0,0,0,0,0,0,0,670,
0,0,0,0,0,0,0,0,0,0,0,0,0,0,0,670,
0,0,0,0,0,0,0,0,0,0,0,0,0,0,0,670
</chunk>
    <chunk x="16" y="32" width="16" height="16">
0,0,0,0,0,0,0,0,0,0,0,0,0,0,0,0,
0,0,0,0,0,0,0,0,0,0,0,0,0,0,0,0,
0,0,0,0,0,0,0,0,0,0,0,0,0,0,0,0,
0,0,0,0,0,0,0,0,0,0,0,0,0,0,0,0,
688,688,688,688,688,688,688,688,688,654,654,654,654,654,654,654,
0,0,0,0,0,0,0,0,0,0,0,0,0,0,0,0,
0,0,0,0,0,0,0,0,0,0,0,0,0,0,0,0,
0,0,0,0,0,0,0,0,0,0,0,0,0,0,0,0,
0,0,0,0,0,0,0,0,0,0,0,0,0,0,0,0,
0,0,0,0,0,0,0,0,0,0,0,0,0,0,0,0,
0,0,0,0,0,0,0,0,0,0,0,0,0,0,0,0,
0,0,0,0,0,0,0,0,0,0,0,0,0,0,0,0,
0,0,0,1190,1191,1192,0,0,0,0,0,0,0,0,0,0,
0,0,0,1207,1208,1209,0,0,0,0,0,0,0,0,0,0,
0,0,1538,1224,1225,1226,0,0,0,0,0,0,0,0,0,0,
0,0,0,0,0,0,0,0,0,0,0,0,0,0,0,0
</chunk>
    <chunk x="32" y="32" width="16" height="16">
0,0,0,0,0,0,0,0,0,0,0,0,0,0,0,0,
0,0,0,0,0,0,0,0,0,0,0,0,0,0,0,0,
0,0,0,0,0,0,0,0,0,0,0,0,0,0,0,0,
0,0,0,0,0,0,0,0,0,0,0,0,0,0,0,0,
654,654,654,654,654,654,654,654,654,654,655,0,0,0,0,0,
0,0,0,0,0,0,0,0,0,0,672,0,0,0,0,0,
0,0,0,0,0,0,0,0,0,0,672,0,0,0,0,0,
0,0,0,0,0,0,0,0,0,0,672,0,0,0,0,0,
0,0,0,0,0,0,0,0,0,0,672,0,0,0,0,0,
0,0,0,0,0,0,0,0,0,0,672,0,0,0,0,0,
0,0,0,0,779,781,0,0,0,0,672,0,0,0,0,0,
0,0,0,0,0,0,0,0,0,0,672,0,0,0,0,0,
0,0,0,0,0,0,0,0,0,0,672,0,0,0,0,0,
0,0,0,0,0,0,0,0,0,0,672,0,0,0,0,0,
0,0,0,0,0,0,0,0,0,0,672,0,0,0,0,0,
0,0,0,0,0,0,0,0,0,0,672,0,0,0,0,0
</chunk>
    <chunk x="-64" y="48" width="16" height="16">
0,0,0,0,0,0,0,0,0,0,0,0,0,0,0,0,
0,0,0,0,0,0,0,0,0,0,0,0,0,0,0,0,
0,0,0,0,0,0,0,0,0,0,0,0,0,0,0,0,
0,0,0,0,0,0,0,0,0,0,0,0,8022,0,0,0,
0,0,0,0,0,0,0,0,0,0,0,0,0,0,0,0,
0,0,0,0,0,0,0,0,0,0,0,0,0,0,0,0,
0,0,0,0,0,0,0,0,0,0,0,0,0,0,0,0,
0,0,0,0,0,0,0,0,0,0,0,0,0,0,0,0,
0,0,0,0,0,0,0,0,0,0,0,0,0,0,0,0,
0,0,0,0,0,0,0,0,0,0,0,0,0,0,0,0,
0,0,0,0,0,0,0,0,0,0,0,0,0,0,0,0,
0,0,0,0,0,0,0,0,0,0,0,0,0,0,0,0,
0,0,0,0,0,0,0,0,0,0,0,0,0,0,0,0,
0,0,0,0,0,0,0,0,0,0,0,0,0,0,0,0,
0,0,0,0,0,0,0,0,0,0,0,0,0,0,0,0,
0,0,0,0,0,0,0,0,0,0,0,0,0,0,0,0
</chunk>
    <chunk x="0" y="48" width="16" height="16">
0,0,0,0,0,0,0,0,0,0,0,0,0,0,0,670,
0,0,0,0,0,0,0,0,0,0,0,0,0,0,0,670,
0,0,0,0,0,0,0,0,0,0,0,0,0,0,0,687,
0,0,0,0,0,0,0,0,0,0,0,0,0,0,0,0,
0,0,0,0,0,0,0,0,0,0,0,0,0,0,0,0,
0,0,0,0,0,0,0,0,0,0,0,0,0,0,0,0,
0,0,0,0,0,0,0,0,0,0,0,0,0,0,0,0,
0,0,0,0,0,0,0,0,0,0,0,0,0,0,0,0,
0,0,0,0,0,0,0,0,0,0,0,0,0,0,0,0,
0,0,0,0,0,0,0,0,0,0,0,0,0,0,0,0,
0,0,0,0,0,0,0,0,0,0,0,0,0,0,0,0,
0,0,0,0,0,0,0,0,0,0,0,0,0,0,0,0,
0,0,0,0,0,0,0,0,0,0,0,0,0,0,0,0,
0,0,0,0,0,0,0,0,0,0,0,0,0,0,0,0,
0,0,0,0,0,0,0,0,0,0,0,0,0,0,0,0,
0,0,0,0,0,0,0,0,0,0,0,0,0,0,0,0
</chunk>
    <chunk x="16" y="48" width="16" height="16">
0,0,0,0,0,0,0,0,0,0,0,0,0,0,0,0,
0,0,0,0,0,0,0,0,0,0,0,0,0,0,0,0,
688,688,688,688,688,688,688,688,688,688,688,688,688,688,688,639,
0,0,0,0,0,0,0,0,0,0,0,0,0,0,0,0,
0,0,0,0,0,0,0,0,0,0,0,0,0,0,0,0,
0,0,0,0,0,0,0,0,0,0,0,0,0,0,0,0,
0,0,0,0,0,0,0,0,0,0,0,0,0,0,0,0,
0,0,0,0,0,0,0,0,0,0,0,0,0,0,0,0,
0,0,0,0,0,0,0,0,0,0,0,0,0,0,0,0,
0,0,0,0,0,0,0,0,0,0,0,0,0,0,0,0,
0,0,0,0,0,0,0,0,0,0,0,0,0,0,0,0,
0,0,0,0,0,0,0,0,0,0,0,0,0,0,0,0,
0,0,0,0,0,0,0,0,0,0,0,0,0,0,0,0,
0,0,0,0,0,0,0,0,0,0,0,0,0,0,0,0,
0,0,0,0,0,0,0,0,0,0,0,0,0,0,0,0,
0,0,0,0,0,0,0,0,0,0,0,0,0,0,0,0
</chunk>
    <chunk x="32" y="48" width="16" height="16">
0,0,0,0,0,0,0,0,0,0,672,0,0,0,0,0,
0,0,0,0,0,0,0,0,0,0,672,0,0,0,0,0,
640,688,688,688,688,688,688,688,688,688,689,0,0,0,0,0,
0,0,0,0,0,0,0,0,0,0,0,0,0,0,0,0,
0,0,0,0,0,0,0,0,0,0,0,0,0,0,0,0,
0,0,0,0,0,0,0,0,0,0,0,0,0,0,0,0,
0,0,0,0,0,0,0,0,0,0,0,0,0,0,0,0,
0,0,0,0,0,0,0,0,0,0,0,0,0,0,0,0,
0,0,0,0,0,0,0,0,0,0,0,0,0,0,0,0,
0,0,0,0,0,0,0,0,0,0,0,0,0,0,0,0,
0,0,0,0,0,0,0,0,0,0,0,0,0,0,0,0,
0,0,0,0,0,0,0,0,0,0,0,0,0,0,0,0,
0,0,0,0,0,0,0,0,0,0,0,0,0,0,0,0,
0,0,0,0,0,0,0,0,0,0,0,0,0,0,0,0,
0,0,0,0,0,0,0,0,0,0,0,0,0,0,0,0,
0,0,0,0,0,0,0,0,0,0,0,0,0,0,0,0
</chunk>
   </data>
  </layer>
  <layer id="3" name="Ev bahçe detay" width="30" height="20">
   <data encoding="csv">
    <chunk x="16" y="32" width="16" height="16">
0,0,0,0,0,0,0,0,0,0,0,0,0,0,0,0,
0,0,0,0,0,0,0,0,0,0,0,0,0,0,0,0,
0,0,0,0,0,0,0,0,0,0,0,0,0,0,0,0,
0,0,0,0,0,0,0,0,0,0,0,0,0,0,0,0,
0,0,0,0,0,0,0,0,0,0,0,0,0,0,0,0,
1086,0,0,0,0,0,0,0,0,0,0,0,0,0,0,0,
1086,0,0,0,0,0,0,0,0,0,0,0,0,1534,0,0,
1086,0,0,0,1328,1329,1330,0,0,0,0,0,0,0,0,0,
1087,0,0,0,1345,1346,1347,0,0,1279,1280,0,0,0,0,0,
1086,0,0,0,0,0,0,0,0,1296,1297,0,0,1193,1194,1195,
1086,0,0,0,0,0,1163,1164,0,0,0,0,0,1210,1211,1212,
1086,0,0,0,0,0,1180,1181,0,0,0,0,0,1227,1228,1229,
1086,0,0,0,0,0,0,0,0,0,0,0,0,0,0,0,
1088,1089,0,0,0,0,0,0,0,0,0,0,0,0,0,0,
1105,1106,0,0,0,0,0,0,0,0,0,0,0,0,0,0,
1086,0,0,0,0,0,0,0,0,0,0,0,0,0,0,0
</chunk>
    <chunk x="32" y="32" width="16" height="16">
0,0,0,0,0,0,0,0,0,0,0,0,0,0,0,0,
0,0,0,0,0,0,0,0,0,0,0,0,0,0,0,0,
0,0,0,0,0,0,0,0,0,0,0,0,0,0,0,0,
0,0,0,0,0,0,0,0,0,0,0,0,0,0,0,0,
0,0,0,0,0,0,1025,1026,1027,1028,0,0,0,0,0,0,
0,0,0,0,0,0,1042,1043,1044,1045,0,0,0,0,0,0,
0,0,0,0,0,0,1059,1060,1061,1062,0,0,0,0,0,0,
0,0,0,0,0,0,1076,1077,1078,1079,0,0,0,0,0,0,
0,0,0,0,0,0,0,0,1281,1282,0,0,0,0,0,0,
0,0,0,0,0,0,0,0,1298,1299,0,0,0,0,0,0,
0,0,0,0,0,0,0,1530,0,0,0,0,0,0,0,0,
0,0,0,0,0,0,0,0,0,0,0,0,0,0,0,0,
1540,1541,0,0,0,0,0,0,0,0,0,0,0,0,0,0,
0,0,0,0,0,0,0,0,0,0,0,0,0,0,0,0,
0,0,0,0,0,0,0,1552,0,0,0,0,0,0,0,0,
0,0,0,0,0,0,0,0,0,0,0,0,0,0,0,0
</chunk>
    <chunk x="16" y="48" width="16" height="16">
1086,0,0,0,0,0,0,0,0,0,0,0,0,0,0,0,
1086,0,0,0,0,0,0,0,0,0,0,0,0,0,0,0,
0,0,0,0,0,0,0,0,0,0,0,0,0,0,0,0,
0,0,0,0,0,0,0,0,0,0,0,0,0,0,0,0,
0,0,0,0,0,0,0,0,0,0,0,0,0,0,0,0,
0,0,0,0,0,0,0,0,0,0,0,0,0,0,0,0,
0,0,0,0,0,0,0,0,0,0,0,0,0,0,0,0,
0,0,0,0,0,0,0,0,0,0,0,0,0,0,0,0,
0,0,0,0,0,0,0,0,0,0,0,0,0,0,0,0,
0,0,0,0,0,0,0,0,0,0,0,0,0,0,0,0,
0,0,0,0,0,0,0,0,0,0,0,0,0,0,0,0,
0,0,0,0,0,0,0,0,0,0,0,0,0,0,0,0,
0,0,0,0,0,0,0,0,0,0,0,0,0,0,0,0,
0,0,0,0,0,0,0,0,0,0,0,0,0,0,0,0,
0,0,0,0,0,0,0,0,0,0,0,0,0,0,0,0,
0,0,0,0,0,0,0,0,0,0,0,0,0,0,0,0
</chunk>
    <chunk x="32" y="48" width="16" height="16">
0,0,1550,0,0,0,0,0,1161,1162,0,0,0,0,0,0,
0,0,0,0,0,0,0,0,1178,1179,0,0,0,0,0,0,
0,0,0,0,0,0,0,0,0,0,0,0,0,0,0,0,
0,0,0,0,0,0,0,0,0,0,0,0,0,0,0,0,
0,0,0,0,0,0,0,0,0,0,0,0,0,0,0,0,
0,0,0,0,0,0,0,0,0,0,0,0,0,0,0,0,
0,0,0,0,0,0,0,0,0,0,0,0,0,0,0,0,
0,0,0,0,0,0,0,0,0,0,0,0,0,0,0,0,
0,0,0,0,0,0,0,0,0,0,0,0,0,0,0,0,
0,0,0,0,0,0,0,0,0,0,0,0,0,0,0,0,
0,0,0,0,0,0,0,0,0,0,0,0,0,0,0,0,
0,0,0,0,0,0,0,0,0,0,0,0,0,0,0,0,
0,0,0,0,0,0,0,0,0,0,0,0,0,0,0,0,
0,0,0,0,0,0,0,0,0,0,0,0,0,0,0,0,
0,0,0,0,0,0,0,0,0,0,0,0,0,0,0,0,
0,0,0,0,0,0,0,0,0,0,0,0,0,0,0,0
</chunk>
   </data>
  </layer>
  <layer id="12" name="Ev" width="30" height="20">
   <data encoding="csv">
    <chunk x="16" y="32" width="16" height="16">
0,0,0,0,0,0,0,0,0,0,0,0,0,0,0,0,
0,0,0,0,0,0,0,0,0,0,0,0,0,0,0,0,
0,0,0,0,0,0,0,0,0,0,0,0,0,0,0,0,
0,0,0,0,0,0,0,0,0,0,0,0,0,0,0,0,
0,0,0,0,0,0,0,0,0,0,0,0,0,0,0,0,
0,0,0,0,0,0,0,0,0,0,0,0,0,0,0,0,
0,0,0,0,0,0,0,0,0,0,0,0,0,0,0,0,
0,0,0,0,0,0,0,0,0,0,0,0,0,0,0,449,
0,0,0,0,0,0,0,0,0,0,0,0,0,0,0,459,
0,0,0,0,0,0,0,0,0,0,0,0,0,0,0,469,
0,0,0,0,0,0,0,0,0,0,0,0,0,0,0,479,
0,0,0,0,0,0,0,0,0,0,0,0,0,0,0,489,
0,0,0,0,0,0,0,0,0,0,0,0,0,0,0,0,
0,0,0,0,0,0,0,0,0,0,0,0,0,0,0,0,
0,0,0,0,0,0,0,0,0,0,0,0,0,0,0,0,
0,0,0,0,0,0,0,0,0,0,0,0,0,0,0,0
</chunk>
    <chunk x="32" y="32" width="16" height="16">
0,0,0,0,0,0,0,0,0,0,0,0,0,0,0,0,
0,0,0,0,0,0,0,0,0,0,0,0,0,0,0,0,
0,0,0,0,0,0,0,0,0,0,0,0,0,0,0,0,
0,0,0,0,0,0,0,0,0,0,0,0,0,0,0,0,
0,0,0,0,0,0,0,0,0,0,0,0,0,0,0,0,
0,0,0,0,0,0,0,0,0,0,0,0,0,0,0,0,
0,0,0,0,0,0,0,0,0,0,0,0,0,0,0,0,
450,451,452,453,454,455,456,0,0,0,0,0,0,0,0,0,
460,461,462,463,464,465,466,0,0,0,0,0,0,0,0,0,
470,471,472,473,474,475,476,0,0,0,0,0,0,0,0,0,
480,481,482,483,484,485,486,0,0,0,0,0,0,0,0,0,
490,491,492,493,494,495,496,0,0,0,0,0,0,0,0,0,
0,0,0,0,0,0,0,0,0,0,0,0,0,0,0,0,
0,0,0,0,0,0,0,0,0,0,0,0,0,0,0,0,
0,0,0,0,0,0,0,0,0,0,0,0,0,0,0,0,
0,0,0,0,0,0,0,0,0,0,0,0,0,0,0,0
</chunk>
    <chunk x="16" y="48" width="16" height="16">
0,0,0,0,0,0,0,0,0,0,0,0,0,0,0,0,
0,0,0,0,0,0,0,0,0,0,0,0,0,0,0,0,
0,4752,4753,4754,0,0,0,0,0,0,0,0,0,4767,4768,0,
0,4773,4774,4775,4776,0,0,0,0,0,0,0,0,0,0,0,
0,0,0,0,0,0,0,0,0,0,0,0,0,0,0,0,
0,0,0,0,0,0,0,0,0,0,0,0,0,0,0,0,
0,0,0,0,0,0,0,0,0,0,0,0,0,0,0,0,
0,0,0,0,0,0,0,0,0,0,0,0,0,0,0,0,
0,0,0,0,0,0,0,0,0,0,0,0,0,0,0,0,
0,0,0,0,0,0,0,0,0,0,0,0,0,0,0,0,
0,0,0,0,0,0,0,0,0,0,0,0,0,0,0,0,
0,0,0,0,0,0,0,0,0,0,0,0,0,0,0,0,
0,0,0,0,0,0,0,0,0,0,0,0,0,0,0,0,
0,0,0,0,0,0,0,0,0,0,0,0,0,0,0,0,
0,0,0,0,0,0,0,0,0,0,0,0,0,0,0,0,
0,0,0,0,0,0,0,0,0,0,0,0,0,0,0,0
</chunk>
    <chunk x="32" y="48" width="16" height="16">
0,0,0,0,0,0,0,0,0,0,0,0,0,0,0,0,
0,0,0,0,0,0,0,0,0,0,0,0,0,0,0,0,
0,0,0,0,0,0,0,4749,4750,4751,0,0,0,0,0,0,
0,0,0,0,0,0,0,4770,4771,4772,0,0,0,0,0,0,
0,0,0,0,0,0,0,0,0,0,0,0,0,0,0,0,
0,0,0,0,0,0,0,0,0,0,0,0,0,0,0,0,
0,0,0,0,0,0,0,0,0,0,0,0,0,0,0,0,
0,0,0,0,0,0,0,0,0,0,0,0,0,0,0,0,
0,0,0,0,0,0,0,0,0,0,0,0,0,0,0,0,
0,0,0,0,0,0,0,0,0,0,0,0,0,0,0,0,
0,0,0,0,0,0,0,0,0,0,0,0,0,0,0,0,
0,0,0,0,0,0,0,0,0,0,0,0,0,0,0,0,
0,0,0,0,0,0,0,0,0,0,0,0,0,0,0,0,
0,0,0,0,0,0,0,0,0,0,0,0,0,0,0,0,
0,0,0,0,0,0,0,0,0,0,0,0,0,0,0,0,
0,0,0,0,0,0,0,0,0,0,0,0,0,0,0,0
</chunk>
   </data>
  </layer>
  <layer id="6" name="Ev detay" width="30" height="20">
   <data encoding="csv">
    <chunk x="16" y="32" width="16" height="16">
0,0,0,0,0,0,0,0,0,0,0,0,0,0,0,0,
0,0,0,0,0,0,0,0,0,0,0,0,0,0,0,0,
0,0,0,0,0,0,0,0,0,0,0,0,0,0,0,0,
0,0,0,0,0,0,0,0,0,0,0,0,0,0,0,4225,
0,0,0,0,0,0,0,0,0,0,0,0,0,0,0,4243,
0,0,0,0,0,0,0,0,0,0,0,0,0,0,508,4261,
0,0,0,0,0,0,0,0,0,0,0,0,0,0,518,519,
0,0,0,0,0,0,0,0,0,0,0,0,0,0,528,529,
0,0,0,0,0,0,0,0,0,0,0,0,0,0,538,539,
0,0,0,0,0,0,0,0,0,0,0,0,0,0,548,549,
0,0,0,0,0,0,0,0,0,0,0,0,0,0,558,559,
0,0,0,0,0,0,0,0,0,0,0,0,0,0,0,0,
0,0,0,0,0,0,0,0,0,0,0,0,0,0,0,0,
0,0,0,0,0,0,0,0,0,0,0,0,0,0,0,0,
0,0,0,0,0,0,0,0,0,0,0,0,0,0,0,0,
0,0,0,0,0,0,0,0,0,0,0,0,0,0,0,0
</chunk>
    <chunk x="32" y="32" width="16" height="16">
0,0,0,0,0,0,0,0,0,0,0,0,0,0,0,0,
0,0,0,0,0,0,0,0,0,0,0,0,0,0,0,0,
0,0,0,0,0,0,0,0,0,0,0,0,0,0,0,0,
4226,4227,0,0,0,0,0,0,0,0,0,0,0,0,0,0,
4244,4245,502,503,504,505,506,507,0,0,0,0,0,0,0,0,
4262,4263,512,513,514,515,516,517,0,0,0,0,0,0,0,0,
520,521,522,523,524,525,526,527,0,0,0,0,0,0,0,0,
530,531,532,533,534,535,536,537,0,0,0,0,0,0,0,0,
540,541,542,543,544,545,546,547,0,0,0,0,0,0,0,0,
550,551,552,553,554,555,556,557,0,0,0,0,0,0,0,0,
560,561,562,563,564,565,566,567,0,0,0,0,0,0,0,0,
0,0,0,0,0,0,0,0,0,0,0,0,0,0,0,0,
0,0,0,0,0,0,0,0,0,0,0,0,0,0,0,0,
0,0,0,0,0,0,0,0,0,0,0,0,0,0,0,0,
0,0,0,0,0,0,0,0,0,0,0,0,0,0,0,0,
0,0,0,0,0,0,0,0,0,0,0,0,0,0,0,0
</chunk>
   </data>
  </layer>
  <layer id="5" name="Ev pencere" width="30" height="20">
   <data encoding="csv">
    <chunk x="32" y="32" width="16" height="16">
0,0,0,0,0,0,0,0,0,0,0,0,0,0,0,0,
0,0,0,0,0,0,0,0,0,0,0,0,0,0,0,0,
0,0,0,0,0,0,0,0,0,0,0,0,0,0,0,0,
0,0,0,0,0,0,0,0,0,0,0,0,0,0,0,0,
0,0,0,0,0,0,0,0,0,0,0,0,0,0,0,0,
0,0,0,0,0,0,0,0,0,0,0,0,0,0,0,0,
0,0,0,0,0,0,0,0,0,0,0,0,0,0,0,0,
0,0,0,0,0,0,0,0,0,0,0,0,0,0,0,0,
588,589,590,591,0,0,0,0,0,0,0,0,0,0,0,0,
598,599,600,601,0,0,0,0,0,0,0,0,0,0,0,0,
571,572,573,574,0,0,0,0,0,0,0,0,0,0,0,0,
581,582,583,584,0,0,0,0,0,0,0,0,0,0,0,0,
0,0,0,0,0,0,0,0,0,0,0,0,0,0,0,0,
0,0,0,0,0,0,0,0,0,0,0,0,0,0,0,0,
0,0,0,0,0,0,0,0,0,0,0,0,0,0,0,0,
0,0,0,0,0,0,0,0,0,0,0,0,0,0,0,0
</chunk>
   </data>
  </layer>
 </group>
</map>
